hisham246/universal_manipulation_interface/panda_state_polymetis/replay_log_trial_1.csv
time_rel,desired_ee_0,desired_ee_1,desired_ee_2,desired_ee_3,desired_ee_4,desired_ee_5,actual_ee_0,actual_ee_1,actual_ee_2,actual_ee_3,actual_ee_4,actual_ee_5,actual_q_0,actual_q_1,actual_q_2,actual_q_3,actual_q_4,actual_q_5,actual_q_6,actual_qd_0,actual_qd_1,actual_qd_2,actual_qd_3,actual_qd_4,actual_qd_5,actual_qd_6
2.9159982659621164e-06,0.4730842773524093,-0.013271995675908432,0.3993642756509252,-2.8400561486336944,1.1735881077087278,-0.11897175648019735,0.4730837345123291,-0.013271087780594826,0.3993648886680603,-2.840063863375222,1.173574120978055,-0.11897603744067023,-0.30994245409965515,-0.20936892926692963,0.27411097288131714,-2.4070518016815186,0.12284661084413528,2.297335386276245,0.6674366593360901,8.740061457501724e-05,-0.00013245578156784177,-1.322912794421427e-05,-4.58323338534683e-05,-5.44239446753636e-05,0.00026332345441915095,0.0013588267611339688
0.012673545999859925,0.47285308441777085,-0.013287556286224389,0.3994200318225132,-2.840118878261111,1.1736206830441491,-0.119004506552826,0.4730832576751709,-0.013272014446556568,0.3993641436100006,-2.8400616491987285,1.1735807778121157,-0.11897363363070723,-0.30994197726249695,-0.20936506986618042,0.2741093039512634,-2.4070537090301514,0.12284474819898605,2.297334671020508,0.6674312353134155,9.702765237307176e-05,0.0008668555528856814,-0.0005347834667190909,-0.00039019802352413535,0.0003951409598812461,0.00018498873396310955,-0.0004396500007715076
0.025557387998560444,0.4726180011392974,-0.013303378738990264,0.3994767262177486,-2.8401826630186555,1.1736538066540063,-0.11903780906664382,0.47308340668678284,-0.013272734358906746,0.39936351776123047,-2.8400568217263205,1.1735825988097905,-0.11897048965753655,-0.30994006991386414,-0.2093687206506729,0.2741076350212097,-2.4070465564727783,0.12284604460000992,2.2973361015319824,0.6674397587776184,0.0002754541055765003,-0.00011365453246980906,-0.0013404684141278267,0.0015261787921190262,-0.0005763218505308032,0.000377771066268906,0.0013838509330525994
0.035685111999555374,0.4724332069946729,-0.013315816444656613,0.39952129251927615,-2.8402328025987633,1.1736798445299745,-0.11906398844351161,0.4730832278728485,-0.013271291740238667,0.39936184883117676,-2.840060541859201,1.173582824204192,-0.11896614433481553,-0.3099434971809387,-0.20936988294124603,0.2741093039512634,-2.4070510864257812,0.1228441372513771,2.2973361015319824,0.6674333214759827,-0.0006685291882604361,-2.3696878997725435e-05,-0.0008205847698263824,0.0004097442142665386,4.210955376038328e-05,0.0002123635058524087,5.761883221566677e-05
0.04588214599971252,0.4722471481945336,-0.013328339268891482,0.3995661638143364,-2.8402832850380912,1.173706060674537,-0.11909034782943052,0.4730820655822754,-0.01327225286513567,0.39936283230781555,-2.8400633765494687,1.1735783017585224,-0.11897110750459645,-0.30994173884391785,-0.2093702256679535,0.2741076350212097,-2.407057523727417,0.12284519523382187,2.2973358631134033,0.66743403673172,-0.0002588672796264291,-0.0005992650403641164,-0.001265923143364489,-0.0038977577351033688,0.00011078661191277206,-5.723288995795883e-05,0.0008932698983699083
0.05561388399837597,0.47206957935488153,-0.013340290670098455,0.39960898760870456,-2.840331463679405,1.1737310806338357,-0.11911550521643681,0.4730803668498993,-0.013273246586322784,0.39935827255249023,-2.8400617293140917,1.1735876369718485,-0.11895413939610303,-0.30994752049446106,-0.2093723565340042,0.27410849928855896,-2.407059669494629,0.1228487491607666,2.2973320484161377,0.6674358248710632,-0.0013034907169640064,-0.0006221554358489811,-0.0002313197765033692,-0.0017567924223840237,4.8853438784135506e-05,0.0002533921506255865,0.0009267577552236617
0.06634910100001434,0.47187370067147927,-0.0133534744287907,0.3996562271383177,-2.8403846099238077,1.173758680583285,-0.11914325758291372,0.4730773866176605,-0.013274758122861385,0.3993578553199768,-2.8400601230990388,1.1735967898287307,-0.1189480816532032,-0.3099406063556671,-0.20937448740005493,0.2741105258464813,-2.407064437866211,0.12284785509109497,2.2973334789276123,0.6674383878707886,0.0012134215794503689,-0.0006211280124261975,0.0003671962476801127,0.001443664077669382,-0.00016725687601137906,0.00048175491974689066,0.0005450437311083078
0.07679134699901624,0.47168316764380636,-0.01336629839419679,0.39970217747066983,-2.8404363054788186,1.1737855273934168,-0.11917025347444549,0.4730760455131531,-0.013274080120027065,0.3993558883666992,-2.8400627929474687,1.1735914974814223,-0.11894503308695933,-0.30994468927383423,-0.20937876403331757,0.27410444617271423,-2.4070773124694824,0.12284757941961288,2.2973320484161377,0.6674328446388245,-0.00017240687157027423,-0.0002832837344612926,-0.0009396533714607358,-0.001651486847549677,-0.00013224621943663806,-0.00033296248875558376,-0.0011957228416576982
0.08686944699911692,0.4714992789567947,-0.013378675157373293,0.39974652540544625,-2.8404861980116256,1.1738114380671756,-0.11919630880134022,0.47307097911834717,-0.013273424468934536,0.39935141801834106,-2.840075642404178,1.1735921857611387,-0.11892704693267778,-0.3099425435066223,-0.20938634872436523,0.27410972118377686,-2.407089948654175,0.12284450232982635,2.2973275184631348,0.6674358248710632,0.0005955767119303346,-0.001019543968141079,0.00010396141442470253,0.00011632383393589407,-0.00014038363588042557,-0.0003785617009270936,0.0012736691860482097
0.09607417400002305,0.4713313261519525,-0.013389979344292794,0.3997870301268388,-2.8405317665974565,1.1738351033745817,-0.11922010688753983,0.47306591272354126,-0.013275021687150002,0.3993457853794098,-2.840071127696425,1.1736063967538968,-0.11890694820765398,-0.309944212436676,-0.20938585698604584,0.27410972118377686,-2.407104253768921,0.12284780293703079,2.297328472137451,0.6674298048019409,0.00014010023733135313,0.0007841071928851306,0.0002357431367272511,-2.728304752963595e-05,-3.729285890585743e-05,0.00027787723229266703,-0.0009629978449083865
0.10468015299920808,0.4711742983214493,-0.013400548217788175,0.3998249001018678,-2.8405743708394,1.1738572293600795,-0.11924235758601524,0.4730609655380249,-0.01327524520456791,0.39933934807777405,-2.8400829552297133,1.1736046172817618,-0.11889097457610277,-0.3099444508552551,-0.20939582586288452,0.27410778403282166,-2.407128095626831,0.1228444054722786,2.297328472137451,0.6674304008483887,-0.0006448238855227828,-0.001010689651593566,-5.587721898336895e-05,-0.0014605952892452478,-0.0007552037131972611,-6.675425538560376e-05,-0.0008958674734458327
0.11338881499978015,0.47101539689946526,-0.013411243194734641,0.3998632219258611,-2.8406174832170716,1.1738796193990515,-0.11926487438789177,0.47305113077163696,-0.013274145312607288,0.39932507276535034,-2.8400931094194624,1.173613812945887,-0.11883950758825801,-0.30994826555252075,-0.20939885079860687,0.27410972118377686,-2.4071571826934814,0.12284497171640396,2.297327756881714,0.6674358248710632,-0.0011704079806804657,0.0003439675783738494,-0.00012097084254492074,-7.732358790235594e-05,-3.131593985017389e-05,-0.00015947615611366928,0.0011189760407432914
0.12309341199943447,0.4708383232843765,-0.013423161264488554,0.39990592628826743,-2.840665525750012,1.1739045700603492,-0.11928996697479899,0.4730422794818878,-0.01327477302402258,0.39931318163871765,-2.84010315540285,1.1736210540915952,-0.11880378941114454,-0.3099432587623596,-0.20940501987934113,0.27410948276519775,-2.407193899154663,0.12285023927688599,2.297322988510132,0.6674327254295349,0.0006651779403910041,-0.0005558854318223894,0.0002511537168174982,-0.006308897864073515,0.0006891640950925648,-0.00024584511993452907,0.00019258192332927138
0.13168986399978166,0.47068146928696764,-0.013433718438019816,0.39994375434044155,-2.840708082210363,1.1739266717223082,-0.11931219494252548,0.4730251729488373,-0.013277425430715084,0.39929214119911194,-2.840120003631453,1.1736434307840498,-0.1187360649310927,-0.3099432587623596,-0.20942111313343048,0.274106502532959,-2.4072494506835938,0.12284890562295914,2.297323703765869,0.6674298048019409,0.0005645115161314607,-0.0007272501243278384,0.000358029268682003,-0.006715240888297558,0.00013156328350305557,-2.2756936232326552e-05,-0.0009018185082823038
0.14276116299879504,0.4704794583289079,-0.013447314933963063,0.3999924727740643,-2.840762890031859,1.1739551363487193,-0.11934082304860895,0.4730056822299957,-0.013278690166771412,0.3992711901664734,-2.840135976469254,1.1736649116225557,-0.11866996889389957,-0.3099432587623596,-0.20943613350391388,0.2741045653820038,-2.407313823699951,0.12284888327121735,2.297319173812866,0.6674347519874573,0.000274942081887275,-0.003107937052845955,-0.0002688449458219111,-0.00668602529913187,-0.00019718434487003833,0.00016969356511253864,0.0007643478456884623
0.1528232639993803,0.47029586156547454,-0.01345967204900866,0.4000367503064248,-2.8408127015944826,1.1739810063762237,-0.1193668424464371,0.47298094630241394,-0.013279594480991364,0.3992449939250946,-2.840162000540097,1.1736843974760784,-0.11858461704423573,-0.3099432587623596,-0.20946456491947174,0.2741014063358307,-2.4073920249938965,0.12284821271896362,2.297316551208496,0.667431116104126,0.00011820672079920769,-0.004054776858538389,-0.0007159083615988493,-0.008255759254097939,-0.00012388110917527229,0.0004130669985897839,-0.0007969983271323144
0.16327181099950394,0.47010521356743795,-0.013472503752579551,0.4000827283658671,-2.8408644259395466,1.174007870049068,-0.11939386202510797,0.47295570373535156,-0.0132820513099432,0.3992222249507904,-2.8401853628821705,1.173708445815738,-0.11851146037280628,-0.3099432587623596,-0.2094956338405609,0.274099737405777,-2.407473564147949,0.12284892052412033,2.2973079681396484,0.6674354672431946,0.00046992130228318274,-0.003143403446301818,-0.000865799083840102,-0.004364725202322006,0.007302288431674242,-0.0004322853055782616,0.0008671862306073308
0.17287749299975985,0.46992994479149197,-0.013484300346309,0.40012499746012353,-2.8409119775208596,1.1740325667496854,-0.11941870277294409,0.4729284644126892,-0.013282868079841137,0.3991956412792206,-2.8402121600376753,1.173730663924671,-0.11842509090574457,-0.3099457025527954,-0.209538996219635,0.2740980386734009,-2.4075820446014404,0.12284816801548004,2.2973034381866455,0.66743403673172,0.000363539787940681,-0.004715712741017342,-0.0014627004275098443,-0.012807577848434448,0.0002395266928942874,-0.0004543931863736361,0.0005290905246511102
0.18341057899851876,0.4697377542640639,-0.01349723587095383,0.400171347527186,-2.8409641198033175,1.1740596479313288,-0.11944594269990202,0.4728996157646179,-0.013283380307257175,0.3991672396659851,-2.840242183093001,1.173752460778285,-0.11833597310251041,-0.3099434971809387,-0.2095744013786316,0.2741001546382904,-2.407668113708496,0.12284821271896362,2.2973036766052246,0.6674347519874573,0.0005402142996899784,-0.0051878709346055984,0.0003728774900082499,-0.008552683517336845,-1.5932739188428968e-05,0.0004945325199514627,0.0003707341675180942
0.19352676099879318,0.4695531707189926,-0.013509659402062524,0.4002158630389918,-2.841014197994209,1.1740856573049914,-0.11947210531436576,0.47287091612815857,-0.013284594751894474,0.39913642406463623,-2.840272118269113,1.1737742374129085,-0.11823936799330236,-0.3099413812160492,-0.2096124291419983,0.2740989625453949,-2.4077820777893066,0.12284821271896362,2.2972934246063232,0.6674347519874573,0.0013526075053960085,-0.0036298229824751616,0.00014610111247748137,-0.009302482008934021,-0.009457282721996307,-0.0003502754552755505,0.0006031465600244701
0.20372477699856972,0.4693670940009303,-0.01352218343227637,0.4002607386552689,-2.8410646810127003,1.174111877155293,-0.11949848041738706,0.4728359282016754,-0.013287008740007877,0.39910179376602173,-2.84030941390113,1.1738022499582894,-0.11812751857417882,-0.3099452257156372,-0.20965053141117096,0.27409598231315613,-2.4078848361968994,0.12284821271896362,2.2972919940948486,0.6674318313598633,0.0003465352638158947,-0.005121027585119009,-0.00021449380437843502,-0.0071778204292058945,-0.0004947266425006092,-0.0002233255945611745,-0.0007901465287432075
0.21384384399971168,0.46918245781508133,-0.013534610506411278,0.40030526686230794,-2.841114772938053,1.1741378940973366,-0.11952465217669868,0.47280529141426086,-0.013290086761116982,0.3990674316883087,-2.8403401277421096,1.1738317857672933,-0.11801777324836109,-0.30994367599487305,-0.20969265699386597,0.27409693598747253,-2.408008098602295,0.12284760177135468,2.2972822189331055,0.6674347519874573,0.001336839864961803,-0.008007494732737541,-0.00010245512385154143,-0.010950719006359577,-0.00039044750155881047,-8.138453995343298e-05,0.00011100344272563234
0.22434031299962953,0.4689909354147644,-0.013547501062270038,0.4003514557989712,-2.841166732810163,1.174164881449927,-0.11955180092739635,0.4727758467197418,-0.013287274166941643,0.3990423083305359,-2.8403692820918898,1.1738450856051903,-0.1179397927291819,-0.309944212436676,-0.2097320705652237,0.27409499883651733,-2.4081051349639893,0.12284892052412033,2.2972829341888428,0.667431116104126,-0.00021576705330517143,-0.006790710147470236,-0.0010762761812657118,-0.010420418344438076,-4.573262049234472e-05,0.0006557145970873535,-0.0006870126817375422
0.23350558499987528,0.46882370252024924,-0.013558756795096081,0.40039178690154714,-2.841212102719159,1.1741884462431051,-0.11957550732151614,0.4727398753166199,-0.013288939371705055,0.3990097939968109,-2.840402260780745,1.173883756862753,-0.11783131736105311,-0.3099414110183716,-0.20978902280330658,0.27409622073173523,-2.4082295894622803,0.12284821271896362,2.2972726821899414,0.6674339771270752,0.0008753618458285928,-0.008093501441180706,0.00025384771288372576,-0.0126584991812706,-8.169552165782079e-05,-0.0008554311352781951,0.0006522523472085595
0.2438302289992862,0.46863531530153785,-0.013571436335253562,0.4004372197349851,-2.841263211480982,1.1742149919667009,-0.11960221330831866,0.4726906418800354,-0.013291372917592525,0.3989686071872711,-2.8404468567815178,1.1739274172150924,-0.11770844040430896,-0.3099497854709625,-0.20986449718475342,0.27409371733665466,-2.4083914756774902,0.122846320271492,2.297268867492676,0.6674333214759827,-0.0006221895455382764,-0.000965462124440819,0.0003455526602920145,-0.013426088728010654,-0.0007453431026078761,-0.0007639256655238569,-0.0009151360718533397
0.25529282499883266,0.46842616459574205,-0.013585513377163533,0.40048766004216113,-2.8413199529682824,1.1742444635737819,-0.1196318637735544,0.4726499617099762,-0.013294875621795654,0.3989403247833252,-2.840487078007081,1.1739482103564314,-0.11762149629011986,-0.30994802713394165,-0.209940567612648,0.27409055829048157,-2.4085264205932617,0.12284988909959793,2.2972657680511475,0.6674339175224304,-0.0002763017255347222,-0.008634580299258232,-0.00012722282554022968,-0.012774204835295677,0.0004484818200580776,0.00032292972900904715,0.0013159835943952203
0.26439628199841536,0.4682600596002664,-0.013596693195916092,0.4005277191323917,-2.8413650161313533,1.174267869641241,-0.11965541258615951,0.47260576486587524,-0.013295170851051807,0.3989088833332062,-2.840526069053112,1.1739782218387789,-0.11752951485773583,-0.3099481165409088,-0.21002186834812164,0.27408549189567566,-2.408677816390991,0.12284927815198898,2.2972638607025146,0.6674277186393738,-0.00041526989662088454,-0.007512323092669249,-0.0008261947659775615,-0.016799861565232277,0.0001740863808663562,0.0001897150359582156,-0.0009854757227003574
0.27332562999981747,0.4680971314610505,-0.01360765919402415,0.40056701206883394,-2.841409217220407,1.1742908281129045,-0.11967851167334113,0.4725579619407654,-0.013297510333359241,0.3988760709762573,-2.8405600436968776,1.1740264676159649,-0.11743169591649281,-0.3099474012851715,-0.21010813117027283,0.2740854024887085,-2.4088406562805176,0.12284821271896362,2.297262191772461,0.6674285531044006,8.356991020264104e-05,-0.010327205061912537,0.0002164382312912494,-0.01960100419819355,6.68566208332777e-05,-0.0003114758583251387,-0.0004352539835963398
0.28240514999924926,0.46793146322880685,-0.013618809616106503,0.40060696582606314,-2.8414541614568773,1.174314172755576,-0.11970199990614412,0.4725019037723541,-0.013300943188369274,0.39884793758392334,-2.840608931540735,1.1740649376220944,-0.11735077224587319,-0.30995145440101624,-0.21022792160511017,0.2740859091281891,-2.4090280532836914,0.12284892797470093,2.2972540855407715,0.6674270629882812,-0.0010571809252724051,-0.014562765136361122,0.0009268232970498502,-0.0180218368768692,0.00016358318680431694,0.00023753507412038743,-0.0009353428613394499
0.29215316899899335,0.4677535973200731,-0.013630781011766267,0.40064986126377417,-2.841502414564122,1.1743392362646368,-0.11972721826191966,0.47244134545326233,-0.013302767649292946,0.3988126218318939,-2.8406543824067207,1.1741173820122164,-0.11724226618625097,-0.3099497854709625,-0.21033714711666107,0.2740793824195862,-2.40920090675354,0.12285182625055313,2.297248601913452,0.6674299836158752,-0.00046668609138578176,-0.01407624687999487,9.593407412467059e-06,-0.0166904516518116,8.001033711479977e-05,-9.803236025618389e-05,0.00039604410994797945
0.30208649599990167,0.467572350213988,-0.01364297998139782,0.40069357213565915,-2.8415515846935016,1.1743647762980134,-0.11975291681474277,0.47237542271614075,-0.013301742263138294,0.3987739682197571,-2.8407184841995354,1.1741493228788342,-0.11711949898612338,-0.3099498152732849,-0.2104705572128296,0.27407902479171753,-2.409406900405884,0.1228535994887352,2.297234058380127,0.6674278378486633,-0.0002929347683675587,-0.013497928157448769,0.000176182875293307,-0.02182353287935257,0.00040034676203504205,-0.001161851454526186,-0.0003565324586816132
0.3118676179983595,0.4673938802958706,-0.013654992030352898,0.40073661324067134,-2.8416000011488736,1.1743899250608762,-0.11977822238730354,0.472310870885849,-0.013303989544510841,0.39873966574668884,-2.8407702940417057,1.1741986263810127,-0.11701193537619405,-0.3099444806575775,-0.21060562133789062,0.27407780289649963,-2.4096131324768066,0.12284920364618301,2.2972285747528076,0.6674268245697021,0.0012555819703266025,-0.01889437809586525,0.0006435597315430641,-0.02444298379123211,-0.00013894643052481115,-7.4279128057241905e-06,0.0007430316763930023
0.3210286019984778,0.46722672564176915,-0.013666242497150415,0.4007769254742194,-2.8416453476963075,1.174413479417635,-0.11980192425901894,0.4722471237182617,-0.013304521329700947,0.3987138271331787,-2.8408233013440563,1.17423754964447,-0.1169390293693376,-0.3099481165409088,-0.21075096726417542,0.27407777309417725,-2.409824848175049,0.12285500764846802,2.2972183227539062,0.6674273610115051,-8.06085008662194e-05,-0.018972247838974,1.0545141776674427e-05,-0.02426418848335743,0.000781618058681488,0.00040617238846607506,0.0009486129856668413
0.33002833199861925,0.4670625132869434,-0.013677294930333563,0.4008165281214493,-2.841689895824462,1.1744366192245175,-0.1198252095938955,0.4721713662147522,-0.013304468244314194,0.39868491888046265,-2.840886715985574,1.1742838024473272,-0.11685322517245615,-0.3099513053894043,-0.2109287828207016,0.27407461404800415,-2.4100656509399414,0.1228523999452591,2.297205924987793,0.6674230694770813,-2.6490197342354804e-05,-0.021135861054062843,-0.0002668184752110392,-0.022027896717190742,-0.00016290439816657454,-0.0017312815180048347,-0.000817126827314496
0.3400444949984376,0.4668797547250208,-0.013689595629610684,0.40086060350703,-2.841739474981823,1.1744623725200667,-0.11985112556389307,0.47209814190864563,-0.013308088295161724,0.3986577093601227,-2.8409420265345844,1.174337364152811,-0.1167682588230864,-0.3099513053894043,-0.21109814941883087,0.2740745544433594,-2.4102909564971924,0.1228523999452591,2.297191858291626,0.6674252152442932,1.9933593648602255e-05,-0.017463307827711105,0.00018759597151074558,-0.02587011083960533,-0.00010293938976246864,-0.004277445841580629,0.00020806191605515778
0.348872221999045,0.46671868079963574,-0.013700436828494623,0.400899449267763,-2.8417831712602135,1.1744850702011973,-0.11987396723838108,0.472025066614151,-0.013306374661624432,0.39863282442092896,-2.8410060987486765,1.1743725428215566,-0.11669125158430062,-0.3099474012851715,-0.21130214631557465,0.2740747332572937,-2.4105477333068848,0.12285169214010239,2.297175168991089,0.6674219369888306,0.0008488735766150057,-0.022296829149127007,0.0018817001255229115,-0.021611768752336502,-0.00021144779748283327,-0.000426320155384019,0.0005863909027539194
0.358571969998593,0.4665416956611709,-0.013712348943264367,0.4009421322925025,-2.841831183707322,1.1745100100718258,-0.11989906599673149,0.47194144129753113,-0.013304442167282104,0.3986062705516815,-2.8410793899587246,1.1744144840902513,-0.11659386840362816,-0.3099510967731476,-0.21150830388069153,0.2740687131881714,-2.41080904006958,0.12285301834344864,2.2971463203430176,0.6674203872680664,2.0039095034007914e-05,-0.023902293294668198,-0.0008580844150856137,-0.025377918034791946,0.00025786712649278343,-0.0032729851081967354,0.00041132987826131284
0.3682937289995607,0.466364308901949,-0.013724288089414217,0.4009849121750282,-2.8418793048544093,1.1745350066061566,-0.11992422248371666,0.4718579649925232,-0.013302955776453018,0.3985850214958191,-2.841150889159299,1.1744630608858513,-0.11650114085393785,-0.3099513351917267,-0.21170498430728912,0.2740682065486908,-2.4110374450683594,0.12285169214010239,2.297106981277466,0.6674189567565918,0.0002398460201220587,-0.02368634194135666,-0.00035927441786043346,-0.028781160712242126,-0.00016879846225492656,-0.0030335786286741495,-0.0008756326860748231
0.3782703379984014,0.46618227205674934,-0.013736540213017075,0.4010288135061487,-2.8419286872062886,1.1745606584815502,-0.1199500392380058,0.47178196907043457,-0.013305353000760078,0.3985704779624939,-2.8412073061819996,1.1745207025580047,-0.11643326634621892,-0.3099513351917267,-0.21190562844276428,0.2740707993507385,-2.4112653732299805,0.12285240739583969,2.297070026397705,0.6674211025238037,-0.0006677742348983884,-0.021447928622364998,0.0010487185791134834,-0.02522159554064274,0.0001728828647173941,-0.003344492753967643,0.00029914863989688456
0.3872426669986453,0.466018559670558,-0.013747558995443977,0.4010682955773021,-2.8419730983331717,1.1745837282127614,-0.11997325788514733,0.4717031717300415,-0.01330419722944498,0.39856305718421936,-2.8412704509368782,1.1745593143265975,-0.11639347781717581,-0.3099530041217804,-0.21212522685527802,0.27406713366508484,-2.411503791809082,0.12285169214010239,2.2970335483551025,0.6674156785011292,-0.00014773507427889854,-0.022339170798659325,-0.0006720081437379122,-0.024455681443214417,-0.00018820216064341366,-0.009523655287921429,-0.00027831102488562465
0.3971177249986795,0.46583837576190734,-0.013759686405791107,0.401111750040752,-2.8420219775292996,1.1746091191170192,-0.11999881338257258,0.47162818908691406,-0.01330037321895361,0.3985641300678253,-2.841326570317712,1.1745899606642771,-0.1163988426148462,-0.3099513351917267,-0.21235856413841248,0.27406662702560425,-2.411724805831909,0.12285108119249344,2.2970094680786133,0.6674177646636963,-0.00031840839073993266,-0.02557745948433876,-0.0033347029238939285,-0.019489750266075134,-0.00031941154156811535,-0.0009723230614326894,0.0002120080462191254
0.4070404129997769,0.4656573227788917,-0.013771872309826856,0.40115541409650407,-2.8420710922208943,1.1746346325603818,-0.12002449294596633,0.4715489149093628,-0.013302762992680073,0.3985694944858551,-2.8413832499260554,1.1746398719338735,-0.1163890121123453,-0.3099513351917267,-0.21260134875774384,0.27406617999076843,-2.411949634552002,0.12285169214010239,2.2969720363616943,0.6674129366874695,-0.0004186539154034108,-0.02411460503935814,0.0005434025661088526,-0.016766207292675972,0.00033791299210861325,-0.005236459895968437,0.00041182656423188746
0.41698637399895233,0.46547584514826795,-0.013784086795081842,0.4011991805633654,-2.8421203218443813,1.1746602059163371,-0.12005023354894745,0.47147560119628906,-0.013300495222210884,0.3985808491706848,-2.8414419733162837,1.1746675343336606,-0.11638357084890204,-0.309949666261673,-0.21283872425556183,0.27406176924705505,-2.412155866622925,0.12285169214010239,2.2969167232513428,0.6674129366874695,0.000723378558177501,-0.028895340859889984,-0.001305089332163334,-0.021340299397706985,-8.431113383267075e-05,-0.0024731047451496124,0.0003436156257521361
0.4258487059996696,0.4653141398074342,-0.013794970491846442,0.40123817860084576,-2.8421641875963646,1.17468299307379,-0.12007317035357826,0.4714026153087616,-0.013298217207193375,0.3986063599586487,-2.8414963549874144,1.1746973240657008,-0.11640775253877991,-0.3099530041217804,-0.2131236344575882,0.2740602493286133,-2.4123687744140625,0.12285620719194412,2.296842336654663,0.6674105525016785,-0.00044904675451107323,-0.030072713270783424,0.0006508243386633694,-0.022981679067015648,0.00030286185210570693,-0.008859933353960514,0.001646345597691834
0.4356140569998388,0.46513595765270155,-0.013806963172675497,0.40128115030674466,-2.8422125227655517,1.1747081021740229,-0.12009844502796627,0.47131168842315674,-0.013296559453010559,0.398642361164093,-2.841559765308214,1.174741706458362,-0.11644722321593698,-0.30995747447013855,-0.21342948079109192,0.2740539610385895,-2.4125843048095703,0.12285279482603073,2.296757698059082,0.6674045920372009,-0.00032620789716020226,-0.03377535939216614,0.0007623947458341718,-0.02164091356098652,-0.0001490117283537984,-0.006261717993766069,-0.005615397356450558
0.4457882989991049,0.4649503147237204,-0.013819458006396543,0.4013259213072882,-2.842262881535875,1.1747342627072455,-0.12012477882528405,0.4712335169315338,-0.013296331278979778,0.39867469668388367,-2.8416114051884933,1.174781068268653,-0.11649666854502083,-0.3099537789821625,-0.21371223032474518,0.27404582500457764,-2.4127817153930664,0.12285185605287552,2.296684503555298,0.6673997640609741,0.0003300487878732383,-0.02846592664718628,-0.0002027111331699416,-0.018167775124311447,-0.0001376058062305674,-0.0070909783244132996,-0.0009158974280580878
0.4549564559983992,0.46478302918846076,-0.013830717282246566,0.40136626510508944,-2.8423082603177017,1.1747578364081657,-0.12014850931880736,0.4711548984050751,-0.013295633718371391,0.3987075686454773,-2.8416616771635885,1.1748184130948809,-0.11654831156576953,-0.3099508583545685,-0.21404199302196503,0.2740415930747986,-2.4130053520202637,0.12285425513982773,2.2966060638427734,0.6674011945724487,0.00045652256812900305,-0.034353628754615784,-0.001002743374556303,-0.02314462698996067,0.0003689925651997328,-0.010045772418379784,6.473207758972421e-05
0.46441149299971585,0.46461050913608964,-0.013842328871116411,0.4014078712971533,-2.8423550588083417,1.1747821478163372,-0.12017298308293767,0.4710708558559418,-0.01329447515308857,0.3987574279308319,-2.8417105425733573,1.1748553093345444,-0.11664780558132444,-0.3099527955055237,-0.2143726497888565,0.27402958273887634,-2.4132230281829834,0.12285516411066055,2.2965238094329834,0.6674011945724487,-0.00040199991781264544,-0.037603266537189484,0.00032915640622377396,-0.023587560281157494,-0.0005415038322098553,-0.013169919140636921,0.001074948231689632
0.47473760999855585,0.4644220950404936,-0.013855010220242358,0.4014533106124164,-2.8424061685094792,1.1748086990772166,-0.12019971241979122,0.47095564007759094,-0.013302641920745373,0.39881643652915955,-2.841766023825301,1.1749279828519688,-0.11676976237002348,-0.30993932485580444,-0.21479029953479767,0.27399665117263794,-2.413487672805786,0.12285719811916351,2.296438455581665,0.6673953533172607,0.0016418879386037588,-0.036791909486055374,-0.005646021105349064,-0.016927892342209816,0.0002962011785712093,-0.00887550413608551,0.0004828820237889886
0.48707713699877786,0.46419694353193613,-0.013870164207937486,0.401507609789699,-2.842467243324667,1.174840427466562,-0.12023165465069258,0.47086256742477417,-0.013314971700310707,0.39886534214019775,-2.841803609934069,1.1750119295165493,-0.1168560065167143,-0.30993956327438354,-0.21518872678279877,0.27395445108413696,-2.413750648498535,0.12285719811916351,2.2963438034057617,0.6673959493637085,0.002645070431753993,-0.037780921906232834,-0.004225310869514942,-0.02106732316315174,0.00031731888884678483,-0.014504246413707733,0.0011911174515262246
0.4969945449993247,0.4640159868897356,-0.013882343627683895,0.40155125061119856,-2.8425163295035576,1.1748659279887528,-0.12025732786351646,0.47078052163124084,-0.013321458362042904,0.3989149332046509,-2.841842189491501,1.1750717222387395,-0.11695745132458678,-0.3099534511566162,-0.21551203727722168,0.2739369571208954,-2.4139575958251953,0.12285830080509186,2.296264171600342,0.6673829555511475,-0.0006526564247906208,-0.038738053292036057,-0.0009922058088704944,-0.025308554992079735,8.605078619439155e-05,-0.005836427677422762,-0.0023083400446921587
0.506279581999479,0.46384656871936664,-0.013893746442106733,0.4015921087308119,-2.842562285526519,1.1748898025677852,-0.12028136478733323,0.47069403529167175,-0.013332683593034744,0.398958683013916,-2.8418803089171893,1.1751414734142318,-0.11703449748889287,-0.3099578022956848,-0.21584348380565643,0.27390944957733154,-2.4141733646392822,0.12286049872636795,2.296184539794922,0.6673856973648071,-0.00038035959005355835,-0.03680327534675598,-0.002875967649742961,-0.02736562304198742,-0.0004170714528299868,-0.006609913427382708,0.0005359374335967004
0.5146649969992723,0.46369356538001255,-0.013904044444268657,0.4016290081302503,-2.8426037886987667,1.1749113640067037,-0.12030307339467657,0.4706049859523773,-0.01334402710199356,0.39899715781211853,-2.8419244935849823,1.1752175131482716,-0.11707808817845815,-0.3099561631679535,-0.21614006161689758,0.27388402819633484,-2.4143693447113037,0.1228577122092247,2.296102523803711,0.6673758029937744,0.00014906696742400527,-0.03452402353286743,-0.0023532556369900703,-0.025320202112197876,0.0003052130632568151,-0.009737092070281506,-0.0011142860166728497
0.5240508539991424,0.4635223076111704,-0.013915571074218225,0.40167030990082675,-2.842650243283883,1.1749354979459081,-0.12032737268327191,0.47051745653152466,-0.013357850722968578,0.39904096722602844,-2.8419587086912497,1.1752874736847234,-0.11713420121125785,-0.30994918942451477,-0.21650201082229614,0.27382954955101013,-2.4146151542663574,0.12286187708377838,2.2959940433502197,0.6673706769943237,0.0006307912990450859,-0.038557250052690506,-0.008836200460791588,-0.023024939000606537,0.0003405491588637233,-0.0077147637493908405,-0.002413706621155143
0.5330928939984005,0.46335732325267487,-0.01392667546767554,0.4017100987300831,-2.842694995950733,1.1749587478865053,-0.12035078253834577,0.4704200029373169,-0.013369682244956493,0.3990913927555084,-2.8420132932018256,1.1753573995761792,-0.11718827105518936,-0.30994313955307007,-0.2168353646993637,0.2737928032875061,-2.414828062057495,0.12286199629306793,2.2958881855010986,0.6673651337623596,-0.00023643304302822798,-0.03708501160144806,-0.007502826862037182,-0.02308068610727787,0.00010979299258906394,-0.008545913733541965,0.0016513537848368287
0.5426355969993892,0.46318320361451126,-0.013938394717842311,0.40175209068990436,-2.842742226362222,1.1749832852549056,-0.12037548933790315,0.4703485369682312,-0.01337546668946743,0.3991210460662842,-2.8420627563646,1.1754048761098104,-0.1171990870655605,-0.3099578022956848,-0.21717490255832672,0.2737809419631958,-2.4150466918945312,0.12286019325256348,2.295764446258545,0.667346715927124,-0.000434529734775424,-0.03651497885584831,-0.004007416311651468,-0.02343597263097763,-0.00011682871263474226,-0.0051606930792331696,-0.008102345280349255
0.5517805299987231,0.46301634183282225,-0.013949625472646946,0.40179233229220884,-2.842787487833082,1.175006799891023,-0.12039916698081432,0.47019994258880615,-0.013387815095484257,0.399170845746994,-2.842167679222494,1.1755026104775343,-0.1171574410276109,-0.3099622428417206,-0.2176079899072647,0.2737516462802887,-2.415349245071411,0.12286067008972168,2.295581102371216,0.6673359274864197,-0.0011376684997230768,-0.036909300833940506,-0.006748435087502003,-0.02975662238895893,-0.0003641941293608397,-0.010403046384453773,-0.000596693076658994
0.5626933919993462,0.46281722177400025,-0.01396302739449315,0.40184035353552083,-2.8428414991107913,1.1750348605355097,-0.12042742296238894,0.4700964391231537,-0.013397672213613987,0.39921069145202637,-2.8422328087116595,1.1755840954315526,-0.11714240238148903,-0.30995088815689087,-0.21802189946174622,0.27370432019233704,-2.4156312942504883,0.12286236137151718,2.295412302017212,0.6673239469528198,0.0004981078673154116,-0.04036768153309822,-0.001185798435471952,-0.028295351192355156,-4.5800567022524774e-05,-0.014623220078647137,0.00022329315834213048
0.5725703929983865,0.46263700241268135,-0.013975157191008163,0.40188381654899435,-2.8428903833040655,1.1750602577077838,-0.12045299769686765,0.46996986865997314,-0.013405922800302505,0.3992597162723541,-2.8423106299159304,1.175660576265445,-0.11717831257670183,-0.309954971075058,-0.2184336930513382,0.27366408705711365,-2.415912628173828,0.12286069244146347,2.295276403427124,0.6673110127449036,-0.0007214281940832734,-0.042685482650995255,-0.007657608948647976,-0.029225677251815796,-6.350043804559391e-06,-0.014017527922987938,-0.0006912469980306923
0.582907300999068,0.4624483914205314,-0.013987851792401326,0.40192930334926413,-2.8429415434341414,1.175086837536105,-0.12047976413553578,0.4698540270328522,-0.013421807438135147,0.39930224418640137,-2.842372283982604,1.1757494400482742,-0.11722871052509944,-0.3099597692489624,-0.21890076994895935,0.27363553643226624,-2.4162473678588867,0.12286500632762909,2.295152425765991,0.6673033833503723,-0.0015488704666495323,-0.04646027088165283,-0.0015939460135996342,-0.028407057747244835,0.00022398435976356268,-0.007451933342963457,0.0013116166228428483
0.5932901950000087,0.4622589413510545,-0.014000602868510422,0.401974992507532,-2.8429929308743045,1.175113535689592,-0.12050665053290482,0.4697364270687103,-0.013427602127194405,0.3993570804595947,-2.8424473329915694,1.1758074458989762,-0.11730293651916052,-0.3099609315395355,-0.21928775310516357,0.2736080586910248,-2.4165127277374268,0.12286605685949326,2.29504132270813,0.6672789454460144,0.0005496314261108637,-0.041321780532598495,-0.005406753625720739,-0.025315700098872185,0.0001239398989127949,-0.01639852300286293,-0.0045191519893705845
0.6033029519985575,0.4620762449362728,-0.014012899384928562,0.4020190529052557,-2.843042486144984,1.1751392821627384,-0.12053257930191112,0.4695979356765747,-0.013433249667286873,0.39939430356025696,-2.8425478627541185,1.1758833879212918,-0.11728716453223746,-0.30995485186576843,-0.2198101282119751,0.2735762298107147,-2.4168879985809326,0.1228654608130455,2.294872760772705,0.6672618389129639,-2.082794890156947e-05,-0.04514913633465767,-0.0027174162678420544,-0.02770994044840336,-8.763747609918937e-05,-0.016495143994688988,-0.0007052578148432076
0.6148354799988738,0.4618658182256942,-0.01402706230927788,0.4020698009430366,-2.8430995627551323,1.175168936616138,-0.1205624446486118,0.4694577157497406,-0.013439008966088295,0.3994343876838684,-2.8426449464108283,1.175961527801025,-0.11728643988240521,-0.3099561929702759,-0.2202501893043518,0.27354902029037476,-2.4172165393829346,0.12286607176065445,2.2947332859039307,0.6672475337982178,-0.0006671323790214956,-0.04162575677037239,-0.0009127765079028904,-0.03316647186875343,-6.886059964017477e-06,-0.009870637208223343,-0.0016001230105757713
0.6247588089991041,0.4616847535467747,-0.014039249000515031,0.402113467819458,-2.8431486748582917,1.1751944532937324,-0.12058814358755518,0.46934106945991516,-0.01344689168035984,0.3994626998901367,-2.842722519025251,1.1760357514587993,-0.11729266159006918,-0.30995500087738037,-0.22069300711154938,0.2735194265842438,-2.417558431625366,0.12286733835935593,2.2946088314056396,0.6672350168228149,-0.0005936572561040521,-0.04462733119726181,-0.007623780053108931,-0.03394988179206848,-0.0006822931463830173,-0.01624857448041439,-0.001483836444094777
0.6346696539985714,0.4615039166554847,-0.01405142036033843,0.402157079760956,-2.8431977249139124,1.1752199379423494,-0.12061381100241926,0.4692087173461914,-0.013449382036924362,0.39948874711990356,-2.8428175988851883,1.1761002891855765,-0.1172954739250844,-0.30995282530784607,-0.22108563780784607,0.27350500226020813,-2.4178831577301025,0.12286798655986786,2.294508457183838,0.6672280430793762,-0.0008728388929739594,-0.039898574352264404,-0.001323157805018127,-0.03707091510295868,-0.000523500784765929,-0.009008903987705708,-0.0006442543235607445
0.6442397179998807,0.4613292977785336,-0.014063173212138569,0.4021991921208385,-2.8432450881514755,1.1752445463785295,-0.12063859661684219,0.4690857231616974,-0.013452079147100449,0.39950716495513916,-2.8429044702274178,1.1761661238794632,-0.11729074407442718,-0.30995315313339233,-0.22148853540420532,0.27348998188972473,-2.4182205200195312,0.12287049740552902,2.2944118976593018,0.6672103404998779,0.00021619586914312094,-0.04488268494606018,-0.0013917636824771762,-0.035434357821941376,0.0006452013039961457,-0.006830848287791014,-0.006774997804313898
0.6529451639999024,0.46117045503686815,-0.014073864239563085,0.4022374997930589,-2.8432881720927403,1.1752669315967754,-0.12066114360023412,0.4689643085002899,-0.013457126915454865,0.39951011538505554,-2.842989738685904,1.176239600826111,-0.11725417099420096,-0.30995506048202515,-0.22190415859222412,0.2734713554382324,-2.418595790863037,0.12287086248397827,2.2943286895751953,0.6672112345695496,-0.00038964400300756097,-0.04351191222667694,-0.0005842035752721131,-0.044908974319696426,8.438811346422881e-05,-0.01113907527178526,0.0010649410542100668
0.6615151759997389,0.46101408347334843,-0.014084388942527006,0.40227521149796336,-2.8433305855628537,1.1752889686138535,-0.12068334041884567,0.46881383657455444,-0.013467010110616684,0.3995233178138733,-2.843085732199318,1.1763375252297184,-0.11725701060790594,-0.30994942784309387,-0.2223287969827652,0.273447722196579,-2.4189841747283936,0.12287122011184692,2.2942535877227783,0.6671994924545288,0.0004961523227393627,-0.047772958874702454,-0.0024742030072957277,-0.04818200320005417,-0.00015476762200705707,-0.009241506457328796,0.000551788485608995
0.6707077589999244,0.46084635225237097,-0.014095678215581697,0.4023156627805776,-2.843376079953866,1.1753126065763593,-0.12070715040167049,0.46865227818489075,-0.013478453271090984,0.39951637387275696,-2.84318769520957,1.1764548682115323,-0.11720908549454545,-0.3099544942378998,-0.22281289100646973,0.27341848611831665,-2.419455051422119,0.12287025153636932,2.2941839694976807,0.6671809554100037,-0.0010593049228191376,-0.05273823440074921,-0.004230594728142023,-0.04825885221362114,3.8335925637511536e-05,-0.006691749673336744,-0.0024810614995658398
0.6807484689998091,0.4606631457969354,-0.014108009060660755,0.40235984618341936,-2.8434257714951423,1.1753384254977963,-0.12073315793580627,0.4684773087501526,-0.0134879220277071,0.3995087444782257,-2.843311752362691,1.176553232654152,-0.11716544153929809,-0.30995285511016846,-0.22332915663719177,0.27339649200439453,-2.4199647903442383,0.12286954373121262,2.2941155433654785,0.667170524597168,0.0005522661958821118,-0.04557785764336586,-0.004391051363199949,-0.04394383355975151,-0.00032164284493774176,-0.004669192247092724,-0.003766723209992051
0.6920317279982555,0.4604572673394468,-0.014121865861494396,0.4024094973313662,-2.843481612098637,1.1753674396277352,-0.12076238491834008,0.46830055117607117,-0.013495503924787045,0.3995012938976288,-2.8434326700237604,1.1766596427595208,-0.11713093212872883,-0.3099552392959595,-0.22385330498218536,0.27336740493774414,-2.420496940612793,0.12287277728319168,2.2940526008605957,0.6671505570411682,0.0002883598499465734,-0.048587996512651443,0.00014283608470577747,-0.04642891511321068,-0.00040846902993507683,-0.01224607601761818,-0.0027179771568626165
0.7036909939997713,0.46024452812109046,-0.01413618443087862,0.4024608030703617,-2.8435393131955795,1.175397420732216,-0.12079258696795316,0.4681018590927124,-0.013511228375136852,0.3994815945625305,-2.8435565776666176,1.1768007362154091,-0.11707420053513126,-0.3099585473537445,-0.22442729771137238,0.27332788705825806,-2.421093463897705,0.12287487834692001,2.293996810913086,0.6671428084373474,-0.000679048418533057,-0.04783987998962402,-0.006708064116537571,-0.05192131549119949,1.8963935872307047e-05,-0.002951154252514243,-0.00714249350130558
0.7156595829983416,0.4600261448825527,-0.014150882875187638,0.4025134699623621,-2.843598544738353,1.175428197346096,-0.12082359144527025,0.4678855240345001,-0.01352700125426054,0.39946797490119934,-2.8436850816550368,1.176946046670089,-0.11706370741345155,-0.30995407700538635,-0.2250680774450302,0.2732943296432495,-2.4217453002929688,0.1228756532073021,2.2939586639404297,0.667119562625885,0.0012248303974047303,-0.05136062949895859,0.0006702147657051682,-0.052101150155067444,0.000455244182376191,-0.0019986943807452917,-0.0007301791338250041
0.7297544929988362,0.45976896401577105,-0.014168192622369,0.40257549357290123,-2.843668298774957,1.1754644418204612,-0.12086010563756996,0.46766340732574463,-0.013541142456233501,0.3994564414024353,-2.843823353305485,1.1770741825992135,-0.11708836983251465,-0.30994752049446106,-0.2257211059331894,0.2732497453689575,-2.4224257469177246,0.12287433445453644,2.293942928314209,0.6671021580696106,0.0002868577721528709,-0.048344481736421585,0.0003473226970527321,-0.05592463165521622,-0.00031179020879790187,-0.0017611781368032098,-0.00026753812562674284
0.7411984849986766,0.4595601527653368,-0.014182246816986476,0.4026258520145505,-2.843724933342834,1.1754938696768464,-0.12088975357644893,0.46745848655700684,-0.013561949133872986,0.3994492292404175,-2.8439307976610313,1.1772266300747956,-0.11712815132208701,-0.3099508583545685,-0.22633178532123566,0.2732066512107849,-2.423050880432129,0.12287508696317673,2.293933391571045,0.6670776009559631,-5.837717617396265e-05,-0.059089794754981995,-0.008515588939189911,-0.0548408217728138,3.9691516576567665e-05,-0.0036456941161304712,-0.004032803699374199
0.7532625429994368,0.45934002756457776,-0.014197062505342563,0.40267893901084456,-2.8437846361439614,1.1755248921170918,-0.12092100908362687,0.4671819508075714,-0.013586537912487984,0.399429589509964,-2.844095718845378,1.1774063025335126,-0.11714393781684743,-0.30996623635292053,-0.22715377807617188,0.27316272258758545,-2.423893928527832,0.12287504225969315,2.2939188480377197,0.6670492887496948,-0.0006351685733534396,-0.059569038450717926,-0.0009411085047759116,-0.062474533915519714,-0.00013679653056897223,-0.0010676016099750996,-0.0028040381148457527
0.7670828579994122,0.4590878570582911,-0.014214035026529855,0.40273975428636294,-2.8438530298598588,1.1755604308620902,-0.12095681616175041,0.4669215977191925,-0.013600707985460758,0.3994191586971283,-2.844258231543419,1.1775464631181407,-0.11717241491677013,-0.30995169281959534,-0.2279394567012787,0.273103803396225,-2.424692153930664,0.12287774682044983,2.293896198272705,0.667015016078949,0.0016372660174965858,-0.05902770906686783,-0.0028583374805748463,-0.06234551966190338,-0.00032224113238044083,-0.0035066530108451843,-0.00425691856071353
0.7800927579992276,0.4588504736795694,-0.014230012289232753,0.40279700339052277,-2.843917412543075,1.1755938857645256,-0.12099052496694405,0.4666736125946045,-0.01362005714327097,0.3994321823120117,-2.844397456695634,1.1777093345949332,-0.11725298805212421,-0.3099544942378998,-0.22866952419281006,0.27306485176086426,-2.425394296646118,0.12287778407335281,2.293860912322998,0.6669915914535522,-0.0008019034867174923,-0.06202626973390579,-0.004105923231691122,-0.05561288073658943,-0.00048035162035375834,-0.010598291642963886,-0.0021284513641148806
0.792847314998653,0.45861774938232924,-0.014245675969033656,0.4028531288766667,-2.843980531159936,1.1756266841741916,-0.12102357352425688,0.4664496183395386,-0.013631686568260193,0.399454802274704,-2.8445412883939736,1.1778432155592367,-0.11728327908218845,-0.30995890498161316,-0.22950142621994019,0.27302372455596924,-2.4261462688446045,0.12287851423025131,2.293750762939453,0.66697758436203,0.0001916346955113113,-0.057305626571178436,-0.005355626344680786,-0.05229612812399864,0.0001881375937955454,-0.014213230460882187,-0.007083896081894636
0.8053759879985591,0.4583891466469001,-0.014261062244088888,0.4029082603769523,-2.8440425315191016,1.1756589018382977,-0.12105603808985317,0.4662175178527832,-0.013637472875416279,0.39949876070022583,-2.844692498290443,1.1779591524870285,-0.11736659274785782,-0.30995404720306396,-0.23022498190402985,0.27299559116363525,-2.4267466068267822,0.12287924438714981,2.2936301231384277,0.6669595241546631,0.0022211973555386066,-0.0618441142141819,-0.00203779642470181,-0.04891509562730789,0.00041435364983044565,-0.012954945676028728,-0.000982696539722383
0.8177949849996367,0.4581625450997328,-0.014276313827697949,0.4029629092561048,-2.8441039887133277,1.175690837582758,-0.12108821973252443,0.46599259972572327,-0.01364535465836525,0.39956650137901306,-2.8448297532288396,1.178075185312468,-0.11749984474910027,-0.30995380878448486,-0.23095740377902985,0.2729651927947998,-2.4273109436035156,0.12287924438714981,2.293496608734131,0.6669345498085022,0.00014606279728468508,-0.05686155706644058,0.000544703274499625,-0.04501417279243469,0.0003325755533296615,-0.010121447034180164,-0.0015980537282302976
0.831355229998735,0.457915119925502,-0.014292966960824976,0.4030225801127907,-2.8441710930669744,1.1757257082027992,-0.12112336016455981,0.4657672941684723,-0.013653186149895191,0.3996516168117523,-2.844972960766627,1.1781798876504261,-0.1176592715453363,-0.3099591135978699,-0.23184622824192047,0.2729281485080719,-2.427957773208618,0.12288259714841843,2.29331374168396,0.6669076085090637,-0.0006912153330631554,-0.06249343976378441,-0.0016510245623067021,-0.04310527443885803,9.48867600527592e-05,-0.013316643424332142,-0.002094725612550974
0.843746785998519,0.4576890190768491,-0.014308184844552678,0.4030771082398435,-2.8442324136058548,1.1757575736183887,-0.12115547334059361,0.4655604958534241,-0.013651715591549873,0.3997459411621094,-2.845106190022233,1.1782588710490585,-0.11782664973129321,-0.30995771288871765,-0.23262841999530792,0.2729012668132782,-2.428490400314331,0.12288498878479004,2.293123245239258,0.6668815016746521,-3.501200262689963e-05,-0.06603160500526428,-0.00048530654748901725,-0.045476242899894714,0.000315505953039974,-0.017088627442717552,-0.0003574661095626652
0.8557813689985778,0.4574694316876992,-0.014322964335103296,0.40313006553357367,-2.8442919672445126,1.1757885211706134,-0.12118666261481158,0.4653645157814026,-0.013656443916261196,0.39986470341682434,-2.845213778439721,1.1783555974589293,-0.1180694967402505,-0.30995747447013855,-0.23335742950439453,0.27287575602531433,-2.4289333820343018,0.1228894293308258,2.2929458618164062,0.6668604016304016,-9.24288178794086e-05,-0.06631693243980408,0.0001688300835667178,-0.041022226214408875,0.00048245806829072535,-0.013147016987204552,-0.0011987668694928288
0.8677135489997454,0.4572517127810026,-0.014337618066069686,0.4031825722104698,-2.8443510137555568,1.1758192054932561,-0.12121758767180721,0.46513399481773376,-0.013660910539329052,0.40000930428504944,-2.845353620750723,1.1784528649178834,-0.11834189079637585,-0.30995699763298035,-0.234300896525383,0.27283790707588196,-2.429504156112671,0.1228887215256691,2.2926979064941406,0.6668378114700317,-5.796116965939291e-05,-0.061553917825222015,-0.0012212508590891957,-0.03769887983798981,0.0004405714280437678,-0.013086526654660702,0.00022327463375404477
0.8824563399994076,0.4569827104412969,-0.01435572346617106,0.4032474467734994,-2.8444239680775327,1.1758571176165198,-0.12125579870450819,0.4649133086204529,-0.01365712471306324,0.4001463055610657,-2.845507412478347,1.1785157491502243,-0.11855606975283298,-0.30995604395866394,-0.2352597564458847,0.27280393242836,-2.430058002471924,0.12289184331893921,2.292402505874634,0.6668030023574829,0.0002503950090613216,-0.06392254680395126,5.2868792408844456e-05,-0.03973894193768501,0.00010505629325052723,-0.022830525413155556,-0.00037052080733701587
0.8956068640000012,0.4567427611857864,-0.014371873427096294,0.4033053146831895,-2.8444890426170715,1.1758909352479963,-0.12128988433384659,0.4646572172641754,-0.013658729381859303,0.400311678647995,-2.8456649271397247,1.1786283799008586,-0.11881905567162725,-0.30995407700538635,-0.23623959720134735,0.2727693021297455,-2.4306130409240723,0.12289596349000931,2.292091131210327,0.6667726635932922,-0.0005194928962737322,-0.07238661497831345,-0.0014176229014992714,-0.04119780287146568,-0.0002886255388148129,-0.02195323072373867,-0.0008888271986506879
0.9095902949993615,0.45648761440550395,-0.014389046268591447,0.403366847738617,-2.8445582382373655,1.1759268949062431,-0.12132613038279966,0.46443045139312744,-0.013661547563970089,0.4004521667957306,-2.845815170583297,1.1787108849380434,-0.1190581162796944,-0.30995604395866394,-0.23722650110721588,0.2727366089820862,-2.4311890602111816,0.12289698421955109,2.291794538497925,0.6667407155036926,0.0004157877992838621,-0.0729379951953888,-0.0006483652978204191,-0.043051671236753464,-7.371038373094052e-05,-0.02360551804304123,-9.478181164013222e-05
0.9232241889985744,0.4562388454047651,-0.014405789848948867,0.4034268426822888,-2.8446257037052822,1.1759619558367527,-0.12136147195332883,0.4642193019390106,-0.01366565003991127,0.4005686044692993,-2.8459608201487168,1.1787649067364467,-0.11924569757350004,-0.30995938181877136,-0.2380625456571579,0.27270030975341797,-2.431698799133301,0.12290249019861221,2.291546106338501,0.6666906476020813,-0.0013272181386128068,-0.07243963330984116,-2.444641177135054e-05,-0.04556769132614136,0.00019898732716683298,-0.019888460636138916,-0.011845169588923454
0.9349657599996135,0.4560246044193796,-0.014420209495866289,0.40347851059835643,-2.8446838048722887,1.1759921505776623,-0.12139190949696252,0.46402037143707275,-0.013672776520252228,0.40067487955093384,-2.8460795339877745,1.1788591694259636,-0.11941758422315933,-0.30995532870292664,-0.23883531987667084,0.27266374230384827,-2.4321823120117188,0.12290544807910919,2.2913248538970947,0.6666598320007324,-0.0002371893060626462,-0.07533236593008041,-0.0029957459773868322,-0.046628549695014954,0.00034520169720053673,-0.024932771921157837,-0.006526617333292961
0.9456675940000423,0.4558293348543886,-0.014433352257396361,0.40352560322853814,-2.844736760756542,1.1760196716087639,-0.12141965272847514,0.46380260586738586,-0.013672171160578728,0.40077123045921326,-2.846232131441384,1.1789449462986905,-0.11954397292064609,-0.3099554479122162,-0.23973004519939423,0.2726382911205292,-2.432769536972046,0.12290702015161514,2.291067123413086,0.6666263937950134,0.00014057861699257046,-0.07381327450275421,-0.005731383338570595,-0.050010696053504944,0.0016076186439022422,-0.021965492516756058,-0.0010675792582333088
0.9576778709997598,0.4556101909613828,-0.014448101898113182,0.40357845356550887,-2.844796190844532,1.1760505575558868,-0.1214507890632455,0.46355658769607544,-0.013677479699254036,0.4008646011352539,-2.846409246586339,1.1790350061390198,-0.11966254493567703,-0.30995771288871765,-0.24063332378864288,0.2726070284843445,-2.433396100997925,0.12290887534618378,2.290811061859131,0.6665818691253662,0.0006829484482295811,-0.07363026589155197,-0.0027744118124246597,-0.05282755568623543,0.00032524531707167625,-0.019917890429496765,-0.0026882861275225878
0.9691731989987602,0.45540044301559107,-0.014462219137699852,0.4036290379074312,-2.844853072464833,1.1760801193457362,-0.121480591515871,0.4632772207260132,-0.013683734461665154,0.4009641110897064,-2.846613307115367,1.1791044762416474,-0.11982769487924883,-0.30995771288871765,-0.2415676862001419,0.27256807684898376,-2.4340593814849854,0.12291471660137177,2.2905917167663574,0.6665178537368774,-0.0007230564369820058,-0.07588762789964676,-0.007307631894946098,-0.05686688423156738,-0.0002848905569408089,-0.02103618159890175,-0.008233064785599709
0.9810320019987557,0.4551840629724106,-0.014476782755473665,0.4036812216942526,-2.8449117522757192,1.1761106159624093,-0.12151133744088988,0.46303823590278625,-0.013689225539565086,0.4010449945926666,-2.8467755869440174,1.1791789736194054,-0.11997041550583723,-0.30995240807533264,-0.24243880808353424,0.27252867817878723,-2.4346864223480225,0.12292032688856125,2.290390968322754,0.6664601564407349,-0.0002529835037421435,-0.07887157797813416,-0.005259497556835413,-0.0550263375043869,1.272669578611385e-05,-0.0201656986027956,-0.002766616875305772
0.9929268419982691,0.45496702538499806,-0.014491390629745093,0.403733564059229,-2.844970610027357,1.1761412053571887,-0.12154217795856652,0.4627688527107239,-0.013699756003916264,0.4011087119579315,-2.8469595002173556,1.1792774405689024,-0.12010790230197285,-0.3099530339241028,-0.24337230622768402,0.27248790860176086,-2.4354171752929688,0.12292575091123581,2.290228843688965,0.6663987040519714,-0.00022140944201964885,-0.07832955569028854,-0.00286518014036119,-0.06077813357114792,2.2521766368299723e-05,-0.009283669292926788,-0.004903209861367941
1.0049387019989808,0.4547478526079789,-0.01450614221452165,0.4037864213620787,-2.845030046430477,1.1761720957922244,-0.12157332306129089,0.46251314878463745,-0.013709846884012222,0.40115565061569214,-2.847126421863208,1.1793797902835648,-0.12021982559400178,-0.30995577573776245,-0.24431374669075012,0.2724429965019226,-2.4362008571624756,0.12293196469545364,2.2900824546813965,0.6663348078727722,9.306997526437044e-05,-0.07886189967393875,-0.007512661162763834,-0.06198495998978615,0.00012004629388684407,-0.01386977918446064,-0.005971611477434635
1.0154092019984091,0.45455680404751303,-0.01451900087824112,0.4038324960240731,-2.845081855648832,1.1761990224579235,-0.12160047259643776,0.4622544050216675,-0.013727962970733643,0.4011794924736023,-2.847296568139008,1.1795079111722075,-0.1202616772564848,-0.3099529445171356,-0.24499866366386414,0.27240607142448425,-2.436809778213501,0.12293659895658493,2.2899839878082275,0.6662935018539429,-0.0001447665854357183,-0.07489101588726044,-0.0027682604268193245,-0.07055113464593887,0.0018051023362204432,-0.012521516531705856,-0.003500457387417555
1.0268886999983806,0.45434734494165513,-0.014533098677243842,0.40388301070725385,-2.8451386571664536,1.1762285440255826,-0.12163023945326287,0.4619525969028473,-0.013747687451541424,0.40121155977249146,-2.847495486927057,1.1796412958454445,-0.12035450019551376,-0.30995601415634155,-0.24598731100559235,0.2723519504070282,-2.4376840591430664,0.12293880432844162,2.2898571491241455,0.6662251353263855,9.216554462909698e-05,-0.07486578822135925,-0.0044449311681091785,-0.0670822337269783,0.00039918252150528133,-0.00926618929952383,-0.010980823077261448
1.0397566009996808,0.45411255252843225,-0.014548901553110342,0.40393963495530744,-2.8452023281994023,1.1762616362332003,-0.1216636077890938,0.46171146631240845,-0.013761707581579685,0.401231586933136,-2.847649947405761,1.1797574623360196,-0.12041212870721982,-0.3099552094936371,-0.24685776233673096,0.27231040596961975,-2.4384467601776123,0.12293951213359833,2.2897496223449707,0.6661736965179443,-0.00042875457438640296,-0.06949717551469803,-0.0034077351447194815,-0.06256218254566193,-0.0004316438571549952,-0.012077327817678452,-0.007241744082421064
1.0502188449991081,0.4539216546099525,-0.014561750077760265,0.4039856732873836,-2.8452540955918773,1.1762885419347833,-0.12169073890996228,0.4614635705947876,-0.0137714222073555,0.40126344561576843,-2.8478172659966363,1.1798466395933298,-0.12053415057231857,-0.309954971075058,-0.24740204215049744,0.2722787857055664,-2.4389336109161377,0.12294355034828186,2.2896969318389893,0.6661356687545776,-0.0003722793480847031,-0.06901243329048157,-0.00262275873683393,-0.06099516525864601,0.00018731923773884773,-0.005138321314007044,-0.009171427227556705
1.0626318299982813,0.45369516275996385,-0.014576994278120124,0.4040402957111657,-2.8453155149100042,1.1763204644517355,-0.12172292993934519,0.46120569109916687,-0.013788025826215744,0.40130895376205444,-2.8479418730140944,1.1800052078180274,-0.12074661414461699,-0.3099500238895416,-0.24855804443359375,0.2722247242927551,-2.4399373531341553,0.12294742465019226,2.289628267288208,0.6660929918289185,-3.802448190981522e-05,-0.06710764020681381,-0.0018695074832066894,-0.05926781892776489,-0.00018778792582452297,-0.0008490420877933502,0.0007867077947594225
1.0761797219984146,0.453447962983056,-0.01459363224071474,0.4040999122093919,-2.845382549265444,1.1763553057421967,-0.1217580656082277,0.4609733521938324,-0.013805445283651352,0.4013332724571228,-2.8480812641334055,1.1801119726180558,-0.12085881474039593,-0.3099508583545685,-0.24933800101280212,0.2721737325191498,-2.4406166076660156,0.12295185774564743,2.28957200050354,0.6660476922988892,-1.3892207789467648e-05,-0.06564770638942719,-0.0037313865032047033,-0.05781547725200653,0.00040234168409369886,-0.008235144428908825,-0.00417933939024806
1.0882507429996622,0.45322771073285134,-0.0146084564802271,0.4041530298458553,-2.8454422757164224,1.1763863490578617,-0.12178937236909564,0.4607270359992981,-0.013826506212353706,0.40137481689453125,-2.8482339690476177,1.1802094146218034,-0.12098876733544989,-0.3099537789821625,-0.25010719895362854,0.2721242308616638,-2.4412670135498047,0.12295257300138474,2.2894845008850098,0.6659770011901855,0.00015602503845002502,-0.061040766537189484,-0.0004054107121191919,-0.05288237705826759,0.00014918256783857942,-0.002757529029622674,-0.0014029645826667547
1.1000515159994393,0.45301238952621226,-0.014622948832229605,0.4042049582759463,-2.845500664624907,1.1764166974741639,-0.12181997938684173,0.4605119526386261,-0.013846609741449356,0.40141183137893677,-2.8483766749703987,1.1802717088648036,-0.12110174453751521,-0.30994918942451477,-0.250843346118927,0.2720620334148407,-2.441889524459839,0.1229579746723175,2.289397716522217,0.6658973097801208,8.072285709204152e-05,-0.06074155122041702,-0.006590192671865225,-0.05311013385653496,0.00041242476436309516,-0.0059053171426057816,-0.011297889053821564
1.1117143999999826,0.45279958429252654,-0.01463727184482407,0.40425627993567936,-2.8455583709078556,1.1764466913775549,-0.12185022989419998,0.46030193567276,-0.013866705819964409,0.40144601464271545,-2.8485108287624015,1.1803478637365645,-0.12121064418547853,-0.309954971075058,-0.25160956382751465,0.2720055878162384,-2.4425439834594727,0.12296466529369354,2.2893083095550537,0.6658244132995605,9.22219333006069e-05,-0.06146698445081711,-0.00660784263163805,-0.04712056741118431,0.0003673672617878765,-0.006033771671354771,-0.0034109160769730806
1.1248915329997544,0.4525591495195156,-0.01465345448386137,0.40431426493630523,-2.845623569040419,1.176480579655669,-0.12188440931756311,0.4600832164287567,-0.013892266899347305,0.4014933109283447,-2.848634118382036,1.1804549411937917,-0.12133158869555873,-0.3099508583545685,-0.25230565667152405,0.27194690704345703,-2.4431097507476807,0.1229676678776741,2.2892115116119385,0.6657559275627136,-0.000394347938708961,-0.051676686853170395,-0.010440143756568432,-0.0464153029024601,0.0002547309559304267,-0.009433181956410408,-0.004572117235511541
1.137989036998988,0.4523201676862807,-0.014669539331719614,0.40437189953539493,-2.8456883727222,1.176514263274412,-0.12191838361031067,0.4598674178123474,-0.013918083161115646,0.40154018998146057,-2.848753308024107,1.180546302663408,-0.12147351636178752,-0.3099544942378998,-0.25305670499801636,0.2718835771083832,-2.443706750869751,0.12298060208559036,2.2891111373901367,0.6656808257102966,-0.0003900846641045064,-0.055313706398010254,-0.005676977802067995,-0.047248780727386475,0.0017052285838872194,-0.00649058585986495,-0.006495497189462185
1.1507532429986895,0.4520872673298635,-0.014685214861312773,0.40442806748125193,-2.8457515268741385,1.1765470898524306,-0.12195149470112197,0.45966705679893494,-0.013943430036306381,0.4015798270702362,-2.84885080744308,1.1806515701583742,-0.12161964653744242,-0.3099508583545685,-0.25380027294158936,0.2718147337436676,-2.444331407546997,0.12299002707004547,2.2890408039093018,0.6656106114387512,0.0005203212494961917,-0.05903732031583786,-0.0027688085101544857,-0.052252788096666336,0.0001274607056984678,-0.005771196447312832,-0.0015425286255776882
1.1631607379986235,0.4518608756524026,-0.014700452319487058,0.40448266574669783,-2.8458129156897756,1.1765789991672182,-0.12198368174683488,0.4594455361366272,-0.013970229774713516,0.4016255736351013,-2.848969432128152,1.1807274232205058,-0.12181614481135644,-0.30994242429733276,-0.2545647621154785,0.27173274755477905,-2.44496750831604,0.1229991763830185,2.288994789123535,0.6655349135398865,-8.753478323342279e-05,-0.05911797657608986,-0.005687676835805178,-0.04847637191414833,0.0002296797465533018,-0.00721158180385828,-0.011180213652551174
1.1751461589992687,0.4516421852910182,-0.014715171434924906,0.40453540670668026,-2.8458722158099685,1.1766098231090614,-0.12201477506637383,0.45923924446105957,-0.01399929728358984,0.4016641676425934,-2.84907785323524,1.1808087517797043,-0.12198291846104009,-0.3099551200866699,-0.25521066784858704,0.2716747224330902,-2.445512056350708,0.12300937622785568,2.2889604568481445,0.6654545068740845,-0.0011880238307639956,-0.06522849202156067,-0.003281534882262349,-0.051688052713871,0.00046508776722475886,-0.0010298785055056214,-0.003411295125260949
1.1875084699986473,0.4514166180573052,-0.014730353403307046,0.40458980614326856,-2.8459333802612656,1.1766416164420386,-0.12204684737473197,0.4590470492839813,-0.014029620215296745,0.401693195104599,-2.8491683330226842,1.1809076316164338,-0.12209156113652059,-0.3099508583545685,-0.2559160590171814,0.2715919017791748,-2.446112632751465,0.12302181124687195,2.2888989448547363,0.6653692126274109,0.00030306578264571726,-0.06253144890069962,-0.011232546530663967,-0.048872653394937515,-9.821631101658568e-05,-0.00944098923355341,-0.003092086873948574
1.1991233829994599,0.45120468811997055,-0.014744617503437555,0.40464091671015995,-2.845990846472211,1.1766714877226998,-0.12207698180726595,0.4588145315647125,-0.01406008843332529,0.40172311663627625,-2.8492866229088563,1.1810216930382011,-0.12220499806173972,-0.3099476993083954,-0.25668439269065857,0.27151381969451904,-2.446786880493164,0.1230422705411911,2.2888283729553223,0.665286660194397,0.0005577829433605075,-0.0610419400036335,-0.003158745588734746,-0.05146674066781998,0.0010327352210879326,-0.002050654496997595,-0.005023963749408722
1.211798029999045,0.4509734218897221,-0.014760183046968384,0.4046966905582509,-2.846053555435321,1.1767040845446988,-0.1221098669436218,0.45859500765800476,-0.014097604900598526,0.4017479419708252,-2.849382265357276,1.1811529645517553,-0.12231234722926408,-0.3099522590637207,-0.2573457658290863,0.27144190669059753,-2.4473750591278076,0.12305893003940582,2.288778066635132,0.6652055978775024,0.0006621634820476174,-0.05700702220201492,-0.0021429189946502447,-0.05438113957643509,4.439232361619361e-05,-0.004858137108385563,-0.007013015914708376
1.223569908999707,0.4507586278935254,-0.014774639914684737,0.40474849184243267,-2.8461117974867465,1.1767343597219564,-0.12214041097729357,0.4583842158317566,-0.01412730198353529,0.4017770290374756,-2.8494744400004826,1.181264087798056,-0.12245076166199252,-0.3099477291107178,-0.2580379843711853,0.2713544964790344,-2.447970390319824,0.12307774275541306,2.2887325286865234,0.6651445031166077,-6.130876954557607e-06,-0.06271931529045105,-0.010515952482819557,-0.05718959495425224,0.0045217545703053474,-0.002768414793536067,-0.006899823434650898
1.2348848179990455,0.4505521719385811,-0.014788535584408898,0.40479828226387105,-2.846167778302914,1.1767634597496996,-0.1221697704029984,0.45812830328941345,-0.014160706661641598,0.4018118679523468,-2.849602344659819,1.181378976388636,-0.1226524178140541,-0.3099525272846222,-0.25896167755126953,0.2712688446044922,-2.4487807750701904,0.12309525161981583,2.2887065410614014,0.6650457382202148,-0.002114704344421625,-0.06370339542627335,-0.006928434129804373,-0.06033417955040932,0.0029232092201709747,-0.0018747670110315084,-0.009266186505556107
1.246933636999529,0.4503323247941772,-0.014803332557977729,0.4048513022020698,-2.8462273897815655,1.176794447372983,-0.12220103530359415,0.45792272686958313,-0.014193754643201828,0.4018426835536957,-2.8496945124242576,1.1814863960052888,-0.12283935840326164,-0.3099546730518341,-0.25958091020584106,0.2712055444717407,-2.449324131011963,0.12310115247964859,2.288701057434082,0.6649795174598694,-0.000712076376657933,-0.06900396943092346,-0.008467331528663635,-0.06100481376051903,0.0009986432269215584,-0.005312267690896988,-0.0026537927333265543
1.2584664859987242,0.450121892226536,-0.014817495876540946,0.4049020516523826,-2.8462844481367147,1.176824108104398,-0.12223096245694082,0.45769375562667847,-0.014228870160877705,0.4018688201904297,-2.849809112576551,1.181589357825077,-0.1230184907534032,-0.3099530041217804,-0.2604101002216339,0.2711106836795807,-2.450073003768921,0.12310916185379028,2.288688898086548,0.6648830771446228,-0.00015222000365611166,-0.06848029792308807,-0.009032364003360271,-0.06066044047474861,-8.250753307947889e-05,-0.00039559771539643407,-0.007249108981341124
1.269005122998351,0.4499296004135222,-0.014830438218286533,0.4049484261462144,-2.846336587352278,1.1768512119594179,-0.12225831063764225,0.4574340879917145,-0.014261727221310139,0.4018993675708771,-2.849940835708005,1.1816953946022462,-0.12318773619369625,-0.3099513351917267,-0.26119643449783325,0.27103158831596375,-2.4507744312286377,0.12312214821577072,2.2886645793914795,0.6647887229919434,-0.00023555879306513816,-0.07047536969184875,-0.00760822556912899,-0.06257275491952896,-0.0002881974505726248,-0.0002052230847766623,-0.010047944262623787
1.2808677029988758,0.44971315145381296,-0.014845006474537941,0.4050006265534477,-2.8463952763331157,1.176881720902612,-0.12228909559587184,0.4571528732776642,-0.014296086505055428,0.40193960070610046,-2.850079278666498,1.1818495479239859,-0.12334400324457435,-0.3099513351917267,-0.2622140944004059,0.270940363407135,-2.451648235321045,0.12314185500144958,2.2885804176330566,0.6646947860717773,0.0005748636904172599,-0.07316367328166962,-0.00580206885933876,-0.06003536656498909,-0.00032840046333149076,-0.009041224606335163,-0.006557546090334654
1.294135397998616,0.4494710642535323,-0.014861300331406617,0.4050590100654664,-2.8464609165395247,1.1769158437330969,-0.12232352838409608,0.4568662941455841,-0.014326311647891998,0.40200120210647583,-2.8502332541746616,1.1819651337062456,-0.12352893914877644,-0.30994918942451477,-0.26313847303390503,0.2708617150783539,-2.452410936355591,0.12316234409809113,2.288466691970825,0.6646040678024292,0.0005342071526683867,-0.07412224262952805,-0.00868807639926672,-0.05733473226428032,0.0030936850234866142,-0.010345997288823128,-0.008076698519289494
1.30744336799944,0.4492282421808978,-0.01487764364939895,0.40511757080465305,-2.8465267555275413,1.1769500702757443,-0.12235806715019625,0.45663535594940186,-0.014350960031151772,0.40206483006477356,-2.85036670738545,1.1820445958286818,-0.12370366491578752,-0.3099444806575775,-0.26397356390953064,0.2707849442958832,-2.453056573867798,0.12317638844251633,2.2883434295654297,0.6645219326019287,0.0005686286021955311,-0.06897254288196564,-0.006363042164593935,-0.05225423723459244,0.0015794576611369848,-0.009407523088157177,-0.0074746273458004
1.3202779669991287,0.448994057408138,-0.014893405627577667,0.40517404850970795,-2.8465902521410613,1.1769830794868315,-0.12239137873573597,0.4563966393470764,-0.014381011947989464,0.4021349549293518,-2.8504749132725813,1.1821671243064926,-0.12386859349551904,-0.3099497854709625,-0.2648979425430298,0.27070391178131104,-2.453749418258667,0.12319787591695786,2.288187026977539,0.6644301414489746,-0.0002434937487123534,-0.06532743573188782,-0.008225511759519577,-0.05051974207162857,0.0031488502863794565,-0.012002146802842617,-0.0006157701718620956
1.3334114189983666,0.4487544196545886,-0.014909534622634562,0.40523184129531686,-2.8466552268131444,1.1770168574410875,-0.12242546738291546,0.4561675190925598,-0.014398683793842793,0.4022374749183655,-2.8505924522405155,1.1822401557135163,-0.12412181445884432,-0.3099481165409088,-0.2657736539840698,0.2706405818462372,-2.454350233078003,0.12322165817022324,2.2880258560180664,0.6643459796905518,-0.00013220656546764076,-0.06711389869451523,-0.003767248708754778,-0.048300959169864655,0.0014731978299096227,-0.011367088183760643,-0.0007525455439463258
1.3448215569987951,0.4485462261165706,-0.01492354724166405,0.40528205076494184,-2.8467116754183617,1.1770462033031714,-0.12245508421936843,0.4559747874736786,-0.014416707679629326,0.402325302362442,-2.850683037372178,1.182316366545436,-0.12432615818474828,-0.3099464476108551,-0.2665819823741913,0.27057084441185,-2.454901695251465,0.12323925644159317,2.2878661155700684,0.6642692685127258,-0.00040832889499142766,-0.06922746449708939,-0.0065567088313400745,-0.044299013912677765,-0.0005330003332346678,-0.01863260753452778,-0.005703396629542112
1.357376617999762,0.44831714189605326,-0.014938965923426877,0.4053372983836774,-2.8467737878206516,1.177078493916155,-0.12248767412433968,0.455750048160553,-0.014441806823015213,0.4024328589439392,-2.8507706829899693,1.1824313435531149,-0.12456621664925693,-0.3099464476108551,-0.267392635345459,0.27050426602363586,-2.4554290771484375,0.12326770275831223,2.2876951694488525,0.6641994118690491,0.0002666993241291493,-0.06791769713163376,-0.008379179984331131,-0.048159051686525345,0.0028332446236163378,-0.015252735465765,-0.0067176977172493935
1.3697249819997523,0.4480918291443761,-0.014954130763708636,0.40539163644752485,-2.8468348772393743,1.1771102530339932,-0.12251972875910332,0.4555486738681793,-0.014463636092841625,0.4025462567806244,-2.8508372708997047,1.1825584662628263,-0.12480679021912836,-0.3099451959133148,-0.26814207434654236,0.27043575048446655,-2.455881357192993,0.12329316884279251,2.2875211238861084,0.6641574501991272,-0.0004242499708198011,-0.06609794497489929,-0.005428703967481852,-0.04124509543180466,0.00022689120669383556,-0.01622631400823593,-0.0011837230995297432
1.3814921099983621,0.44787712183669504,-0.014968581796790757,0.4054434168252729,-2.846893090806244,1.1771405173582805,-0.12255027575370407,0.45536404848098755,-0.014485875144600868,0.40263229608535767,-2.850922175429271,1.1826447772843225,-0.12494064135648421,-0.3099481165409088,-0.2689156234264374,0.27036717534065247,-2.45638108253479,0.12331358343362808,2.287306308746338,0.664080798625946,2.2227957742870785e-05,-0.06485932320356369,-0.005546212196350098,-0.038305655121803284,0.0005416967323981225,-0.019858278334140778,-0.006803122349083424
1.3925944989987329,0.44767454359913533,-0.014982216473897513,0.40549227206815064,-2.846948015479474,1.1771690721083568,-0.12257909815719122,0.4551590085029602,-0.014503372833132744,0.40272101759910583,-2.851033599358253,1.182718932882083,-0.1250675368164778,-0.3099413216114044,-0.26963067054748535,0.270297110080719,-2.4568307399749756,0.12334156781435013,2.2871012687683105,0.6640154719352722,-0.00031060431501828134,-0.06327294558286667,-0.004593822173774242,-0.03716198727488518,0.0032988921739161015,-0.021636132150888443,-0.005798650439828634
1.4051210769994213,0.44744597908982575,-0.014997600176115684,0.40554739434954695,-2.847009985367101,1.1772012899050726,-0.12261161905052229,0.4549708664417267,-0.014527983032166958,0.40280354022979736,-2.851133828034219,1.1828059039614787,-0.12518462001556618,-0.30994704365730286,-0.27047017216682434,0.2702213525772095,-2.4573874473571777,0.12335972487926483,2.2868571281433105,0.663932204246521,-0.0007739636348560452,-0.06261691451072693,-0.009697056375443935,-0.040602777153253555,0.003708465024828911,-0.019700875505805016,-0.00439120689406991
1.4162149889998545,0.4472435555266976,-0.015011224442746194,0.4055962122900124,-2.847064867401124,1.1772298230454088,-0.12264042160435576,0.4547439515590668,-0.014551296830177307,0.40287360548973083,-2.851276797403609,1.1828941241345612,-0.12526160213400156,-0.3099532723426819,-0.271217942237854,0.27015796303749084,-2.4579198360443115,0.12337373197078705,2.2866475582122803,0.6638464331626892,-0.0001451469724997878,-0.0637042298913002,-0.008531121537089348,-0.043854787945747375,0.0002241033362224698,-0.021793460473418236,-0.008843837305903435
1.4296150619993568,0.4469990529091691,-0.015027680871047264,0.4056551783216429,-2.847131157667444,1.1772642876690402,-0.12267521287631221,0.4544946551322937,-0.014574340544641018,0.40294530987739563,-2.8514130933725563,1.1829815247205824,-0.12536958926207473,-0.3099413216114044,-0.27203863859176636,0.2700809836387634,-2.458517551422119,0.12339740246534348,2.2864432334899902,0.663756787776947,0.0004930966533720493,-0.061796415597200394,-0.00794709101319313,-0.045259200036525726,0.0017399301286786795,-0.017319636419415474,-0.006131268106400967
1.4425286899986531,0.446763426144469,-0.015043539903552908,0.40571200378797423,-2.847195041030976,1.1772975012942424,-0.12270874256560209,0.45432063937187195,-0.014588258229196072,0.4029867649078369,-2.8515319780616544,1.1830097554828805,-0.12543784091224885,-0.30994826555252075,-0.2727777361869812,0.27003544569015503,-2.4590799808502197,0.12342239171266556,2.286287546157837,0.66364586353302,-0.001513480907306075,-0.06074107438325882,-0.0030884305015206337,-0.046340055763721466,0.0004786444187629968,-0.011687229387462139,-0.005481593776494265
1.4532192129991017,0.44656836296410757,-0.015056668774213862,0.4057590466449358,-2.8472479264167303,1.177324997225043,-0.1227365010953346,0.4541112780570984,-0.014607660472393036,0.4030299782752991,-2.851690116765192,1.183023432435963,-0.12550009324730993,-0.30994659662246704,-0.27343302965164185,0.26998332142829895,-2.459606409072876,0.12343557178974152,2.2861452102661133,0.6635486483573914,0.00015042473387438804,-0.054830893874168396,-0.007392833009362221,-0.046099837869405746,0.0018851463682949543,-0.013894661329686642,-0.002842885907739401
1.4651495699999941,0.4463506773205386,-0.015071320266381005,0.40581154529985386,-2.8473069448261876,1.1773556820971431,-0.12276748003293332,0.45388519763946533,-0.014624668285250664,0.40306857228279114,-2.851869782358331,1.1830306152488859,-0.12556170671735145,-0.3099358379840851,-0.2742058038711548,0.2699228823184967,-2.4602179527282715,0.12344593554735184,2.2859904766082764,0.663414478302002,-0.0003346320881973952,-0.06071813777089119,-0.0038227762561291456,-0.04974501579999924,0.0009160283952951431,-0.012558854185044765,-0.008540592156350613
1.478413697999713,0.44610865520504084,-0.015087609742670552,0.40586991311555237,-2.847372560833419,1.177389797550402,-0.12280192367992265,0.4536447525024414,-0.014643726870417595,0.4031052589416504,-2.852073274376625,1.1830219578851553,-0.1256275232748316,-0.30994799733161926,-0.27494609355926514,0.26987966895103455,-2.460829496383667,0.12345872819423676,2.2858502864837646,0.6632755994796753,-0.00021123458282090724,-0.059713054448366165,-0.006095190532505512,-0.04665298014879227,0.000831153301987797,-0.012057633139193058,-0.013874555006623268
1.4917025919985463,0.44586618120009364,-0.015103929633711478,0.40592838991220104,-2.847438298881802,1.1774239768317265,-0.12283643309062052,0.45343610644340515,-0.0146682970225811,0.4031221270561218,-2.85222460061782,1.1830593434863803,-0.1256067578408788,-0.3099360167980194,-0.2756793200969696,0.26980045437812805,-2.461460828781128,0.12347343564033508,2.2856903076171875,0.663138747215271,0.0016857476439327002,-0.05453602969646454,-0.0065736956894397736,-0.047735389322042465,0.004832302685827017,-0.015181397087872028,-0.006188776809722185
1.5034537409992481,0.44565176545103424,-0.015118361043226367,0.40598009997554885,-2.847496429555243,1.1774542011126128,-0.122866950402637,0.45323967933654785,-0.014683964662253857,0.4031364321708679,-2.852392521184492,1.1830517999450403,-0.1256192580417848,-0.30993714928627014,-0.2763066589832306,0.26975539326667786,-2.4620087146759033,0.12348054349422455,2.2855770587921143,0.663026750087738,-3.867004852509126e-05,-0.060423221439123154,-0.003125685267150402,-0.051781799644231796,9.949765080818906e-05,-0.006686923559755087,-0.012062367051839828
1.5151619499993103,0.4454381332008821,-0.015132739718771689,0.40603162108459495,-2.8475543474443707,1.1774843150515888,-0.12289735733180401,0.45304328203201294,-0.014708500355482101,0.4031388759613037,-2.852549696559188,1.1830713010738305,-0.12559518209878315,-0.30994564294815063,-0.2769777774810791,0.26970094442367554,-2.462615489959717,0.1234968975186348,2.2854583263397217,0.6628834009170532,-0.000783176627010107,-0.05579426512122154,-0.0035462265368551016,-0.05479656159877777,0.0064446572214365005,-0.0049901544116437435,-0.010306650772690773
1.5251340399991022,0.44525617881098667,-0.015144986292659719,0.4060755025301939,-2.847603676851433,1.1775099637088842,-0.12292325634470531,0.45282644033432007,-0.014730126596987247,0.4031374454498291,-2.8527241056230404,1.1830857456237598,-0.1255637874610143,-0.30994439125061035,-0.277589350938797,0.26964613795280457,-2.4631805419921875,0.12350675463676453,2.2853524684906006,0.6627594828605652,1.4755569281987846e-05,-0.0596528984606266,-0.004455832298845053,-0.04730096831917763,0.0018576879519969225,-0.014764737337827682,-0.014021717011928558
1.537580688998787,0.445029072715371,-0.01516027183527277,0.4061302730899241,-2.8476652469016925,1.177541977144135,-0.12295558330724678,0.452629029750824,-0.014751164242625237,0.40313369035720825,-2.852876689744855,1.1831075700458473,-0.12552521109591774,-0.3099389374256134,-0.2781936526298523,0.26959386467933655,-2.463750123977661,0.12352373450994492,2.2852489948272705,0.6626383066177368,0.0013307285262271762,-0.0538308210670948,-0.006144824903458357,-0.04803360626101494,0.004339434672147036,-0.010179324075579643,-0.009573755785822868
1.5482651499987696,0.44483412014448026,-0.015173393261282041,0.4061772892715004,-2.847718099575067,1.1775694582301037,-0.1229833344582967,0.45242008566856384,-0.014766591601073742,0.40314537286758423,-2.853032430455725,1.1831092389028028,-0.12553680730324226,-0.30994659662246704,-0.278867244720459,0.26954764127731323,-2.464351177215576,0.1235523596405983,2.285146951675415,0.6625072360038757,-0.0005358413909561932,-0.05586034059524536,-0.007476561237126589,-0.05199393630027771,0.0027195941656827927,-0.0052389767952263355,-0.01533921156078577
1.5601849969989416,0.4446166262702163,-0.015188031846275223,0.4062297416779364,-2.8477770629535644,1.1776001169033308,-0.12301429543318929,0.4522312581539154,-0.014784224331378937,0.4031645655632019,-2.8531578228585976,1.1831278779245373,-0.12554238284920588,-0.30994492769241333,-0.2794822156429291,0.26950767636299133,-2.4648845195770264,0.12359172105789185,2.2850260734558105,0.6623837351799011,0.0014684624038636684,-0.05875340476632118,-0.004617701750248671,-0.04281432926654816,0.005484110210090876,-0.011252745985984802,-0.013630266301333904
1.5718757929989806,0.44440331174401126,-0.015202389137176864,0.40628118616236186,-2.8478348929252992,1.1776301865429688,-0.12304466260066967,0.45201215147972107,-0.014794498682022095,0.40319329500198364,-2.853309175500809,1.1831151006059217,-0.12554293585763693,-0.3099396228790283,-0.2802070677280426,0.26945051550865173,-2.465487003326416,0.12364835292100906,2.2848706245422363,0.6622304916381836,0.0010219617979601026,-0.05500943586230278,-0.0069466521963477135,-0.04302940517663956,0.0007838282035663724,-0.01384606584906578,-0.005207838024944067
1.5851529849987855,0.44416105125800487,-0.015218694657168616,0.406339611465228,-2.8479005697567086,1.1776643366387838,-0.12307915184101981,0.4518154263496399,-0.01480787806212902,0.4032321572303772,-2.853402625801735,1.183126748828634,-0.12554502830030925,-0.30993881821632385,-0.2808838188648224,0.2694166302680969,-2.4660067558288574,0.12373492866754532,2.284701347351074,0.6620838046073914,5.2406609029276296e-05,-0.056388143450021744,-0.0018341721734032035,-0.039606619626283646,0.005636351183056831,-0.010667912662029266,-0.011819945648312569
1.596504722998361,0.4439539233076947,-0.015232635556034577,0.4063895639499621,-2.847956721780548,1.1776935344017583,-0.12310864061452778,0.4516279399394989,-0.014821634627878666,0.40328919887542725,-2.8534861635649706,1.1831364187969726,-0.12554182875959025,-0.3099462389945984,-0.2815440893173218,0.26936277747154236,-2.466491460800171,0.12383680045604706,2.2844889163970947,0.6619313955307007,-9.94855145108886e-05,-0.060342155396938324,-0.002642767271026969,-0.03820761293172836,0.006053957622498274,-0.01895112916827202,-0.014955425634980202
1.6094717509986367,0.4437173221871074,-0.015248560168279034,0.4064466243990541,-2.848020863505947,1.1777268869620485,-0.12314232677737304,0.4514080882072449,-0.01483696885406971,0.4033512771129608,-2.8535880859288136,1.183169990202754,-0.1254465276378267,-0.3099425435066223,-0.282316118478775,0.26929765939712524,-2.4670302867889404,0.12394984811544418,2.2841784954071045,0.6617705821990967,0.0001543981779832393,-0.058517538011074066,-0.006214482709765434,-0.03436639904975891,0.007213154807686806,-0.021168570965528488,-0.011626392602920532
1.6228578979989834,0.44347307366843686,-0.015264999494269793,0.40650552915035376,-2.848087077940427,1.177761317670192,-0.12317710319401332,0.45120272040367126,-0.014846796169877052,0.403420090675354,-2.8537397516556275,1.1831595778396828,-0.125321319084186,-0.3099430203437805,-0.28298383951187134,0.26925045251846313,-2.46744966506958,0.12403398007154465,2.28385066986084,0.6616299152374268,0.0003891869564540684,-0.05856010690331459,-0.0023862645030021667,-0.03276897966861725,0.0033495670650154352,-0.03091404028236866,-0.004915405064821243
1.6352788279982633,0.44324643685107956,-0.015280253451764902,0.40656018653552206,-2.8481485175089944,1.1777932658471528,-0.12320937335441184,0.45102620124816895,-0.014861769042909145,0.4034842848777771,-2.853862388949033,1.1831801094373886,-0.1251728672863467,-0.3099481761455536,-0.2836613357067108,0.26919105648994446,-2.4678757190704346,0.12409715354442596,2.283461570739746,0.6614784598350525,-0.0006357874954119325,-0.05656057223677635,-0.004338235128670931,-0.03897864371538162,0.010810453444719315,-0.03166123852133751,-0.014188269153237343
1.646043610999186,0.44305001869567473,-0.015293473520016608,0.4066075561681316,-2.8482017646863067,1.177820954299791,-0.12323734179510883,0.4508396089076996,-0.014876299537718296,0.40357357263565063,-2.853941730284795,1.183227448536298,-0.12507124110178522,-0.30994129180908203,-0.284302681684494,0.26912856101989746,-2.4682297706604004,0.12419308722019196,2.283095598220825,0.6613497734069824,0.0013457067543640733,-0.062451329082250595,-0.009306765161454678,-0.03377993404865265,0.010128124617040157,-0.025617914274334908,-0.014600413851439953
1.6589703239988012,0.4428141531772882,-0.015309348622014527,0.40666443921404044,-2.8482657052742066,1.1778542036363258,-0.12327092849968821,0.4506515562534332,-0.014882870018482208,0.40366894006729126,-2.8540262877252065,1.1832691044906323,-0.12499683838269783,-0.30994340777397156,-0.28506889939308167,0.26906678080558777,-2.4686646461486816,0.12430844455957413,2.282680034637451,0.6612259745597839,-0.0011236488353461027,-0.06021764874458313,-0.0040822201408445835,-0.03136470913887024,0.010700509883463383,-0.03229575976729393,-0.008816292509436607
1.6715235329993448,0.4425851027490458,-0.015324765029363464,0.4067196786831849,-2.8483277979355726,1.1778864923852765,-0.12330354606885566,0.45045205950737,-0.01489354483783245,0.4037793278694153,-2.854108950104234,1.1833286116492618,-0.12494493337331619,-0.30994585156440735,-0.28579676151275635,0.26901668310165405,-2.4690372943878174,0.12439897656440735,2.2822859287261963,0.6611061096191406,-0.00028383039170876145,-0.060723498463630676,-0.00761528592556715,-0.03208622336387634,0.014686290174722672,-0.025395052507519722,-0.01535320095717907
1.6841755879995617,0.4423542487406547,-0.015340302827999336,0.40677535311685115,-2.848390379096462,1.1779190354983116,-0.12333642178784199,0.45026248693466187,-0.014904892072081566,0.40387821197509766,-2.8541576019878345,1.1834321451660343,-0.12489449611386969,-0.30994659662246704,-0.28657814860343933,0.2689632177352905,-2.469468593597412,0.12451986223459244,2.2818703651428223,0.6610113978385925,-0.00037957620224915445,-0.05752468481659889,-0.002983930753543973,-0.0290382020175457,0.002391092013567686,-0.03251176327466965,-0.00535852974280715
1.6959247239992692,0.4421398697215454,-0.015354731765377952,0.4068270543221367,-2.848448493742667,1.1779492562643876,-0.12336695249908186,0.4500720798969269,-0.014914295636117458,0.4039837718009949,-2.8541846355642386,1.1835531836213218,-0.1248938114348356,-0.30993813276290894,-0.2873222529888153,0.2688904404640198,-2.4698710441589355,0.12463117390871048,2.281511068344116,0.66093909740448,-0.000376028852770105,-0.06780442595481873,-0.005049892235547304,-0.034789133816957474,0.004514941945672035,-0.029615940526127815,-0.012966899201273918
1.7073221969985752,0.4419319072737554,-0.015368728830709867,0.4068772080603596,-2.848504868607083,1.1779785725907135,-0.12339657048358145,0.4498860239982605,-0.014925733208656311,0.40406543016433716,-2.8542251583166918,1.183670136196874,-0.12485515491724176,-0.30993810296058655,-0.2879440188407898,0.2688482999801636,-2.470243215560913,0.12471926212310791,2.281222105026245,0.6608713865280151,0.0003754792851395905,-0.06370031088590622,-0.009550236165523529,-0.03770884498953819,0.009864697232842445,-0.02815857157111168,-0.0037434103433042765
1.7189275219989213,0.44172015228257294,-0.015382981155961073,0.406928276435963,-2.848562271203048,1.1780084236474853,-0.12342672970157804,0.4496777057647705,-0.014936336316168308,0.40415680408477783,-2.8542816281323313,1.183745687392416,-0.12489077629007944,-0.30994006991386414,-0.28879648447036743,0.2687837779521942,-2.47076153755188,0.12484441697597504,2.28088641166687,0.6607568860054016,0.0007551006274297833,-0.06942202895879745,-0.007863478735089302,-0.041729506105184555,0.014148890040814877,-0.023140303790569305,-0.012375515885651112
1.73153899999852,0.4414900386569293,-0.015398469122592197,0.40698377231353466,-2.8486246500520824,1.178040862829409,-0.12345950490772382,0.44944286346435547,-0.014950397424399853,0.4042556881904602,-2.8543432357169944,1.1838291719136904,-0.12500159970276706,-0.30994173884391785,-0.2896796762943268,0.2687225937843323,-2.4713351726531982,0.12495893239974976,2.280611276626587,0.6606382131576538,-0.0005361137446016073,-0.06666073948144913,-0.006795662920922041,-0.04537486657500267,0.0020564422011375427,-0.01900648884475231,-0.01580607332289219
1.743508279998423,0.4412716428101293,-0.015413168415509567,0.40703644224623536,-2.848683852068439,1.178071650260966,-0.12349061235679722,0.44923436641693115,-0.014964159578084946,0.4043194353580475,-2.8543726254505994,1.183958143871425,-0.12505189491125845,-0.30994030833244324,-0.2904283404350281,0.26866835355758667,-2.4718637466430664,0.1250704824924469,2.280407667160034,0.6605548858642578,0.00027995443088002503,-0.06805269420146942,-0.008846352808177471,-0.045381102710962296,0.01627437211573124,-0.021956901997327805,-0.008501539006829262
1.7550925159994222,0.44106027261651787,-0.01542739484167756,0.40708741782125457,-2.848741149227731,1.1781014473810836,-0.12352072022376646,0.4489985704421997,-0.014978050254285336,0.40438371896743774,-2.8544200087197718,1.1840926830099734,-0.12510040402299913,-0.30994704365730286,-0.29126229882240295,0.268622487783432,-2.472464084625244,0.12518422305583954,2.2801876068115234,0.6604679226875305,-0.0007108235731720924,-0.06716988980770111,-0.0024944439064711332,-0.04710448160767555,0.012498101219534874,-0.019683629274368286,-0.003674756968393922
1.7672179299988784,0.4408390278918366,-0.01544228588041371,0.4071407748100897,-2.848801122738619,1.1781326366318876,-0.12355223581760648,0.44871053099632263,-0.014994295313954353,0.40446364879608154,-2.8544779968908753,1.184247165805402,-0.12523951986809073,-0.3099408447742462,-0.29222047328948975,0.26855894923210144,-2.4731593132019043,0.12530283629894257,2.2799854278564453,0.6603681445121765,0.00021182336786296219,-0.07434173673391342,-0.003770934185013175,-0.05510939657688141,0.013997474685311317,-0.009480726905167103,-0.005242745392024517
1.7804688729993359,0.4405972463546425,-0.015458559164403782,0.4071990846061727,-2.8488666627768517,1.1781667211162556,-0.12358667819969422,0.448432981967926,-0.015012873336672783,0.4045281708240509,-2.8545697764838716,1.1843958540114063,-0.125360293426908,-0.30994316935539246,-0.2932663857936859,0.2684931457042694,-2.4739606380462646,0.12540055811405182,2.279783010482788,0.6602761149406433,-0.0010254884837195277,-0.0755283460021019,-0.00728302076458931,-0.05366915091872215,0.009767578914761543,-0.01864367164671421,-0.003996870014816523
1.7934957629986457,0.4403595529701956,-0.015474557292269767,0.40725640847357064,-2.848931094174275,1.178200229410461,-0.12362053962516142,0.44816485047340393,-0.01502534095197916,0.40459340810775757,-2.8546670798447833,1.1844972121176869,-0.1255680484620416,-0.3099532723426819,-0.29422879219055176,0.26844701170921326,-2.474698305130005,0.12547408044338226,2.279649496078491,0.6601803302764893,-0.001214768155477941,-0.08299020677804947,-0.0018164071952924132,-0.061193376779556274,0.004466330632567406,-0.0034656410571187735,-0.007472100667655468
1.8064275549986633,0.44012359477851587,-0.015490438631711765,0.4073133138692457,-2.848995054763059,1.1782334932131833,-0.12365415524148071,0.44783926010131836,-0.015050110407173634,0.4046335518360138,-2.854745567147058,1.1847123346097004,-0.12568697182042687,-0.3099347949028015,-0.2952457070350647,0.2683717906475067,-2.4755444526672363,0.1255653351545334,2.2795255184173584,0.6601018905639648,0.0019672010093927383,-0.07808910310268402,-0.0026145195588469505,-0.06295779347419739,0.007568108383566141,-0.016326015815138817,-0.008499992080032825
1.8199645759996201,0.4398765933578225,-0.015507063243795638,0.40737288253044285,-2.8490620083304896,1.178268313948002,-0.12368934560057027,0.44750651717185974,-0.015075094997882843,0.4046648144721985,-2.854823364077269,1.1849348690261399,-0.12581158563747763,-0.3099333643913269,-0.29634976387023926,0.2682954967021942,-2.4764978885650635,0.1256723701953888,2.2794103622436523,0.6600236892700195,-0.0008096885867416859,-0.07940074801445007,-0.006135729141533375,-0.06387155503034592,0.005106482654809952,-0.005944422911852598,-0.0032260275911539793
1.833600182999362,0.43962779310105143,-0.015523808927863267,0.40743288501204705,-2.849129449002465,1.1783033884078755,-0.1237247937677078,0.44720274209976196,-0.015101274475455284,0.40467557311058044,-2.8549121025792177,1.1851479114467458,-0.12587822869612797,-0.30994701385498047,-0.29742589592933655,0.2682374119758606,-2.477459669113159,0.12577001750469208,2.2793049812316895,0.6599439978599548,-7.670000923098996e-05,-0.0761243999004364,-0.008381171151995659,-0.06927738338708878,0.004562478978186846,-0.009522439911961555,-0.003081350587308407
1.8464165779987525,0.43939394048511815,-0.01553954854998275,0.407489282611743,-2.8491928374587867,1.178336355758148,-0.12375811364628264,0.44695284962654114,-0.015114894136786461,0.4046996533870697,-2.8550478102294616,1.1852396309959168,-0.12599981204145055,-0.30994340777397156,-0.2982485890388489,0.26818737387657166,-2.478181838989258,0.12580130994319916,2.2792298793792725,0.6598742604255676,0.0011345196980983019,-0.07908831536769867,-0.0014095270307734609,-0.06422783434391022,0.0006959304446354508,-0.006198051385581493,-0.006123972125351429
1.858045556999059,0.4391817538944283,-0.015553829924355883,0.4075404550750264,-2.849250352706317,1.1783662688471184,-0.12378834766989667,0.44669079780578613,-0.015130012296140194,0.40472087264060974,-2.8551854279696935,1.185331350028173,-0.12609066602392563,-0.3099350333213806,-0.29912930727005005,0.2681393027305603,-2.47894287109375,0.1258397251367569,2.279130697250366,0.6597843170166016,-0.00012534037523437291,-0.07333026826381683,-0.002056289231404662,-0.05854862928390503,0.00255439686588943,-0.004938335157930851,-0.009837687946856022
1.8703991309994308,0.4389563460791847,-0.015569001162960824,0.4075948160650958,-2.8493114512976674,1.1783980459124326,-0.12382046677966797,0.4464379847049713,-0.015145828947424889,0.4047374725341797,-2.855310435917909,1.1854518294140375,-0.12610356326539282,-0.30993494391441345,-0.2999519407749176,0.26808789372444153,-2.4796645641326904,0.12588810920715332,2.278994560241699,0.6596978902816772,0.00046225811820477247,-0.0709599107503891,-0.00408994359895587,-0.056861091405153275,0.0026472886092960835,-0.016717350110411644,-0.001038425019942224
1.8821531359990331,0.43874187821852806,-0.015583436079885049,0.4076465386960558,-2.8493695841459368,1.1784282808122237,-0.12385102818724927,0.4461956322193146,-0.015161366201937199,0.4047681391239166,-2.855446685023593,1.185535830203924,-0.1261600420562153,-0.30993854999542236,-0.3007712960243225,0.268045037984848,-2.480346441268921,0.12592433393001556,2.278846025466919,0.6596087217330933,-0.00030986129422672093,-0.07237299531698227,-0.0046472493559122086,-0.05528874322772026,0.0019395045237615705,-0.015099836513400078,-0.015726059675216675
1.894123286998365,0.4385234664791549,-0.015598136442463731,0.4076992124615252,-2.849428785625329,1.1784590718101482,-0.1238821527636866,0.44594940543174744,-0.015178263187408447,0.4047999978065491,-2.855537566639465,1.1856660155368244,-0.12615672887138654,-0.30993854999542236,-0.30160287022590637,0.26799118518829346,-2.4810242652893066,0.12599582970142365,2.278665542602539,0.6595173478126526,-0.0012028736528009176,-0.06465262919664383,-0.007322215940803289,-0.05179480463266373,0.009451604448258877,-0.016019022092223167,-0.0036870709154754877
1.9071366929983924,0.4382860191286751,-0.015614118010832808,0.40775647699358003,-2.8494931463552193,1.1784925465080427,-0.12391599133412666,0.4457145631313324,-0.01519534271210432,0.4048386812210083,-2.855621003630851,1.1857966696825755,-0.12609967095155694,-0.30993688106536865,-0.3023330569267273,0.2679328918457031,-2.4815938472747803,0.12608064711093903,2.278449773788452,0.6594442129135132,-0.0008031083852984011,-0.059454295784235,-0.005787762347608805,-0.048294760286808014,0.010145530104637146,-0.018765944987535477,-0.0037279303651303053
1.91987758599862,0.4380535441497461,-0.015629764910081615,0.4078125423523046,-2.849556158869541,1.1785253203348636,-0.12394912264613286,0.44551822543144226,-0.015211489982903004,0.4048948884010315,-2.855716390792644,1.1858938731173405,-0.12604030745656125,-0.3099385201931,-0.3030928075313568,0.2678748369216919,-2.482114553451538,0.12614218890666962,2.278146743774414,0.6593421697616577,0.00011639077274594456,-0.05417792871594429,-0.0024936089757829905,-0.03806080296635628,-3.3069547498598695e-05,-0.027043165639042854,-0.010656125843524933
1.9319022809995658,0.43783413718063313,-0.015644532257329098,0.4078654561346249,-2.849615628889765,1.1785562519710544,-0.12398039279095831,0.44533902406692505,-0.015229916200041771,0.4049414098262787,-2.8557829343956387,1.1860124550598081,-0.12592294540168342,-0.30993157625198364,-0.30375760793685913,0.2677956223487854,-2.4825801849365234,0.12621565163135529,2.2778263092041016,0.6592730283737183,0.0014927256852388382,-0.054525814950466156,-0.009228283539414406,-0.03614243492484093,0.0066677723079919815,-0.030260102823376656,-0.004058775492012501
1.9428394079986901,0.43763457437380165,-0.015657963978655355,0.4079135841542708,-2.849669719833704,1.1785843861020218,-0.12400883575767925,0.4451476037502289,-0.015246440656483173,0.4049982726573944,-2.8558955794933802,1.1861011631525948,-0.1257820118574058,-0.30993178486824036,-0.30431216955184937,0.26774489879608154,-2.482931137084961,0.12626059353351593,2.2775328159332275,0.6592085957527161,-0.0009781745029613376,-0.052924688905477524,-0.001359552494250238,-0.03276599943637848,0.009125654585659504,-0.02578156068921089,-0.0067595322616398335
1.9549614039988228,0.4374133920151822,-0.015672850819797895,0.40796692610245233,-2.849729670321158,1.1786155682349106,-0.12404036123397177,0.44494909048080444,-0.015270519070327282,0.4050551652908325,-2.8560315825938636,1.1862159057480521,-0.12554415527050328,-0.30993181467056274,-0.3050417900085449,0.2676607668399811,-2.483398675918579,0.12629564106464386,2.2770767211914062,0.6591116189956665,0.00045007283915765584,-0.056258201599121094,-0.007944094948470592,-0.031870320439338684,0.0012285273987799883,-0.036291442811489105,-0.008608566597104073
1.96736466099901,0.43718707766580983,-0.01568808307334837,0.4080215057188933,-2.849791011402622,1.1786474739841215,-0.12407261943582024,0.4447084963321686,-0.015301571227610111,0.40512049198150635,-2.8561728490571774,1.1864131335934567,-0.12517701669498174,-0.3099336624145508,-0.30579015612602234,0.2675582468509674,-2.483846426010132,0.12633657455444336,2.2765259742736816,0.6590414643287659,-0.0006327929440885782,-0.05655594915151596,-0.009092784486711025,-0.038287051022052765,0.0020076401997357607,-0.04145339876413345,-0.013224247843027115
1.980967134999446,0.4369388819658242,-0.01570478806727741,0.4080813624011809,-2.849858282810829,1.1786824646916376,-0.12410799800210594,0.444491982460022,-0.01533044409006834,0.4051862061023712,-2.8562904031625065,1.1865843785442725,-0.12493745469725547,-0.3099370002746582,-0.30658575892448425,0.267461895942688,-2.484341621398926,0.12638306617736816,2.2759923934936523,0.6589789986610413,-0.0014608294004574418,-0.06153552606701851,-0.008054004050791264,-0.03519190475344658,0.0028901773039251566,-0.038668714463710785,-0.003000061260536313
1.9935678039983031,0.436708965565149,-0.01572026275953714,0.408136810714543,-2.8499205993208214,1.1787148784992596,-0.12414077234374454,0.4442925751209259,-0.015362431295216084,0.405244916677475,-2.8564133351068355,1.1866966635835237,-0.12477741642837333,-0.3099336624145508,-0.3072207272052765,0.267375111579895,-2.484736204147339,0.12640531361103058,2.275624990463257,0.6588930487632751,-5.945558314124355e-06,-0.06262888014316559,-0.005516365636140108,-0.037041544914245605,-3.869768261210993e-05,-0.0283149816095829,-0.0021861877758055925
2.005929943999945,0.43648340145152303,-0.015735444517919528,0.4081912093986684,-2.849981735772417,1.1787466788313021,-0.12417292754446858,0.44408583641052246,-0.01539866253733635,0.4053175151348114,-2.8564816672762383,1.1868484079202066,-0.12469047794368092,-0.3099336624145508,-0.3079574704170227,0.2672666311264038,-2.4852089881896973,0.1264556497335434,2.2752490043640137,0.6587913036346436,-2.0965790099580772e-05,-0.05969866365194321,-0.003086201613768935,-0.03978992998600006,0.002701978199183941,-0.02068130299448967,-0.006340003106743097
2.0189298249988497,0.43624620088314486,-0.015751409476437953,0.40824841441495463,-2.850046025702177,1.1787801198076604,-0.12420674293547056,0.4438712000846863,-0.015435350127518177,0.4053855538368225,-2.8565482287642645,1.1870048979385828,-0.12462785621780123,-0.30992862582206726,-0.3087705969810486,0.2671394944190979,-2.485743284225464,0.12652546167373657,2.2748899459838867,0.6586990356445312,-0.0004021782078780234,-0.06011783704161644,-0.01041017659008503,-0.04181402921676636,0.007151758763939142,-0.026650745421648026,-0.011519936844706535
2.03182698099954,0.4360108746725369,-0.015767248279929615,0.4083051673974726,-2.8501098071638697,1.1788132966564415,-0.12424029249539457,0.443656325340271,-0.015475739724934101,0.4054611623287201,-2.8566402741751604,1.1871438163457484,-0.12465668437296784,-0.30993741750717163,-0.3094862103462219,0.2670454978942871,-2.486208200454712,0.1265440285205841,2.2746174335479736,0.6586217880249023,-0.001463879132643342,-0.0631801187992096,-0.009056816808879375,-0.04104181006550789,0.007670151069760323,-0.024516206234693527,-0.005103247705847025
