hisham246/universal_manipulation_interface/panda_state_polymetis/replay_vic_trial_1.csv
time_rel,desired_ee_0,desired_ee_1,desired_ee_2,desired_ee_3,desired_ee_4,desired_ee_5,actual_ee_0,actual_ee_1,actual_ee_2,actual_ee_3,actual_ee_4,actual_ee_5,actual_q_0,actual_q_1,actual_q_2,actual_q_3,actual_q_4,actual_q_5,actual_q_6,actual_qd_0,actual_qd_1,actual_qd_2,actual_qd_3,actual_qd_4,actual_qd_5,actual_qd_6,stiffness_0,stiffness_1,stiffness_2,stiffness_3,stiffness_4,stiffness_5,damping_0,damping_1,damping_2,damping_3,damping_4,damping_5
1.6400999811594374e-05,0.3981941998404775,0.05597995078245503,0.4575761262939502,2.8197441138722823,-1.3457860188029636,0.018667834384772174,0.3981955647468567,0.05597927048802376,0.4575774669647217,2.8197414497561435,-1.3458054716064234,0.018663393559852918,-0.2452346235513687,-0.4991144835948944,0.348965048789978,-2.4725563526153564,0.157839834690094,1.9965142011642456,0.8892838358879089,-0.0006781773408874869,0.0028688213787972927,0.00026879628421738744,0.0003200678911525756,7.274741801666096e-05,0.0006294442573562264,-0.0002929347974713892,300.0,334.2167092825861,550.4414363981754,30.0,30.0,30.0,24.491198419023927,25.850175080118227,33.174544551037414,7.744796963123049,7.744796963123049,7.744796963123049
0.014648251999460626,0.3981463778423972,0.0557593240804777,0.4574701628635669,2.820095131836365,-1.3454204291096414,0.01900340407204928,0.3981945514678955,0.05597778037190437,0.45757991075515747,2.8197369160170784,-1.3458091193337467,0.01867925954964301,-0.2452324777841568,-0.49911588430404663,0.34896719455718994,-2.4725563526153564,0.15783725678920746,1.9965137243270874,0.889281690120697,-0.0003063092299271375,1.1745900337700732e-05,-2.6983278075931594e-05,0.00030610489193350077,0.000360393023584038,-0.00031925641815178096,-0.0012867433251813054,300.0,334.2167092825861,550.4414363981754,30.0,30.0,30.0,24.491198419023927,25.850175080118227,33.174544551037414,7.744796963123049,7.744796963123049,7.744796963123049
0.030299135998575366,0.3980952252886582,0.05552333186596997,0.457356819626466,2.8204705103449856,-1.3450292767855,0.019362381471970072,0.39819467067718506,0.05598056688904762,0.4575780928134918,2.8197445750329035,-1.3457957929643276,0.018669584235648996,-0.2452353984117508,-0.4991154074668884,0.34896671772003174,-2.4725563526153564,0.15783852338790894,1.9965144395828247,0.8892874717712402,0.00044775669812224805,0.0015501270536333323,0.0004486764664761722,0.0006746384897269309,-0.0004757996357511729,-0.00013191226753406227,0.0011237382423132658,300.0,334.2167092825861,550.4414363981754,30.0,30.0,30.0,24.491198419023927,25.850175080118227,33.174544551037414,7.744796963123049,7.744796963123049,7.744796963123049
0.04097803699914948,0.3980603229114292,0.055362309811511135,0.457279483342576,2.8207265873022216,-1.3447623259526456,0.01960734065214884,0.3981945812702179,0.05597943067550659,0.45757704973220825,2.8197422022699596,-1.345800014944141,0.018665956205442674,-0.24523061513900757,-0.499112069606781,0.34896671772003174,-2.47255802154541,0.15783897042274475,1.9965157508850098,0.8892867565155029,0.0006409147172234952,0.0006286684074439108,0.0003484173212200403,-0.0007788918446749449,-0.00023210755898617208,-1.447879276383901e-05,0.0007597182411700487,300.0,334.2167092825861,550.4414363981754,30.0,30.0,30.0,24.491198419023927,25.850175080118227,33.174544551037414,7.744796963123049,7.744796963123049,7.744796963123049
0.05190951199983829,0.3980245950341763,0.055197479314179836,0.45720031792527843,2.8209886779979403,-1.3444890108446919,0.019858111971185276,0.3981953561306,0.05597953125834465,0.45757877826690674,2.8197434417420126,-1.3457990361610095,0.018672733783793753,-0.2452370822429657,-0.4991120994091034,0.34896865487098694,-2.47255277633667,0.1578364074230194,1.9965157508850098,0.8892911076545715,-0.0010161667596548796,0.0009813420474529266,0.0008216557325795293,0.00011196562991244718,0.00042089910130016506,0.00035044600372202694,0.0020085670985281467,300.0,334.2167092825861,550.4414363981754,30.0,30.0,30.0,24.491198419023927,25.850175080118227,33.174544551037414,7.744796963123049,7.744796963123049,7.744796963123049
0.061293519000173546,0.39799392482267903,0.055055982348699135,0.4571323592252807,2.8212136322948234,-1.3442543457297285,0.02007339878963656,0.39819467067718506,0.05597895383834839,0.45757871866226196,2.8197403643094106,-1.3458055969263276,0.018670774472320312,-0.2452370822429657,-0.4991154968738556,0.3489656448364258,-2.472559690475464,0.1578364074230194,1.9965157508850098,0.8892889022827148,-0.0012042585294693708,-0.00023181445430964231,0.000256907194852829,-0.0008466503932140768,0.00022594477923121303,0.0002696386363822967,0.0005904099089093506,300.0,334.2167092825861,550.4414363981754,30.0,30.0,30.0,24.491198419023927,25.850175080118227,33.174544551037414,7.744796963123049,7.744796963123049,7.744796963123049
0.07077211399882799,0.39796294546457595,0.05491305913590931,0.4570637155218083,2.8214408215715787,-1.3440172770865346,0.020290869588170724,0.3981943726539612,0.055976904928684235,0.4575756788253784,2.8197421452734113,-1.3458032173413732,0.01866529660845673,-0.245235413312912,-0.4991137385368347,0.34896746277809143,-2.4725606441497803,0.1578395664691925,1.9965142011642456,0.8892886638641357,-2.0747258986375527e-06,0.0005881406250409782,0.0016249679028987885,0.00013565328845288604,0.00017803454829845577,-0.0003019501455128193,0.000865817884914577,300.0,334.2167092825861,550.4414363981754,30.0,30.0,30.0,24.491198419023927,25.850175080118227,33.174544551037414,7.744796963123049,7.744796963123049,7.744796963123049
0.08003182599895808,0.3979326814925395,0.05477343635544923,0.4569966569625106,2.821662732975479,-1.3437856458680932,0.020503332014758426,0.3981937766075134,0.05597769841551781,0.45757320523262024,2.819731937381474,-1.345810713454052,0.01865976116188166,-0.2452361136674881,-0.49911734461784363,0.34896713495254517,-2.4725639820098877,0.15783566236495972,1.996514081954956,0.8892866373062134,1.6296191461151466e-05,-0.0006905601476319134,0.0010511701693758368,0.0001972067984752357,-7.206654117908329e-05,-0.0008405879489146173,-0.0004494702734518796,300.0,334.2167092825861,550.4414363981754,30.0,30.0,30.0,24.491198419023927,25.850175080118227,33.174544551037414,7.744796963123049,7.744796963123049,7.744796963123049
0.09009580099882442,0.39789978890819494,0.05462168647684153,0.4569237739544548,2.8219038833941594,-1.3435338545301219,0.020734263283713732,0.3981923460960388,0.055976372212171555,0.45757195353507996,2.8197360824460826,-1.3458007850530105,0.018656527664257832,-0.24523349106311798,-0.4991154074668884,0.34896281361579895,-2.4725708961486816,0.15783566236495972,1.9965165853500366,0.8892877697944641,-0.00014355103485286236,0.006125463172793388,-0.000639909936580807,0.0007910901913419366,-0.00016093472368083894,0.000176876739715226,0.0005346274119801819,300.0,334.2167092825861,550.4414363981754,30.0,30.0,30.0,24.491198419023927,25.850175080118227,33.174544551037414,7.744796963123049,7.744796963123049,7.744796963123049
0.10065114999997604,0.3978652903420407,0.054462527404048916,0.4568473324304752,2.8221567684139597,-1.3432697230001849,0.020976486759225085,0.3981914222240448,0.0559733584523201,0.4575675129890442,2.8197216166675356,-1.3458205556500187,0.01864452917509163,-0.24523012340068817,-0.49911531805992126,0.3489603102207184,-2.4725773334503174,0.15783636271953583,1.9965205192565918,0.8892812728881836,0.0009119423921220005,-0.003250004258006811,-0.000359263620339334,-0.00012124873319407925,-6.875403778394684e-05,0.0027224011719226837,-0.0018126185750588775,300.0,334.2167092825861,550.4414363981754,30.0,30.0,30.0,24.491198419023927,25.850175080118227,33.174544551037414,7.744796963123049,7.744796963123049,7.744796963123049
0.11090922899893485,0.39783176335805165,0.05430785072382456,0.4567730437270228,2.8224024926056877,-1.3430129846134526,0.02121190515392463,0.3981896638870239,0.05597599595785141,0.4575655162334442,2.819729609410732,-1.345804247911511,0.018645340741341908,-0.24523498117923737,-0.4991150498390198,0.34895795583724976,-2.4725911617279053,0.15783566236495972,1.9965232610702515,0.8892895579338074,0.0007920778589323163,0.0010445103980600834,-0.0013027676614001393,-0.002562584588304162,-0.00013764019240625203,2.9276930945343338e-05,0.0009974431013688445,300.0,334.2167092825861,550.4414363981754,30.0,30.0,30.0,24.491198419023927,25.850175080118227,33.174544551037414,7.744796963123049,7.744796963123049,7.744796963123049
0.12177118299950962,0.39779626269970186,0.054144068500493164,0.45669438177874333,2.822662640411185,-1.3427410835107088,0.021461200103312716,0.3981868624687195,0.05597223713994026,0.4575559198856354,2.819721004631279,-1.3457956204425061,0.018615406198485333,-0.24523496627807617,-0.49911266565322876,0.3489607572555542,-2.4726054668426514,0.15783631801605225,1.9965245723724365,0.8892826437950134,0.00031349912751466036,0.00023018222418613732,0.0007343085599131882,-0.0045984042808413506,-7.187962910393253e-05,0.0002508123288862407,0.0013029099209234118,300.0,334.2167092825861,550.4414363981754,30.0,30.0,30.0,24.491198419023927,25.850175080118227,33.174544551037414,7.744796963123049,7.744796963123049,7.744796963123049
0.13417076799851202,0.39775573652635354,0.05395710107277106,0.4566045843524399,2.8229595625590287,-1.3424306301839952,0.021745808027989696,0.3981834053993225,0.055969614535570145,0.457544207572937,2.8197093172834244,-1.3458050896622649,0.018586225022622315,-0.24523665010929108,-0.49911054968833923,0.3489558696746826,-2.4726269245147705,0.15783418715000153,1.99652898311615,0.8892773985862732,-0.00075238395947963,0.000623568834271282,0.00023202235752251,-0.008248940110206604,-0.0002805699477903545,-0.00020818035409320146,-0.00021263129019644111,300.0,334.2167092825861,550.4414363981754,30.0,30.0,30.0,24.491198419023927,25.850175080118227,33.174544551037414,7.744796963123049,7.744796963123049,7.744796963123049
0.1469723680002062,0.3977138964276046,0.0537640718525805,0.4565118755454265,2.8232660526899784,-1.342110042566255,0.022039668560344977,0.3981761634349823,0.05596429854631424,0.4575272798538208,2.819692654492894,-1.3457963960379649,0.018544184111364343,-0.24523498117923737,-0.49911734461784363,0.3489510416984558,-2.4726626873016357,0.15783219039440155,1.996537208557129,0.8892734050750732,-0.0005722196656279266,-0.0001927416742546484,-0.0006569302058778703,-0.0018875169334933162,-7.632542838109657e-05,0.004700834862887859,0.0001465506647946313,300.0,334.2167092825861,550.4414363981754,30.0,30.0,30.0,24.491198419023927,25.850175080118227,33.174544551037414,7.744796963123049,7.744796963123049,7.744796963123049
0.16027268600009847,0.3976704263442998,0.0535635227015786,0.45641555503748177,2.8235844196936144,-1.3417768915413908,0.022345004214271384,0.39816537499427795,0.055958375334739685,0.4575014114379883,2.8196654637365306,-1.3457968062669865,0.018475658813467754,-0.24523578584194183,-0.49911829829216003,0.34894755482673645,-2.4727189540863037,0.15783362090587616,1.9965401887893677,0.8892741799354553,-0.0007230769842863083,0.00032139901304617524,-0.0007869708351790905,-0.005963489878922701,0.0006079131853766739,2.7779926313087344e-05,0.0012832196662202477,300.0,334.2167092825861,550.4414363981754,30.0,30.0,30.0,24.491198419023927,25.850175080118227,33.174544551037414,7.744796963123049,7.744796963123049,7.744796963123049
0.17111460299929604,0.3976349911738668,0.05340004260663353,0.4563370381965712,2.8238438927836,-1.3415052635198763,0.022593922706053288,0.3981575071811676,0.05595303326845169,0.457482248544693,2.819642656222442,-1.3457977338347102,0.018420473724816512,-0.24523484706878662,-0.4991190433502197,0.34894439578056335,-2.472768545150757,0.15783075988292694,1.9965405464172363,0.8892651796340942,0.0001411830453434959,0.0005144639872014523,-0.0005861924146302044,-0.0048920889385044575,-0.0005463394336402416,-0.00015472466475330293,-0.0010263161966577172,300.0,334.2167092825861,550.4414363981754,30.0,30.0,30.0,24.491198419023927,25.850175080118227,33.174544551037414,7.744796963123049,7.744796963123049,7.744796963123049
0.18029597799977637,0.3976049832344983,0.0532616010324252,0.4562705469514984,2.8240635916297694,-1.3412751986433638,0.02280473130284141,0.3981494605541229,0.055944569408893585,0.45745694637298584,2.819615615695085,-1.3458068923037154,0.018360446844290165,-0.24523985385894775,-0.49911659955978394,0.3489430844783783,-2.4728240966796875,0.15782834589481354,1.9965499639511108,0.8892646431922913,-0.0018950961530208588,0.00026190991047769785,0.00040368264308199286,-0.006347921211272478,-0.00011801300570368767,0.0009537526639178395,0.0006666176486760378,300.0,334.2167092825861,550.4414363981754,30.0,30.0,30.0,24.491198419023927,25.850175080118227,33.174544551037414,7.744796963123049,7.744796963123049,7.744796963123049
0.19050315200001933,0.3975716226258195,0.05310769192439531,0.45619662690053475,2.8243078005075115,-1.3410193872665876,0.02303910813327826,0.39814093708992004,0.055939141660928726,0.45743125677108765,2.8195983740691943,-1.3458069715013126,0.01829077363464535,-0.24523484706878662,-0.4991113245487213,0.3489379286766052,-2.4728732109069824,0.157831072807312,1.996558666229248,0.8892591595649719,0.0002845707058440894,0.0009781148983165622,-0.0005936617380939424,-0.003615899942815304,-8.904244168661535e-05,0.001805302919819951,0.00044178019743412733,300.0,334.2167092825861,550.4414363981754,30.0,30.0,30.0,24.491198419023927,25.850175080118227,33.174544551037414,7.744796963123049,7.744796963123049,7.744796963123049
0.19872913299877837,0.39754473724764416,0.05298365628062557,0.45613705459044784,2.8245045812748963,-1.3408131960151104,0.02322800467824962,0.39812982082366943,0.055932801216840744,0.45740440487861633,2.819568115587059,-1.3457994535130666,0.01821760156413471,-0.24523484706878662,-0.49911099672317505,0.3489340543746948,-2.472935438156128,0.1578274369239807,1.9965641498565674,0.8892553448677063,-0.00011735205771401525,0.000564178335480392,-0.0005455666105262935,-0.010156247764825821,-0.00019605054694693536,-0.00012812280328944325,0.0006388651672750711,300.0,334.2167092825861,550.4414363981754,30.0,30.0,30.0,24.491198419023927,25.850175080118227,33.174544551037414,7.744796963123049,7.744796963123049,7.744796963123049
0.20822692299952905,0.3975136951535719,0.05284044363555496,0.4560682718773404,2.824731755395738,-1.340575089841063,0.02344611939975994,0.3981204032897949,0.055926691740751266,0.4573802053928375,2.819546492533699,-1.3457992866172959,0.018167906117264855,-0.24523484706878662,-0.4991127550601959,0.34893304109573364,-2.472992420196533,0.15782739222049713,1.9965782165527344,0.8892419934272766,-9.029449574882165e-05,0.0002967276086565107,-0.0012476238189265132,-0.005371125880628824,-0.00020007637795060873,0.003428839845582843,-0.0014936454826965928,300.0,334.2167092825861,550.4414363981754,30.0,30.0,30.0,24.491198419023927,25.850175080118227,33.174544551037414,7.744796963123049,7.744796963123049,7.744796963123049
0.2164048829999956,0.39748696672478645,0.05271713207751293,0.4560090473338969,2.824927334638555,-1.3403700404662418,0.0236339357625575,0.3981110155582428,0.05591949075460434,0.45735254883766174,2.819523991500232,-1.345787069479778,0.018095785785161748,-0.24523502588272095,-0.49911338090896606,0.348930299282074,-2.473053455352783,0.15782354772090912,1.9965909719467163,0.8892306685447693,-3.445675611146726e-05,0.00030444166623055935,-0.0004483228549361229,-0.006614323705434799,-0.0015525119379162788,0.00035373345599509776,-0.006136901676654816,300.0,334.2167092825861,550.4414363981754,30.0,30.0,30.0,24.491198419023927,25.850175080118227,33.174544551037414,7.744796963123049,7.744796963123049,7.744796963123049
0.22553547399911622,0.3974571247652666,0.05257945625103765,0.45594292386505364,2.8251456676222726,-1.3401410716374031,0.023843642708324925,0.3981013298034668,0.05590911954641342,0.45732545852661133,2.8194990655646577,-1.3458015745306802,0.01803463079212754,-0.245234414935112,-0.49911436438560486,0.3489224314689636,-2.473118543624878,0.15782420337200165,1.9966084957122803,0.8892264366149902,3.653001840575598e-05,-0.00022835031268186867,0.0003544811625033617,-0.0070738461799919605,0.00018644682131707668,0.0006630722782574594,-0.0003231505397707224,300.0,334.2167092825861,550.4414363981754,30.0,30.0,30.0,24.491198419023927,25.850175080118227,33.174544551037414,7.744796963123049,7.744796963123049,7.744796963123049
0.23516578299859248,0.3974256495528347,0.05243424541519549,0.45587318145329314,2.8253759170370514,-1.33989953274975,0.02406484099710526,0.3980916440486908,0.05589991435408592,0.4572939872741699,2.819480440171277,-1.345780960247301,0.017971078717435626,-0.2452380508184433,-0.4991127550601959,0.3489125072956085,-2.473184585571289,0.15782199800014496,1.9966331720352173,0.8892163038253784,-0.0008962921565398574,0.000354772579157725,-0.001424805261194706,-0.006645997520536184,-0.00018997759616468102,0.002648955909535289,-0.0028851847164332867,300.0,334.2167092825861,550.4414363981754,30.0,30.0,30.0,24.491198419023927,25.850175080118227,33.174544551037414,7.744796963123049,7.744796963123049,7.744796963123049
0.24398188299892354,0.39739683545971,0.0523013116484819,0.45580933551892294,2.8255866700022936,-1.3396783804091983,0.024267350400747168,0.3980780243873596,0.05589061975479126,0.45726221799850464,2.8194612065606677,-1.3457608007474635,0.017890123413590007,-0.24523821473121643,-0.49911653995513916,0.34890633821487427,-2.4732437133789062,0.15782198309898376,1.996641755104065,0.8891895413398743,-0.00023890715965535492,-0.0011165848700329661,-0.0035822258796542883,-0.006632457487285137,-0.00046888773795217276,-5.5662054364802316e-05,-0.006419074255973101,300.0,334.2167092825861,550.4414363981754,30.0,30.0,30.0,24.491198419023927,25.850175080118227,33.174544551037414,7.744796963123049,7.744796963123049,7.744796963123049
0.2539148420000856,0.3973643710813961,0.05215153729762534,0.4557374013248387,2.8258240880217436,-1.3394291718377054,0.024495529003235032,0.39806830883026123,0.05587400123476982,0.45723021030426025,2.819437399125435,-1.3457737144011497,0.01781835987995037,-0.24523389339447021,-0.4991113543510437,0.34888240694999695,-2.4733362197875977,0.15782198309898376,1.9966710805892944,0.8891745805740356,0.0006333326455205679,0.001254806062206626,-0.005990773439407349,-0.008974355645477772,-0.00033313161111436784,0.0023334224242717028,-0.0011905397986993194,300.0,334.2167092825861,550.4414363981754,30.0,30.0,30.0,24.491198419023927,25.850175080118227,33.174544551037414,7.744796963123049,7.744796963123049,7.744796963123049
0.26466123899990635,0.39732924810367387,0.05198949750318878,0.45565957623692677,2.826080908316801,-1.339159507425685,0.024742411086215225,0.3980547785758972,0.05585179105401039,0.4571928381919861,2.8194284194704453,-1.345760019540816,0.017721823493360506,-0.2452307939529419,-0.49911513924598694,0.3488433063030243,-2.4734246730804443,0.15781985223293304,1.9966951608657837,0.8891233205795288,0.00025744212325662374,0.00040814795647747815,-0.004717303439974785,-0.00908871553838253,0.00023160337877925485,0.003968338016420603,-0.0035048609133809805,300.0,334.2167092825861,550.4414363981754,30.0,30.0,30.0,24.491198419023927,25.850175080118227,33.174544551037414,7.744796963123049,7.744796963123049,7.744796963123049
0.2756047959992429,0.39729348073823073,0.05182448482716287,0.4555803233221538,2.8263423970676387,-1.3388848449044044,0.024993841086169494,0.39804375171661377,0.05582762882113457,0.4571587145328522,2.8194678802607425,-1.3456501982369873,0.01766045771641322,-0.2452390044927597,-0.49911734461784363,0.3488132655620575,-2.4735093116760254,0.15781718492507935,1.9967269897460938,0.8890188336372375,-0.000822224363218993,-0.0004180912801530212,-0.004470148589462042,-0.009441505186259747,-0.0002644188643898815,0.0038677044212818146,-0.011431551538407803,300.0,334.2167092825861,550.4414363981754,30.0,30.0,30.0,24.491198419023927,25.850175080118227,33.174544551037414,7.744796963123049,7.744796963123049,7.744796963123049
0.2865538549995108,0.39725769539032746,0.051659389189089314,0.45550103056205354,2.8266039735208355,-1.338609993113734,0.025245416140935565,0.3980366885662079,0.055798470973968506,0.45712530612945557,2.8195220236659657,-1.3455647328997775,0.017642397402506605,-0.24523760378360748,-0.4991152882575989,0.348760724067688,-2.4736130237579346,0.15781734883785248,1.9968132972717285,0.8888932466506958,-0.0006947809015400708,0.0003004456521011889,-0.010391351766884327,-0.00940956175327301,0.00025049608666449785,0.007549792993813753,-0.007792653515934944,300.0,334.2167092825861,550.4414363981754,30.0,30.0,30.0,24.491198419023927,25.850175080118227,33.174544551037414,7.744796963123049,7.744796963123049,7.744796963123049
0.29724161199919763,0.397222764068601,0.05149823359924408,0.455423630143281,2.8268592651568527,-1.338341651354545,0.025491005279611283,0.3980274200439453,0.0557689294219017,0.4570865333080292,2.8195729907762805,-1.345471203784731,0.017604600671081144,-0.2452392727136612,-0.49911659955978394,0.34871813654899597,-2.4737067222595215,0.15781398117542267,1.9968873262405396,0.8887742161750793,-0.0012910639634355903,-0.0008811353472992778,-0.004072200506925583,-0.008174363523721695,-0.003527077380567789,0.007544009014964104,-0.0067290207371115685,300.0,334.2167092825861,550.4414363981754,30.0,30.0,30.0,24.491198419023927,25.850175080118227,33.174544551037414,7.744796963123049,7.744796963123049,7.744796963123049
0.3080904419985018,0.3971873063040699,0.05133464926646783,0.455345063238629,2.8271183615626314,-1.338069215585165,0.02574031381021281,0.39801692962646484,0.05573873966932297,0.4570527970790863,2.8196032278200547,-1.3454154962418032,0.017550052364334944,-0.24523517489433289,-0.49912068247795105,0.34866228699684143,-2.4738049507141113,0.15781444311141968,1.9969520568847656,0.8886620998382568,0.0003664712712634355,-0.0006534230196848512,-0.006305227056145668,-0.00798837374895811,0.009484737180173397,0.014253322035074234,-0.008431798778474331,300.0,334.2167092825861,550.4414363981754,30.0,30.0,30.0,24.491198419023927,25.850175080118227,33.174544551037414,7.744796963123049,7.744796963123049,7.744796963123049
0.3177709049996338,0.3971556671708483,0.051188682182357656,0.455274957613078,2.8273495182182122,-1.3378260774105775,0.025962788457775384,0.3980000615119934,0.05569629743695259,0.45699992775917053,2.819625109765735,-1.3453242389215083,0.01743699652934,-0.24523618817329407,-0.49912238121032715,0.3485853672027588,-2.4739420413970947,0.15780194103717804,1.9970042705535889,0.8885254263877869,-0.0010847939411178231,-2.9218519557616673e-05,-0.002156128641217947,-0.009472239762544632,0.0003240332589484751,0.0024907614570111036,-0.006854988634586334,300.0,334.2167092825861,550.4414363981754,30.0,30.0,30.0,24.491198419023927,25.850175080118227,33.174544551037414,7.744796963123049,7.744796963123049,7.744796963123049
0.32925291499850573,0.3971181399529907,0.05101555043038844,0.4551918052376741,2.827623649029195,-1.3375376390185303,0.026226684820643,0.3979887366294861,0.05565934255719185,0.45695292949676514,2.8196725506618,-1.345242129801796,0.017390829971918823,-0.2452355921268463,-0.49912211298942566,0.3485296666622162,-2.4740707874298096,0.15779829025268555,1.9970954656600952,0.8883797526359558,7.268400077009574e-05,-0.0005214906414039433,-0.0050480663776397705,-0.015516282990574837,-0.00023013916506897658,0.011024484410881996,-0.011833392083644867,300.0,334.2167092825861,550.4414363981754,30.0,30.0,30.0,24.491198419023927,25.850175080118227,33.174544551037414,7.744796963123049,7.744796963123049,7.744796963123049
0.33946245399965846,0.3970847716146632,0.0508616056616379,0.4551178680594442,2.8278673593566364,-1.3372811189549512,0.02646135260450966,0.3979783356189728,0.05561189725995064,0.4568951427936554,2.8197362861489568,-1.3451641964171137,0.017379476389580633,-0.24523022770881653,-0.49911752343177795,0.3484516441822052,-2.474219799041748,0.1577984094619751,1.9972419738769531,0.8882526755332947,0.00129368482157588,-0.0001730346557451412,-0.00559996860101819,-0.0200102087110281,0.0004793040279764682,0.015205609612166882,-0.018375013023614883,300.0,334.2167092825861,550.4414363981754,30.0,30.0,30.0,24.491198419023927,25.850175080118227,33.174544551037414,7.744796963123049,7.744796963123049,7.744796963123049
0.3497196520002035,0.3970512475100846,0.050706942265568405,0.4550435857361561,2.828112168963473,-1.3370233566109067,0.026697132151159025,0.397968053817749,0.05556103587150574,0.45683780312538147,2.8198131239603357,-1.3450727606985213,0.017376604860773876,-0.2452363222837448,-0.4991215169429779,0.3483698070049286,-2.4743852615356445,0.15779663622379303,1.9974114894866943,0.8880789279937744,-0.000562927802093327,-0.0015476300613954663,-0.009229083545506,-0.015558293089270592,0.000400338729377836,0.010462715290486813,-0.00753448624163866,300.0,334.2167092825861,550.4414363981754,30.0,30.0,30.0,24.491198419023927,25.850175080118227,33.174544551037414,7.744796963123049,7.744796963123049,7.744796963123049
0.3611284139988129,0.3970139596922679,0.05053491498525658,0.4549609638205947,2.828384417865552,-1.3367366028042078,0.026959401605449154,0.3979582190513611,0.055519916117191315,0.45679113268852234,2.819916206686028,-1.344909582615733,0.01738187394521197,-0.24523966014385223,-0.49911847710609436,0.3482964038848877,-2.47452712059021,0.15779481828212738,1.997549295425415,0.8878893256187439,-0.000665402680169791,0.0006834170781075954,-0.00634115282446146,-0.020905354991555214,-6.247634155442938e-05,0.017801104113459587,-0.02525283955037594,300.0,334.2167092825861,550.4414363981754,30.0,30.0,30.0,24.491198419023927,25.850175080118227,33.174544551037414,7.744796963123049,7.744796963123049,7.744796963123049
0.37031622199901904,0.39698393072761,0.050396376410913865,0.45489442598792895,2.8286036332147226,-1.3365056312154622,0.027170629528968992,0.3979492783546448,0.05546979978680611,0.45673444867134094,2.820024390470979,-1.3447613855142468,0.01738879462617146,-0.245233416557312,-0.4991210401058197,0.3482040464878082,-2.474693536758423,0.15779419243335724,1.997727632522583,0.8876619338989258,0.0011253241682425141,-0.0007989483419805765,-0.008846091106534004,-0.01518565509468317,5.2011102525284514e-05,0.015812445431947708,-0.019311731681227684,300.0,334.2167092825861,550.4414363981754,30.0,30.0,30.0,24.491198419023927,25.850175080118227,33.174544551037414,7.744796963123049,7.744796963123049,7.744796963123049
0.37977236499864375,0.3969530247504793,0.05025379174110803,0.45482594488116673,2.828829218615145,-1.3362678763319158,0.027388040174008633,0.39793917536735535,0.05542125552892685,0.45667704939842224,2.8201119812118343,-1.3446451665738173,0.017385842529650548,-0.24523508548736572,-0.49912047386169434,0.3481171727180481,-2.474881649017334,0.15779109299182892,1.99791419506073,0.8874481320381165,0.0002639598969835788,0.00056360790040344,-0.010171856731176376,-0.0180878397077322,-0.0002985440369229764,0.018572160974144936,-0.024942895397543907,300.0,334.2167092825861,550.4414363981754,30.0,30.0,30.0,24.491198419023927,25.850175080118227,33.174544551037414,7.744796963123049,7.744796963123049,7.744796963123049
0.38926833199911925,0.3969219886146084,0.05011060658418901,0.4547571753701731,2.82905572112372,-1.3360290817318912,0.02760638040789931,0.39792388677597046,0.05536683276295662,0.4566103518009186,2.8201791457953016,-1.344551879589062,0.017349825864627636,-0.2452382892370224,-0.4991239011287689,0.34802764654159546,-2.475067377090454,0.15779180824756622,1.9980789422988892,0.8872787952423096,-0.0004967907443642616,0.000447354803327471,-0.00925135426223278,-0.02195616066455841,4.8241738113574684e-05,0.026229625567793846,-0.0174685250967741,300.0,334.2167092825861,550.4414363981754,30.0,30.0,30.0,24.491198419023927,25.850175080118227,33.174544551037414,7.744796963123049,7.744796963123049,7.744796963123049
0.3981336429988005,0.39689301368275476,0.049976930788289374,0.45469297305120715,2.8292671511208485,-1.3358061114511126,0.027810232643565615,0.3979105055332184,0.05531015992164612,0.45654526352882385,2.8202476733371733,-1.3444752956869461,0.01734345264530909,-0.2452402263879776,-0.49912625551223755,0.34793272614479065,-2.4752626419067383,0.15778976678848267,1.9982666969299316,0.8871015906333923,-0.0010072662262246013,0.0003983753558713943,-0.011237346567213535,-0.0232382845133543,-0.0004532967577688396,0.02190227434039116,-0.024325024336576462,300.0,334.2167092825861,550.4414363981754,30.0,30.0,30.0,24.491198419023927,25.850175080118227,33.174544551037414,7.744796963123049,7.744796963123049,7.744796963123049
0.4074610739990021,0.39686252838138064,0.0498362869053285,0.4546254240729221,2.829489571216613,-1.3355714822192533,0.028024724211778963,0.3978961706161499,0.05524079129099846,0.4564651846885681,2.820310543145171,-1.344446403856805,0.017336070900281882,-0.2452366203069687,-0.4991287589073181,0.347809374332428,-2.475494861602783,0.15778760612010956,1.9985005855560303,0.8869168758392334,0.00022577052004635334,0.0004854730796068907,-0.006936624646186829,-0.025921795517206192,0.0003267821448389441,0.02250276692211628,-0.02397085539996624,300.0,334.2167092825861,550.4414363981754,30.0,30.0,30.0,24.491198419023927,25.850175080118227,33.174544551037414,7.744796963123049,7.744796963123049,7.744796963123049
0.41742570199858164,0.396829960497722,0.0496860350327506,0.45455326053289186,2.8297271505894086,-1.335320783408458,0.028253883546044,0.39788052439689636,0.055159423500299454,0.45637255907058716,2.820367048194638,-1.3444449280175783,0.017332124849945344,-0.2452366203069687,-0.49912306666374207,0.3476830720901489,-2.475735902786255,0.15778405964374542,1.998748779296875,0.8867619037628174,-0.00026338742463849485,0.00016614404739812016,-0.01307592447847128,-0.02430739253759384,0.0004489295242819935,0.023495472967624664,-0.012141769751906395,300.0,334.2167092825861,550.4414363981754,30.0,30.0,30.0,24.491198419023927,25.850175080118227,33.174544551037414,7.744796963123049,7.744796963123049,7.744796963123049
0.4278051689998392,0.3967960367753563,0.04952952800074044,0.45447809274113193,2.8299745819956765,-1.3350596026304726,0.028492599438015638,0.3978652358055115,0.05509243905544281,0.45629042387008667,2.820436962840615,-1.3443644797984347,0.017327024317989808,-0.2452366203069687,-0.4991235136985779,0.34755632281303406,-2.4759974479675293,0.15777350962162018,1.999007225036621,0.8865566849708557,0.0006409558700397611,-0.0006025453913025558,-0.007250430528074503,-0.02593962475657463,-0.00038385429070331156,0.02358202636241913,-0.02088836021721363,300.0,334.2167092825861,550.4414363981754,30.0,30.0,30.0,24.491198419023927,25.850175080118227,33.174544551037414,7.744796963123049,7.744796963123049,7.744796963123049
0.4375208900000871,0.39676428240668254,0.04938302927807931,0.4544077317781985,2.830206154899256,-1.334815082151038,0.028716065080852535,0.3978481888771057,0.05500485748052597,0.45620033144950867,2.820536111783859,-1.3442552351730723,0.017323022859923397,-0.2452368587255478,-0.4991247057914734,0.3474251925945282,-2.4762399196624756,0.15776370465755463,1.9992471933364868,0.8863291144371033,-0.00046282768016681075,-0.000630308233667165,-0.013411612249910831,-0.02978641353547573,-0.0002574734971858561,0.022333737462759018,-0.023782439529895782,300.0,334.2167092825861,550.4414363981754,30.0,30.0,30.0,24.491198419023927,25.850175080118227,33.174544551037414,7.744796963123049,7.744796963123049,7.744796963123049
0.44644601399886596,0.3967351119850629,0.049248451590496484,0.45434309629526953,2.830418853548229,-1.334590423505026,0.028921359571325585,0.3978346288204193,0.054947204887866974,0.4561355412006378,2.820630587448698,-1.3441180096832246,0.017319563462684186,-0.24523498117923737,-0.49912694096565247,0.34728917479515076,-2.4764909744262695,0.1577511429786682,1.9994884729385376,0.8860571384429932,0.00010159557859878987,6.643436063313857e-05,-0.012042265385389328,-0.026646550744771957,-1.7618660876905778e-06,0.03208646923303604,-0.034997083246707916,300.0,334.2167092825861,550.4414363981754,30.0,30.0,30.0,24.491198419023927,25.850175080118227,33.174544551037414,7.744796963123049,7.744796963123049,7.744796963123049
0.455602452999301,0.3967051855452494,0.04911038601433862,0.4542767856359684,2.8306370344299774,-1.3343599069667325,0.029131987582464155,0.3978150486946106,0.05484243482351303,0.4560261070728302,2.8207985810222778,-1.3439012945507804,0.01731997969514599,-0.24523451924324036,-0.49913161993026733,0.3471403121948242,-2.476759433746338,0.15773840248584747,1.9997597932815552,0.8857473134994507,0.0007531169685535133,-0.0010152324102818966,-0.014203773811459541,-0.03425895795226097,-0.002215692773461342,0.028734689578413963,-0.03732028603553772,300.0,334.2167092825861,550.4414363981754,30.0,30.0,30.0,24.491198419023927,25.850175080118227,33.174544551037414,7.744796963123049,7.744796963123049,7.744796963123049
0.4651042219993542,0.396674130446418,0.048967113371835465,0.45420797410706615,2.8308634113883375,-1.3341206587728347,0.02935057306372164,0.3978031873703003,0.05475259944796562,0.4559445083141327,2.8209249645389076,-1.3438044632905237,0.017323952664132114,-0.24523355066776276,-0.49912071228027344,0.3469502329826355,-2.4770376682281494,0.157740980386734,2.000058650970459,0.8854330778121948,0.0007665941375307739,0.0012454688549041748,-0.021637730300426483,-0.029557283967733383,0.00024002473219297826,0.025757063180208206,-0.036805640906095505,300.0,334.2167092825861,550.4414363981754,30.0,30.0,30.0,24.491198419023927,25.850175080118227,33.174544551037414,7.744796963123049,7.744796963123049,7.744796963123049
0.47381228799895325,0.39664566944612994,0.048835808598287775,0.45414491055172074,2.8310708495275807,-1.3339013616329838,0.0295509119328054,0.3977949917316437,0.054662398993968964,0.4558681845664978,2.8210713535357756,-1.3436493219433725,0.017375082797875547,-0.24523814022541046,-0.4991151690483093,0.3468051850795746,-2.4772496223449707,0.15773062407970428,2.0003063678741455,0.8851685523986816,-0.0007952492451295257,0.001162729342468083,-0.020420877262949944,-0.02637529745697975,-0.0004643733554985374,0.03364509344100952,-0.036214686930179596,300.0,334.2167092825861,550.4414363981754,30.0,30.0,30.0,24.491198419023927,25.850175080118227,33.174544551037414,7.744796963123049,7.744796963123049,7.744796963123049
0.4830664099990827,0.3966154237441654,0.048696270106771335,0.454077892475037,2.831291264995276,-1.3336682775539976,0.029763826325609397,0.3977848291397095,0.054552920162677765,0.45577913522720337,2.821251771883966,-1.3434360931170557,0.01739958679945636,-0.24523821473121643,-0.49910715222358704,0.34660905599594116,-2.4775278568267822,0.15770243108272552,2.000622034072876,0.8847935795783997,-0.00016174226766452193,0.001141807297244668,-0.021993257105350494,-0.027950186282396317,-0.005158691201359034,0.034493859857320786,-0.03868863359093666,300.0,334.2167092825861,550.4414363981754,30.0,30.0,30.0,24.491198419023927,25.850175080118227,33.174544551037414,7.744796963123049,7.744796963123049,7.744796963123049
0.49274227599926235,0.3965837996355481,0.0485503723386458,0.4540078201408304,2.8315216920064787,-1.333424531878028,0.02998645820355939,0.3977770507335663,0.05445015802979469,0.45571237802505493,2.8214331517648343,-1.3432910492321029,0.017432360307257325,-0.24523650109767914,-0.49910831451416016,0.3463785946369171,-2.477778673171997,0.15770041942596436,2.000912666320801,0.8844141364097595,-0.0006526733632199466,0.0005391822778619826,-0.023844942450523376,-0.023740949109196663,0.0006367094465531409,0.02902398817241192,-0.04194067791104317,300.0,334.2167092825861,550.4414363981754,30.0,30.0,30.0,24.491198419023927,25.850175080118227,33.174544551037414,7.744796963123049,7.744796963123049,7.744796963123049
0.5027759739987232,0.39655100600701265,0.048399078992485384,0.4539351563979124,2.8317606043731383,-1.333171729797508,0.03021733876465675,0.39776673913002014,0.054320067167282104,0.4556381404399872,2.8216251859133474,-1.343124298224522,0.01747623472572404,-0.2452409714460373,-0.4991169571876526,0.34613940119743347,-2.4780209064483643,0.15768270194530487,2.0011918544769287,0.8840377926826477,-0.001030853483825922,-0.002154151676222682,-0.029953045770525932,-0.02369263768196106,-0.005608529783785343,0.02307404950261116,-0.03436125069856644,300.0,334.2167092825861,550.4414363981754,30.0,30.0,30.0,24.491198419023927,25.850175080118227,33.174544551037414,7.744796963123049,7.744796963123049,7.744796963123049
0.5128498569993098,0.3965180810398621,0.04824717971586084,0.45386220163640967,2.8320004364207185,-1.3329178719943882,0.030449159704371686,0.39775770902633667,0.05419282987713814,0.45556801557540894,2.8218049741313607,-1.3429435825299987,0.01748195580220778,-0.24523647129535675,-0.4991162419319153,0.34586286544799805,-2.4782848358154297,0.15765294432640076,2.001462936401367,0.8836061954498291,0.0006440913421101868,0.0009099961025640368,-0.02296377532184124,-0.02247035689651966,-0.0057811313308775425,0.0270185936242342,-0.04852519556879997,300.0,334.2167092825861,550.4414363981754,30.0,30.0,30.0,24.491198419023927,25.850175080118227,33.174544551037414,7.744796963123049,7.744796963123049,7.744796963123049
0.5236673079998582,0.39648272583285554,0.04808406853203935,0.4537838619775347,2.8322579293496997,-1.3326452283247798,0.0306981092001329,0.3977513611316681,0.05403207987546921,0.4554957449436188,2.822027906809243,-1.3428132012375256,0.017490526013297973,-0.24523557722568512,-0.49910998344421387,0.3455551564693451,-2.4785280227661133,0.1576375663280487,2.0017361640930176,0.8831639289855957,0.0001901648793136701,0.0026846490800380707,-0.03070301003754139,-0.02434794418513775,-0.0001225578016601503,0.02154051698744297,-0.03890957683324814,300.0,334.2167092825861,550.4414363981754,30.0,30.0,30.0,24.491198419023927,25.850175080118227,33.174544551037414,7.744796963123049,7.744796963123049,7.744796963123049
0.5349592909988132,0.39644581968958553,0.047913802106560904,0.45370208577202054,2.8325266719635693,-1.3323605712176771,0.030957998774971712,0.3977513909339905,0.053895484656095505,0.4554491937160492,2.822209675234558,-1.3427282641274416,0.01754594311802175,-0.24523451924324036,-0.49911317229270935,0.34526515007019043,-2.478724479675293,0.15761947631835938,2.001986026763916,0.8828063011169434,0.00039270968409255147,0.003130619414150715,-0.026558486744761467,-0.016911305487155914,-0.006372547708451748,0.026315994560718536,-0.03689207509160042,300.0,334.2167092825861,550.4414363981754,30.0,30.0,30.0,24.491198419023927,25.850175080118227,33.174544551037414,7.744796963123049,7.744796963123049,7.744796963123049
0.5449762769985682,0.39641308068170045,0.04776276075267259,0.453629543056908,2.832765031203158,-1.3321080096541307,0.031188560313032073,0.3977523446083069,0.05375353619456291,0.4554065465927124,2.8224262224254373,-1.3425528962687312,0.01761185803217061,-0.24523845314979553,-0.4991145730018616,0.3449384868144989,-2.478933572769165,0.15758106112480164,2.0022544860839844,0.8823294043540955,0.00011528513277880847,3.848037522402592e-05,-0.034309614449739456,-0.021297216415405273,-0.005240226164460182,0.023470481857657433,-0.03879723325371742,300.0,334.2167092825861,550.4414363981754,30.0,30.0,30.0,24.491198419023927,25.850175080118227,33.174544551037414,7.744796963123049,7.744796963123049,7.744796963123049
0.5554314969995175,0.39637890937208103,0.04760511147731351,0.45355382666417415,2.833013779136029,-1.3318443530522464,0.031429225288031125,0.39775142073631287,0.05357733741402626,0.45535123348236084,2.822779118661071,-1.3421359900070355,0.017639336431223864,-0.24523814022541046,-0.4991130530834198,0.34462738037109375,-2.4791181087493896,0.15754123032093048,2.0024774074554443,0.8817819356918335,0.00041431107092648745,-0.0013423491036519408,-0.029203874990344048,-0.018111029639840126,-0.006448991131037474,0.024183090776205063,-0.05508383363485336,300.0,334.2167092825861,550.4414363981754,30.0,30.0,30.0,24.491198419023927,25.850175080118227,33.174544551037414,7.744796963123049,7.744796963123049,7.744796963123049
0.5675005100001727,0.39633946362344935,0.04742312858707495,0.45346642323046493,2.8333008720885196,-1.3315399422605174,0.03170705864164571,0.3977537751197815,0.0534142404794693,0.4553111791610718,2.823136542795048,-1.3417953747302291,0.017707802817615442,-0.24523770809173584,-0.4991156756877899,0.3442021608352661,-2.479351282119751,0.15752074122428894,2.0027928352355957,0.8810222148895264,3.3208470995305106e-05,-0.000113189838884864,-0.03188754990696907,-0.020692098885774612,0.00022504136723000556,0.02020019292831421,-0.05440880358219147,300.0,334.2167092825861,550.4414363981754,30.0,30.0,30.0,24.491198419023927,25.850175080118227,33.174544551037414,7.744796963123049,7.744796963123049,7.744796963123049
0.5783560519994353,0.39630398392175875,0.04725944304725288,0.45338780771770854,2.8335590537469444,-1.3312660851182359,0.031956976693135894,0.39775922894477844,0.05324866622686386,0.4552719295024872,2.8234285274000497,-1.3416038240518038,0.017789529637457557,-0.24523968994617462,-0.4991201162338257,0.3438694179058075,-2.4795331954956055,0.15751256048679352,2.003047466278076,0.8805227279663086,-0.0007072567823342979,0.00018110411474481225,-0.035782307386398315,-0.01722637377679348,0.00013092599692754447,0.0269018467515707,-0.04549304395914078,300.0,334.2167092825861,550.4414363981754,30.0,30.0,30.0,24.491198419023927,25.850175080118227,33.174544551037414,7.744796963123049,7.744796963123049,7.744796963123049
0.5889795589991991,0.3962692625914663,0.04709925625250988,0.45331087259552727,2.833811674892212,-1.3309980328970294,0.0322015704633773,0.39776286482810974,0.05311139300465584,0.4552387297153473,2.823692822532018,-1.3413301305018084,0.017884366083509035,-0.24524253606796265,-0.4991278052330017,0.3435411751270294,-2.4797115325927734,0.157469242811203,2.003312110900879,0.8799980282783508,-0.0007116533233784139,-0.003321231110021472,-0.034606851637363434,-0.01829608902335167,-0.0018973269034177065,0.023355882614850998,-0.052532583475112915,300.0,334.2167092825861,550.4414363981754,30.0,30.0,30.0,24.491198419023927,25.850175080118227,33.174544551037414,7.744796963123049,7.744796963123049,7.744796963123049
0.5986209989987401,0.3962377509990396,0.04695387757762712,0.45324104957339484,2.8340409071118535,-1.3307547184639639,0.03242356841885005,0.39776599407196045,0.052953191101551056,0.45519882440567017,2.824023289993931,-1.3409264440733746,0.017955461709243413,-0.2452375590801239,-0.4991217851638794,0.3432079255580902,-2.479895830154419,0.1574125438928604,2.0035600662231445,0.8793726563453674,0.0020310566760599613,-0.000191572675248608,-0.03260500356554985,-0.017173459753394127,0.00025910563999786973,0.030874328687787056,-0.06161077693104744,300.0,334.2167092825861,550.4414363981754,30.0,30.0,30.0,24.491198419023927,25.850175080118227,33.174544551037414,7.744796963123049,7.744796963123049,7.744796963123049
0.6083982949985511,0.39620579538176703,0.046806450394918236,0.4531702426861433,2.8342733345002666,-1.33050793498809,0.03264870920699819,0.3977694511413574,0.05280662700533867,0.4551635980606079,2.824304520843929,-1.3406776219312615,0.017988288631564563,-0.245233952999115,-0.4991154670715332,0.34287238121032715,-2.48006272315979,0.15739046037197113,2.0037755966186523,0.8788507580757141,0.0009078102302737534,0.0002547757758293301,-0.035236556082963943,-0.02080238237977028,0.00026893711765296757,0.020741259679198265,-0.0540056973695755,300.0,334.2167092825861,550.4414363981754,30.0,30.0,30.0,24.491198419023927,25.850175080118227,33.174544551037414,7.744796963123049,7.744796963123049,7.744796963123049
0.6175190169997222,0.3961759856775785,0.046668923378355626,0.4531041906882901,2.8344901220150143,-1.3302776869423163,0.03285874447166227,0.39777693152427673,0.05266360566020012,0.4551340341567993,2.8246108500244955,-1.3404143692571249,0.01808838506894706,-0.24524179100990295,-0.4991140365600586,0.34256452322006226,-2.4802184104919434,0.15738141536712646,2.0040276050567627,0.8783127069473267,-0.0009045046754181385,0.00042138915159739554,-0.03434362635016441,-0.015723800286650658,-0.0008346003596670926,0.030348917469382286,-0.06083963066339493,300.0,334.2167092825861,550.4414363981754,30.0,30.0,30.0,24.491198419023927,25.850175080118227,33.174544551037414,7.744796963123049,7.744796963123049,7.744796963123049
0.6269677250002132,0.39614510400062103,0.046526450817355305,0.45303576342557084,2.8347146730530253,-1.3300391215927607,0.033076346291569955,0.39778682589530945,0.05251780152320862,0.45510464906692505,2.8249488472525996,-1.3401015944039298,0.018215983905559233,-0.24524620175361633,-0.4991133213043213,0.34224557876586914,-2.480382204055786,0.15736444294452667,2.0043106079101562,0.8777483701705933,-0.0003938876325264573,-0.0003244697581976652,-0.03505009412765503,-0.021418137475848198,-0.0005240510799922049,0.025931883603334427,-0.06848977506160736,300.0,334.2167092825861,550.4414363981754,30.0,30.0,30.0,24.491198419023927,25.850175080118227,33.174544551037414,7.744796963123049,7.744796963123049,7.744796963123049
0.6358720709995396,0.39611600148875864,0.04639218643131532,0.45297127841629675,2.8349262571214173,-1.3298142656544623,0.033281424208253106,0.3977980613708496,0.052325859665870667,0.4550667703151703,2.8253201660991016,-1.3398919689385778,0.018362802388276325,-0.2452380210161209,-0.4991152882575989,0.3418104946613312,-2.480592966079712,0.15736030042171478,2.004668951034546,0.8771118521690369,0.0016165697015821934,-0.0006733954651281238,-0.03803328052163124,-0.024225132539868355,1.663540388108231e-05,0.03510920703411102,-0.050153087824583054,300.0,334.2167092825861,550.4414363981754,30.0,30.0,30.0,24.491198419023927,25.850175080118227,33.174544551037414,7.744796963123049,7.744796963123049,7.744796963123049
0.6465307529997517,0.39608116519428266,0.04623146924951869,0.4528940885578069,2.835179489158055,-1.3295450640345912,0.03352692274532792,0.3978053033351898,0.052134521305561066,0.4550268054008484,2.825643947084536,-1.339711504687956,0.01849887516738744,-0.2452378273010254,-0.49911797046661377,0.3413899838924408,-2.4808168411254883,0.15734611451625824,2.005012273788452,0.8765182495117188,-0.0005994878592900932,-0.00014931810437701643,-0.037918172776699066,-0.0226825550198555,-0.0006585739320144057,0.03591868653893471,-0.054067302495241165,300.0,334.2167092825861,550.4414363981754,30.0,30.0,30.0,24.491198419023927,25.850175080118227,33.174544551037414,7.744796963123049,7.744796963123049,7.744796963123049
0.657501952999155,0.3960453074818632,0.0460660397578802,0.45281463545324846,2.8354401024140024,-1.329267918618528,0.033779637777746105,0.3978100121021271,0.05195881053805351,0.45499083399772644,2.8260189077833995,-1.3393116340452926,0.018588991687272013,-0.24524620175361633,-0.4991261959075928,0.34104835987091064,-2.4809818267822266,0.15731166303157806,2.0052645206451416,0.8759328722953796,-0.0002500531554687768,-0.00029842896037735045,-0.04268919304013252,-0.01574142463505268,-0.004702428355813026,0.03200184553861618,-0.06629639118909836,300.0,334.2167092825861,550.4414363981754,30.0,30.0,30.0,24.491198419023927,25.850175080118227,33.174544551037414,7.744796963123049,7.744796963123049,7.744796963123049
0.6668588089996774,0.39601472600931364,0.045924952189374924,0.452746873379985,2.8356623330335045,-1.3290315128195687,0.03399518206926668,0.39781704545021057,0.05179818719625473,0.45495912432670593,2.8263867057879337,-1.3389497440562061,0.018634780409123163,-0.24524690210819244,-0.4991201162338257,0.34064948558807373,-2.481172561645508,0.15729741752147675,2.005523443222046,0.8752104640007019,-0.0010858665918931365,0.0005880163516849279,-0.03867312893271446,-0.018200667575001717,-0.00010676166129997,0.020370222628116608,-0.06819917261600494,300.0,334.2167092825861,550.4414363981754,30.0,30.0,30.0,24.491198419023927,25.850175080118227,33.174544551037414,7.744796963123049,7.744796963123049,7.744796963123049
0.6765092259993253,0.3959831850769161,0.045779438154589486,0.45267698534668444,2.835891502120193,-1.3287876508866225,0.03421750300586239,0.3978261351585388,0.051611557602882385,0.4549248516559601,2.8267534277267963,-1.3386962639932423,0.018717115815208015,-0.2452363222837448,-0.49911314249038696,0.3402705490589142,-2.481339693069458,0.15729476511478424,2.005777597427368,0.8746089339256287,1.344403472103295e-06,0.0017928096931427717,-0.03619157150387764,-0.02127843350172043,0.0006380185368470848,0.02504117414355278,-0.06117929145693779,300.0,334.2167092825861,550.4414363981754,30.0,30.0,30.0,24.491198419023927,25.850175080118227,33.174544551037414,7.744796963123049,7.744796963123049,7.744796963123049
0.6865484849986387,0.3959503732730914,0.04562806095676483,0.4526042813311706,2.8361298686611978,-1.328533920877284,0.034448797148351126,0.39784005284309387,0.05141475424170494,0.45488694310188293,2.8270707024476667,-1.3385948086242165,0.018918412048209966,-0.24524453282356262,-0.4991064667701721,0.3398352861404419,-2.4815597534179688,0.15728387236595154,2.0061731338500977,0.8740425705909729,-0.0018134135752916336,-0.00012498514843173325,-0.04058147966861725,-0.02078511379659176,7.458370964741334e-05,0.036340370774269104,-0.05086018890142441,300.0,334.2167092825861,550.4414363981754,30.0,30.0,30.0,24.491198419023927,25.850175080118227,33.174544551037414,7.744796963123049,7.744796963123049,7.744796963123049
0.6968380529997376,0.3959167433720483,0.04547290946889715,0.45252976458529987,2.8363741398697004,-1.3282738199527833,0.034685874318431904,0.3978482186794281,0.051232483237981796,0.45484796166419983,2.827320133138094,-1.3384799190670806,0.019063719033710756,-0.24524982273578644,-0.4991133213043213,0.339403361082077,-2.4817843437194824,0.15723378956317902,2.006537437438965,0.8734965920448303,-0.00016991581651382148,0.0011429645819589496,-0.04033038765192032,-0.016860540956258774,-0.0027313726022839546,0.028368690982460976,-0.0477813258767128,300.0,334.2167092825861,550.4414363981754,30.0,30.0,30.0,24.491198419023927,25.850175080118227,33.174544551037414,7.744796963123049,7.744796963123049,7.744796963123049
0.7073612509993836,0.3958823498865932,0.04531423518572054,0.45245355589791836,2.836623917032211,-1.3280077665391783,0.03492835137415939,0.3978548049926758,0.05106827989220619,0.45481637120246887,2.8275391100169722,-1.3383469825072154,0.019186718088671523,-0.24524982273578644,-0.4991116523742676,0.33903437852859497,-2.4819564819335938,0.1571708768606186,2.006807327270508,0.8730506896972656,0.000246277020778507,0.0003031363885384053,-0.04345545172691345,-0.019987571984529495,-0.009355021640658379,0.02810015343129635,-0.05044856294989586,300.0,334.2167092825861,550.4414363981754,30.0,30.0,30.0,24.491198419023927,25.850175080118227,33.174544551037414,7.744796963123049,7.744796963123049,7.744796963123049
0.716664215999117,0.3958519445486514,0.04517396021391069,0.452386184101682,2.8368446969258034,-1.327772524362819,0.03514272589495935,0.3978601396083832,0.05084410309791565,0.45477309823036194,2.827854801235922,-1.3381870008388492,0.019320048344366132,-0.24524159729480743,-0.499121755361557,0.3385794460773468,-2.482175827026367,0.1571142077445984,2.0071310997009277,0.8724808096885681,0.0010205520084127784,-0.0011938592651858926,-0.03948517516255379,-0.01796419359743595,-0.007015349343419075,0.03614463284611702,-0.04752175137400627,300.0,334.2167092825861,550.4414363981754,30.0,30.0,30.0,24.491198419023927,25.850175080118227,33.174544551037414,7.744796963123049,7.744796963123049,7.744796963123049
0.7281909489993268,0.39581427116040946,0.04500015410513672,0.45230270784363075,2.837118207488118,-1.3274809989558851,0.03540836275555221,0.39786019921302795,0.0506652295589447,0.4547247290611267,2.8281435650410947,-1.3380156206705613,0.01936580750754026,-0.24524572491645813,-0.4991237223148346,0.33818933367729187,-2.482391119003296,0.15710298717021942,2.0074102878570557,0.8719354271888733,-0.0007941059884615242,-0.00020985140872653574,-0.03791344165802002,-0.020845774561166763,-0.00024986834614537656,0.027240874245762825,-0.05869372561573982,300.0,334.2167092825861,550.4414363981754,30.0,30.0,30.0,24.491198419023927,25.850175080118227,33.174544551037414,7.744796963123049,7.744796963123049,7.744796963123049
0.7378948469995521,0.39578255543342805,0.04485383365585348,0.4522324325025123,2.837348427169371,-1.3272355313250281,0.03563200777494793,0.39786508679389954,0.05048031732439995,0.4546801745891571,2.828405623821434,-1.3379217375774766,0.01944300860227808,-0.24524453282356262,-0.4991208612918854,0.3377376198768616,-2.4826276302337646,0.15708881616592407,2.0077390670776367,0.871366024017334,0.0008634297992102802,3.2352305424865335e-05,-0.039271511137485504,-0.021927686408162117,3.709409065777436e-05,0.02356676571071148,-0.053282782435417175,300.0,334.2167092825861,550.4414363981754,30.0,30.0,30.0,24.491198419023927,25.850175080118227,33.174544551037414,7.744796963123049,7.744796963123049,7.744796963123049
0.7483548869986407,0.3957483683703717,0.04469611170204154,0.45215668120349506,2.837596547013884,-1.3269708914631326,0.03587309583151288,0.397873193025589,0.050291530787944794,0.45463529229164124,2.8286607719364754,-1.337848087327193,0.019550175820509125,-0.24524466693401337,-0.49911564588546753,0.3374495804309845,-2.482771158218384,0.1570686399936676,2.0079617500305176,0.8710134625434875,-0.0004984361003153026,0.00040034475387074053,-0.037537917494773865,-0.022923098877072334,-0.005648588761687279,0.03896074742078781,-0.049359697848558426,300.0,334.2167092825861,550.4414363981754,30.0,30.0,30.0,24.491198419023927,25.850175080118227,33.174544551037414,7.744796963123049,7.744796963123049,7.744796963123049
0.7577228929985722,0.3957177504557308,0.04455485600801361,0.452088838382267,2.8378187287491645,-1.3267338404910631,0.03608902850345511,0.39787283539772034,0.050121139734983444,0.4545895755290985,2.8288744339976377,-1.3377862628434847,0.01963277132356321,-0.24524132907390594,-0.49911656975746155,0.33695530891418457,-2.4830515384674072,0.15703575313091278,2.008352041244507,0.870432436466217,0.000755864370148629,-0.00043624741374514997,-0.042509775608778,-0.027453463524580002,-0.0017520947149023414,0.025319917127490044,-0.04736912623047829,300.0,334.2167092825861,550.4414363981754,30.0,30.0,30.0,24.491198419023927,25.850175080118227,33.174544551037414,7.744796963123049,7.744796963123049,7.744796963123049
0.7677688139992824,0.39568491687815943,0.0444033783570476,0.45201608612073696,2.8380569526689676,-1.326479593703729,0.03632060218284898,0.39787179231643677,0.049916286021471024,0.4545259475708008,2.8291390756885137,-1.3376525309420966,0.019742118763297185,-0.24524712562561035,-0.49912330508232117,0.3365584909915924,-2.4833011627197266,0.15699541568756104,2.0086820125579834,0.8699327707290649,-9.067181963473558e-05,-0.0018043911550194025,-0.03670723736286163,-0.026960527524352074,-0.004530617501586676,0.034675683826208115,-0.05374005809426308,300.0,334.2167092825861,550.4414363981754,30.0,30.0,30.0,24.491198419023927,25.850175080118227,33.174544551037414,7.744796963123049,7.744796963123049,7.744796963123049
0.7781086869999854,0.3956511225628126,0.04424746834408587,0.4519412050675531,2.8383021083249713,-1.3262178624393521,0.036558968171479155,0.3978704810142517,0.049729540944099426,0.45446857810020447,2.8293589599713185,-1.3375611162454393,0.01983334174924731,-0.24524855613708496,-0.49912524223327637,0.3361091613769531,-2.4835739135742188,0.1569356769323349,2.00903582572937,0.869392454624176,-0.0006665204418823123,0.000665603089146316,-0.04391435161232948,-0.02480953000485897,-0.0041987416334450245,0.032473091036081314,-0.04512394219636917,300.0,334.2167092825861,550.4414363981754,30.0,30.0,30.0,24.491198419023927,25.850175080118227,33.174544551037414,7.744796963123049,7.744796963123049,7.744796963123049
0.7878681199999846,0.39561922532806065,0.04410031050903067,0.4518705275436157,2.8385334656996846,-1.3259707818624629,0.03678396836571151,0.3978736996650696,0.04956638067960739,0.454414963722229,2.8296053995003483,-1.337416503315039,0.019952238623757196,-0.24524344503879547,-0.49912166595458984,0.3357957601547241,-2.4837775230407715,0.15690530836582184,2.0093252658843994,0.8689875602722168,0.0001604655699338764,0.000521340814884752,-0.03698660805821419,-0.021150214597582817,-0.0031849145889282227,0.03675470128655434,-0.05338850989937782,300.0,334.2167092825861,550.4414363981754,30.0,30.0,30.0,24.491198419023927,25.850175080118227,33.174544551037414,7.744796963123049,7.744796963123049,7.744796963123049
0.7968469349998486,0.3955898794255021,0.04396492324045255,0.45180550323205143,2.8387462866659634,-1.3257434283502687,0.03699098467774844,0.39787009358406067,0.04940743371844292,0.45434442162513733,2.8298812808933174,-1.3371976343124385,0.02003435681818135,-0.2452475130558014,-0.49912166595458984,0.33542296290397644,-2.4840636253356934,0.15688005089759827,2.0097148418426514,0.8683998584747314,0.0008079801336862147,-0.0005987953045405447,-0.035020675510168076,-0.028041549026966095,-2.768131707853172e-06,0.04226313903927803,-0.058434005826711655,300.0,334.2167092825861,550.4414363981754,30.0,30.0,30.0,24.491198419023927,25.850175080118227,33.174544551037414,7.744796963123049,7.744796963123049,7.744796963123049
0.80671028299912,0.39555764256024856,0.04381619852068975,0.4517340731587755,2.8389800390216915,-1.3254936378058944,0.037218409195947745,0.39786434173583984,0.04921387881040573,0.4542556405067444,2.830216160607287,-1.3369616545242664,0.02013055657264606,-0.24524565041065216,-0.49912333488464355,0.33505141735076904,-2.484365463256836,0.15687604248523712,2.0100972652435303,0.8678330779075623,-0.0004851098929066211,-0.0007306223269551992,-0.03299744799733162,-0.03100086934864521,-0.00019744056044146419,0.037102553993463516,-0.0502098873257637,300.0,334.2167092825861,550.4414363981754,30.0,30.0,30.0,24.491198419023927,25.850175080118227,33.174544551037414,7.744796963123049,7.744796963123049,7.744796963123049
0.8174733719988581,0.39552246502724225,0.043653907035548355,0.4516561271878959,2.8392350734209355,-1.3252210138065121,0.03746659665235034,0.397861510515213,0.049039024859666824,0.4541684687137604,2.8305307748441826,-1.3367365268102578,0.020291424807086695,-0.24524569511413574,-0.4991227090358734,0.33466121554374695,-2.4847185611724854,0.15686418116092682,2.0105955600738525,0.8671947717666626,-2.917896199505776e-05,0.0004242861468810588,-0.03577036038041115,-0.03069951944053173,-0.00014482092228718102,0.049564387649297714,-0.053911276161670685,300.0,334.2167092825861,550.4414363981754,30.0,30.0,30.0,24.491198419023927,25.850175080118227,33.174544551037414,7.744796963123049,7.744796963123049,7.744796963123049
0.8274041059994488,0.39549000792100714,0.0435041662344141,0.4515842091071997,2.839470346976785,-1.324969429092312,0.0376956065783622,0.39785730838775635,0.04886716231703758,0.45407459139823914,2.8308309041398836,-1.3365258387558254,0.0204549053542125,-0.24524477124214172,-0.4991236627101898,0.33433783054351807,-2.485034465789795,0.15685053169727325,2.0110280513763428,0.8666964769363403,0.0006323342095129192,-0.00023536037770099938,-0.03708692267537117,-0.03310540318489075,-0.005597245413810015,0.040429070591926575,-0.060830410569906235,300.0,334.2167092825861,550.4414363981754,30.0,30.0,30.0,24.491198419023927,25.850175080118227,33.174544551037414,7.744796963123049,7.744796963123049,7.744796963123049
0.8371616439999343,0.3954581168797753,0.043357036973152685,0.4515135453067925,2.839701481774457,-1.324722191100187,0.03792063729424028,0.39785563945770264,0.04873650148510933,0.4540003538131714,2.83108521833543,-1.3363466479384454,0.020615246222741516,-0.24524620175361633,-0.4991168975830078,0.3340071141719818,-2.485374927520752,0.15684141218662262,2.011528253555298,0.866146445274353,0.0004664747684728354,0.0010704847518354654,-0.03481241688132286,-0.03197450190782547,-0.00028401496820151806,0.04672539606690407,-0.059672627598047256,300.0,334.2167092825861,550.4414363981754,30.0,30.0,30.0,24.491198419023927,25.850175080118227,33.174544551037414,7.744796963123049,7.744796963123049,7.744796963123049
0.8469617029986694,0.39542608686507413,0.04320926655804075,0.45144257357057876,2.8399335883837122,-1.3244738347825644,0.03814666341842822,0.3978530764579773,0.0485507994890213,0.45388898253440857,2.8314192468357584,-1.336163315876137,0.020868381165717015,-0.24524405598640442,-0.4991180896759033,0.33366939425468445,-2.4857447147369385,0.1568358987569809,2.0120866298675537,0.865624189376831,0.0005616952548734844,-0.0005985884927213192,-0.035913776606321335,-0.038134410977363586,-0.00034845792106352746,0.05546940490603447,-0.05326564237475395,300.0,334.2167092825861,550.4414363981754,30.0,30.0,30.0,24.491198419023927,25.850175080118227,33.174544551037414,7.744796963123049,7.744796963123049,7.744796963123049
0.8564947599988955,0.39539492950613336,0.04306552213870705,0.4513735354549085,2.8401593371980227,-1.324232205567311,0.038366545683773005,0.3978474736213684,0.04837552830576897,0.4537808299064636,2.8317828478861733,-1.3358411958909482,0.021121056908739468,-0.24524562060832977,-0.4991205334663391,0.33332356810569763,-2.4861490726470947,0.1568167358636856,2.0126726627349854,0.8649894595146179,0.0008618377614766359,-0.0004751500382553786,-0.029058530926704407,-0.03610048443078995,-0.003989833407104015,0.05398419126868248,-0.05564320832490921,300.0,334.2167092825861,550.4414363981754,30.0,30.0,30.0,24.491198419023927,25.850175080118227,33.174544551037414,7.744796963123049,7.744796963123049,7.744796963123049
0.8673510339995119,0.3953594474120067,0.04290182556138572,0.45129491464102006,2.8404163797058573,-1.3239569902297035,0.03861696533165314,0.39783328771591187,0.04817305505275726,0.45364639163017273,2.8321054171840077,-1.3356582743386611,0.02129360467940127,-0.2452401965856552,-0.49912792444229126,0.3329467177391052,-2.4865734577178955,0.15681716799736023,2.0132391452789307,0.8644081950187683,0.001124384580180049,-0.0013173490297049284,-0.0349208302795887,-0.03721151500940323,-0.006741988938301802,0.04702257364988327,-0.048790182918310165,300.0,334.2167092825861,550.4414363981754,30.0,30.0,30.0,24.491198419023927,25.850175080118227,33.174544551037414,7.744796963123049,7.744796963123049,7.744796963123049
0.8787812059999851,0.39532208961882814,0.042729475449868146,0.451212137674861,2.840686963213807,-1.3236671717249155,0.03888064261022518,0.3978206515312195,0.048029690980911255,0.4535462260246277,2.8323070948626,-1.3355583406401328,0.021375628582928217,-0.24524466693401337,-0.49913331866264343,0.3326343595981598,-2.486955404281616,0.15681380033493042,2.0136947631835938,0.863952100276947,-0.00031109587871469557,-0.003283669939264655,-0.031248345971107483,-0.04053587466478348,-0.00020525995932985097,0.0487452894449234,-0.045755792409181595,300.0,334.2167092825861,550.4414363981754,30.0,30.0,30.0,24.491198419023927,25.850175080118227,33.174544551037414,7.744796963123049,7.744796963123049,7.744796963123049
0.8886659839990898,0.39528978271285237,0.042580427597359756,0.45114055240616274,2.840920924040323,-1.3234164925786747,0.039108686154481695,0.39780619740486145,0.04785306379199028,0.45341119170188904,2.832558050495956,-1.3354199484427867,0.021528559161199032,-0.24525119364261627,-0.499132364988327,0.33232927322387695,-2.4873571395874023,0.15680049359798431,2.0142078399658203,0.8634985089302063,-0.0015327121363952756,-0.0008428419241681695,-0.028517067432403564,-0.04141069948673248,-0.004732347559183836,0.05882444605231285,-0.04509589448571205,300.0,334.2167092825861,550.4414363981754,30.0,30.0,30.0,24.491198419023927,25.850175080118227,33.174544551037414,7.744796963123049,7.744796963123049,7.744796963123049
0.8992229259984015,0.395255278940224,0.04242124450450774,0.45106409934573777,2.8411707542591293,-1.3231487211984392,0.03935225326504618,0.3977954387664795,0.04769269376993179,0.45329245924949646,2.8328170428609467,-1.3352505913972372,0.021730681839979255,-0.24524669349193573,-0.49912744760513306,0.33198127150535583,-2.4878053665161133,0.15678341686725616,2.014816999435425,0.8629586696624756,-0.0016026265220716596,0.0006288341246545315,-0.03118031658232212,-0.04523254558444023,-0.004766576457768679,0.05549352988600731,-0.04640307277441025,300.0,334.2167092825861,550.4414363981754,30.0,30.0,30.0,24.491198419023927,25.850175080118227,33.174544551037414,7.744796963123049,7.744796963123049,7.744796963123049
0.9096126619988354,0.3952213216551833,0.042264582631157205,0.4509888571861908,2.841416587275398,-1.322885144446703,0.03959197940513844,0.39778047800064087,0.047532517462968826,0.45316508412361145,2.8331069697675657,-1.334990735668686,0.021893107585659308,-0.24524369835853577,-0.49912530183792114,0.3317076861858368,-2.488187313079834,0.15677277743816376,2.015312910079956,0.8624804615974426,0.0009655951871536672,-0.0002465016150381416,-0.0287639107555151,-0.04131536930799484,0.00011970442574238405,0.051261335611343384,-0.051858484745025635,300.0,334.2167092825861,550.4414363981754,30.0,30.0,30.0,24.491198419023927,25.850175080118227,33.174544551037414,7.744796963123049,7.744796963123049,7.744796963123049
0.919513711000036,0.39518896156989136,0.04211528943596931,0.45091715408337857,2.841650820217238,-1.3226339222805703,0.03982044536617305,0.397769033908844,0.047377895563840866,0.4530399441719055,2.833411047272481,-1.3347210594885162,0.022106218864028658,-0.24524661898612976,-0.4991324841976166,0.3313824236392975,-2.4886555671691895,0.15675166249275208,2.015939950942993,0.8618767261505127,-0.0026212262455374002,-0.0009894355898723006,-0.027265803888440132,-0.042159855365753174,-0.0018784616841003299,0.06143983453512192,-0.049048006534576416,300.0,334.2167092825861,550.4414363981754,30.0,30.0,30.0,24.491198419023927,25.850175080118227,33.174544551037414,7.744796963123049,7.744796963123049,7.744796963123049
0.9287757589991088,0.39515868996299475,0.04197563143209543,0.4508500786068459,2.8418699032092425,-1.3223988757759015,0.04003418009495577,0.39775580167770386,0.04725370556116104,0.45292818546295166,2.8336587052663442,-1.3344717599801068,0.022284618779344092,-0.2452481985092163,-0.4991360902786255,0.3311556875705719,-2.489020824432373,0.1567366123199463,2.016437292098999,0.8614155054092407,-5.5526281357742846e-05,-0.001021366799250245,-0.027601713314652443,-0.0440572127699852,-0.00038703728932887316,0.05968908220529556,-0.05770152807235718,300.0,334.2167092825861,550.4414363981754,30.0,30.0,30.0,24.491198419023927,25.850175080118227,33.174544551037414,7.744796963123049,7.744796963123049,7.744796963123049
0.9376009449988487,0.3951298461736513,0.04184256066193068,0.45078616687193784,2.8420786231830797,-1.322174881603567,0.04023784591146224,0.3977406919002533,0.04710446298122406,0.4527939260005951,2.833944593962904,-1.3342136539496687,0.022501093934513335,-0.24524663388729095,-0.4991361200809479,0.33088210225105286,-2.4894700050354004,0.1567213088274002,2.0170347690582275,0.8608793616294861,-4.912616714136675e-05,0.0008195142727345228,-0.027148045599460602,-0.04760618507862091,-0.00011765901581384242,0.055253300815820694,-0.05060607194900513,300.0,334.2167092825861,550.4414363981754,30.0,30.0,30.0,24.491198419023927,25.850175080118227,33.174544551037414,7.744796963123049,7.744796963123049,7.744796963123049
0.9473448979988461,0.3950979995329446,0.04169563624241171,0.4507156014537007,2.842309038939017,-1.321927529353805,0.04046272877185412,0.39772796630859375,0.04695018008351326,0.4526563286781311,2.8341893571945374,-1.3340589402138932,0.022699602839521098,-0.24524664878845215,-0.4991302490234375,0.3305894732475281,-2.489917278289795,0.15670768916606903,2.0176331996917725,0.860411524772644,-6.908216892043129e-05,0.0010383292101323605,-0.025487203150987625,-0.045524585992097855,-0.0007756038685329258,0.06334732472896576,-0.048802804201841354,300.0,334.2167092825861,550.4414363981754,30.0,30.0,30.0,24.491198419023927,25.850175080118227,33.174544551037414,7.744796963123049,7.744796963123049,7.744796963123049
0.957278617999691,0.395065532667418,0.04154585041680392,0.45064366174847936,2.842543905918012,-1.3216753180955276,0.04069200635298793,0.3977188467979431,0.04680350050330162,0.45252761244773865,2.8344316872867785,-1.3338642650389052,0.022938390707857272,-0.24524782598018646,-0.499118447303772,0.3303518295288086,-2.4902970790863037,0.15668106079101562,2.0181829929351807,0.8599888682365417,0.0010193904163315892,0.0015501162270084023,-0.02595837414264679,-0.04566933587193489,-0.002487360266968608,0.058963362127542496,-0.046788595616817474,300.0,334.2167092825861,550.4414363981754,30.0,30.0,30.0,24.491198419023927,25.850175080118227,33.174544551037414,7.744796963123049,7.744796963123049,7.744796963123049
0.9678431430002092,0.3950310041108939,0.041386552983493724,0.45056715377218487,2.842793647155465,-1.3214070448373243,0.04093586004447759,0.3977033197879791,0.04663270711898804,0.4523717761039734,2.8346967783112857,-1.333726717327981,0.023173880307801504,-0.24524469673633575,-0.49911266565322876,0.33002951741218567,-2.4908084869384766,0.1566714644432068,2.018869161605835,0.8594967126846313,0.00023892791068647057,0.0025711380876600742,-0.025069545954465866,-0.04216327518224716,-0.0034024110063910484,0.058136947453022,-0.04139262065291405,300.0,334.2167092825861,550.4414363981754,30.0,30.0,30.0,24.491198419023927,25.850175080118227,33.174544551037414,7.744796963123049,7.744796963123049,7.744796963123049
0.9788748169994506,0.3949949487483272,0.041220211633257176,0.45048726271671563,2.843054387463951,-1.321126858033121,0.04119051494814052,0.39769136905670166,0.04649452492594719,0.45225295424461365,2.834987708886658,-1.3334097201661754,0.023416799399388337,-0.2452470362186432,-0.4991200566291809,0.32977843284606934,-2.491211414337158,0.15664184093475342,2.019441843032837,0.858996570110321,0.0005373103776946664,-0.0014558610273525119,-0.02080088108778,-0.0394231453537941,-0.00041691024671308696,0.055945008993148804,-0.05272046476602554,300.0,334.2167092825861,550.4414363981754,30.0,30.0,30.0,24.491198419023927,25.850175080118227,33.174544551037414,7.744796963123049,7.744796963123049,7.744796963123049
0.9889297449990408,0.39496208573273844,0.041068598170051304,0.45041444522676716,2.8432920024891444,-1.320871433740908,0.04142263898188494,0.3976752758026123,0.04633805900812149,0.4521264135837555,2.8352785237651785,-1.3331915126119354,0.023628684913445476,-0.24524453282356262,-0.49912822246551514,0.32948267459869385,-2.491654396057129,0.1566379964351654,2.0200281143188477,0.8584390878677368,0.0007266849861480296,-0.002360799117013812,-0.031065883114933968,-0.039250437170267105,0.0005581408040598035,0.05081584304571152,-0.049241870641708374,300.0,334.2167092825861,550.4414363981754,30.0,30.0,30.0,24.491198419023927,25.850175080118227,33.174544551037414,7.744796963123049,7.744796963123049,7.744796963123049
0.9997554619985749,0.39492670350956094,0.04090536234717391,0.45033604570577307,2.843547790659675,-1.3205963809138301,0.041672574528995504,0.39766842126846313,0.04622003436088562,0.4520334005355835,2.835547961278214,-1.3328951611943844,0.023857615256368005,-0.24524661898612976,-0.499135285615921,0.32923176884651184,-2.492029905319214,0.15661384165287018,2.0205652713775635,0.8579418063163757,-0.0003367670578882098,-0.003873785026371479,-0.021630525588989258,-0.03359438478946686,-0.006182354409247637,0.04978962987661362,-0.05768967047333717,300.0,334.2167092825861,550.4414363981754,30.0,30.0,30.0,24.491198419023927,25.850175080118227,33.174544551037414,7.744796963123049,7.744796963123049,7.744796963123049
1.009756497998751,0.3948940166318438,0.040754561495721264,0.4502636185000838,2.8437840547861515,-1.320342236578785,0.041903486515956344,0.39765286445617676,0.04606478661298752,0.45191246271133423,2.83581367646649,-1.3326891870096527,0.023998326592133933,-0.24524910748004913,-0.49913647770881653,0.3289331793785095,-2.4924302101135254,0.15660183131694794,2.0210916996002197,0.8574016690254211,-8.94487020559609e-05,0.00029092797194607556,-0.02918720617890358,-0.034019432961940765,0.0003230723086744547,0.045567404478788376,-0.0471610352396965,300.0,334.2167092825861,550.4414363981754,30.0,30.0,30.0,24.491198419023927,25.850175080118227,33.174544551037414,7.744796963123049,7.744796963123049,7.744796963123049
1.0208054340000672,0.39485790485102695,0.040587959859989226,0.4501836024337082,2.844045031327764,-1.3200614135612752,0.04215861114769555,0.3976396918296814,0.04592583328485489,0.4518074095249176,2.8359667036283893,-1.3326731242085483,0.024096773280756656,-0.24524301290512085,-0.4991365373134613,0.32865697145462036,-2.4927690029144287,0.15659351646900177,2.0215201377868652,0.8570793271064758,0.0029179041739553213,-0.00030750056612305343,-0.021485114470124245,-0.03225243464112282,-0.0005420188535936177,0.04359947890043259,-0.03021266497671604,300.0,334.2167092825861,550.4414363981754,30.0,30.0,30.0,24.491198419023927,25.850175080118227,33.174544551037414,7.744796963123049,7.744796963123049,7.744796963123049
1.0303577369995764,0.39482668458944037,0.04044392523941249,0.4501144249390827,2.8442706207989774,-1.319818587394823,0.0423791930164965,0.3976231515407562,0.04579923301935196,0.451701283454895,2.836172027237088,-1.3323980047171133,0.02419108713510079,-0.2452496886253357,-0.49913299083709717,0.32845166325569153,-2.493075370788574,0.1565583050251007,2.021876811981201,0.8566939234733582,0.00020359366317279637,7.987904245965183e-05,-0.021181682124733925,-0.034090638160705566,-0.014621066860854626,0.03958912566304207,-0.045784395188093185,300.0,334.2167092825861,550.4414363981754,30.0,30.0,30.0,24.491198419023927,25.850175080118227,33.174544551037414,7.744796963123049,7.744796963123049,7.744796963123049
1.0398779099996318,0.3947955693399109,0.040300375091771826,0.45004548012895906,2.8444954177883415,-1.3195765392290315,0.042599046896610405,0.39761480689048767,0.04567287117242813,0.4516153633594513,2.8363848811516084,-1.332245408024968,0.024299814964876064,-0.24524620175361633,-0.49912604689598083,0.3281819224357605,-2.4934005737304688,0.15653705596923828,2.0222997665405273,0.8562176823616028,0.0005963257281109691,0.0009543331107124686,-0.028960587456822395,-0.02968047559261322,-0.0028933463618159294,0.03728695958852768,-0.05054502561688423,300.0,334.2167092825861,550.4414363981754,30.0,30.0,30.0,24.491198419023927,25.850175080118227,33.174544551037414,7.744796963123049,7.744796963123049,7.744796963123049
1.0497630279987789,0.39476326132269624,0.04015132211256497,0.44997389239799057,2.8447287965130394,-1.3193251714676175,0.042827343368273464,0.3976149260997772,0.04553331807255745,0.4515341818332672,2.836651382595394,-1.3320918358172877,0.02456250388439953,-0.24524302780628204,-0.49912944436073303,0.3278936743736267,-2.4937145709991455,0.15653273463249207,2.022799253463745,0.855787456035614,0.00019586736743804067,-0.0009127587545663118,-0.030108941718935966,-0.03203057125210762,-0.004906494170427322,0.047036074101924896,-0.04340208321809769,300.0,334.2167092825861,550.4414363981754,30.0,30.0,30.0,24.491198419023927,25.850175080118227,33.174544551037414,7.744796963123049,7.744796963123049,7.744796963123049
1.0596454919996177,0.3947309619796748,0.04000230915173267,0.449902323887199,2.844962076315275,-1.3190738294865259,0.04305559355803174,0.3976133465766907,0.04537525773048401,0.45143836736679077,2.8370304794517502,-1.331658252384026,0.02491144674282913,-0.2452475130558014,-0.4991322159767151,0.32764098048210144,-2.494028091430664,0.1564856767654419,2.0233070850372314,0.8552508354187012,0.0009669818100519478,-0.0007506065885536373,-0.02098831720650196,-0.028343060985207558,-0.0006105703068897128,0.04406249523162842,-0.05373925715684891,300.0,334.2167092825861,550.4414363981754,30.0,30.0,30.0,24.491198419023927,25.850175080118227,33.174544551037414,7.744796963123049,7.744796963123049,7.744796963123049
1.071081444999436,0.3946935852921718,0.03982987187128345,0.4498195050552144,2.845231981624923,-1.3187829253687073,0.043319742616159486,0.3976149559020996,0.04524484649300575,0.45136916637420654,2.8372659204939468,-1.3314986894062852,0.025157159356453133,-0.24524620175361633,-0.49913662672042847,0.32732394337654114,-2.494365930557251,0.15643498301506042,2.0238537788391113,0.8547228574752808,0.0001650569320190698,-0.0007476251921616495,-0.03127765655517578,-0.030064908787608147,-0.007988539524376392,0.04540589451789856,-0.04150097444653511,300.0,334.2167092825861,550.4414363981754,30.0,30.0,30.0,24.491198419023927,25.850175080118227,33.174544551037414,7.744796963123049,7.744796963123049,7.744796963123049
1.0805437789986172,0.39466265908069287,0.03968719385034834,0.44975097911341727,2.8454552698989577,-1.3185421833213387,0.04353831996933566,0.39761313796043396,0.045091282576322556,0.45128345489501953,2.837526575550157,-1.331326739029606,0.025454737242070813,-0.24524466693401337,-0.4991382956504822,0.32704606652259827,-2.4946751594543457,0.15640053153038025,2.0243430137634277,0.8542987704277039,-0.0005058582755737007,0.0005954083171673119,-0.026458140462636948,-0.03062126599252224,-0.0010688090696930885,0.04871349036693573,-0.04217079281806946,300.0,334.2167092825861,550.4414363981754,30.0,30.0,30.0,24.491198419023927,25.850175080118227,33.174544551037414,7.744796963123049,7.744796963123049,7.744796963123049
1.0907828729996254,0.3946291941463061,0.039532803435852436,0.4496768278987562,2.8456968503649884,-1.3182816357672738,0.04377485576230857,0.39761751890182495,0.04495568200945854,0.4512108862400055,2.837773990863864,-1.3311486291429728,0.02576583628377297,-0.24524758756160736,-0.49913981556892395,0.32678115367889404,-2.4949655532836914,0.15635277330875397,2.024843454360962,0.8538685441017151,0.0006445757462643087,0.0014788828557357192,-0.026551421731710434,-0.02671528421342373,-0.009631982073187828,0.047513362020254135,-0.04373630881309509,300.0,334.2167092825861,550.4414363981754,30.0,30.0,30.0,24.491198419023927,25.850175080118227,33.174544551037414,7.744796963123049,7.744796963123049,7.744796963123049
1.1008055699985562,0.3945964364728816,0.03938167596853165,0.4496042438247572,2.845933287444291,-1.3180265513696776,0.04400640811120167,0.397625595331192,0.04481685161590576,0.4511454701423645,2.8380188148893657,-1.3310922562193102,0.026085776079384206,-0.24525149166584015,-0.49914005398750305,0.32647204399108887,-2.495274782180786,0.1563369780778885,2.0254111289978027,0.8534437417984009,-0.0005032426561228931,-0.00011713793355738744,-0.02764229290187359,-0.030713004991412163,-0.0009978499729186296,0.056909482926130295,-0.03463046997785568,300.0,334.2167092825861,550.4414363981754,30.0,30.0,30.0,24.491198419023927,25.850175080118227,33.174544551037414,7.744796963123049,7.744796963123049,7.744796963123049
1.1114625589998468,0.3945616057117172,0.0392209843146582,0.4495270662269153,2.84618464662148,-1.3177552767611997,0.044252631302111524,0.39762383699417114,0.044673506170511246,0.4510597884654999,2.8382653828293716,-1.3309194342300468,0.026326919545474867,-0.24524898827075958,-0.49913617968559265,0.32620325684547424,-2.4955615997314453,0.15630757808685303,2.0258753299713135,0.8530443906784058,0.0003086564829573035,-0.0005944067961536348,-0.023588955402374268,-0.02722710184752941,-0.00990576297044754,0.04603736475110054,-0.04213828593492508,300.0,334.2167092825861,550.4414363981754,30.0,30.0,30.0,24.491198419023927,25.850175080118227,33.174544551037414,7.744796963123049,7.744796963123049,7.744796963123049
1.1220465619990136,0.3945270134942924,0.03906139318189719,0.44945041719153306,2.8464342425391407,-1.3174858120202113,0.04449718545532787,0.3976174294948578,0.04454564303159714,0.4509848356246948,2.8385257214557584,-1.3306732759982003,0.02650021975515145,-0.24524787068367004,-0.49913814663887024,0.3259267210960388,-2.49587082862854,0.15627986192703247,2.0263195037841797,0.8525405526161194,0.00020385434618219733,-0.0003066127246711403,-0.024893751367926598,-0.02906286157667637,-0.0021094533149152994,0.04015536233782768,-0.046467628329992294,300.0,334.2167092825861,550.4414363981754,30.0,30.0,30.0,24.491198419023927,25.850175080118227,33.174544551037414,7.744796963123049,7.744796963123049,7.744796963123049
1.1323930069993366,0.39449319769935604,0.03890538407288796,0.4493754885441232,2.8466781960131717,-1.3172223491822905,0.04473626721162424,0.3976111114025116,0.04440489783883095,0.45089924335479736,2.838788408168466,-1.3304922597401485,0.026717587034444743,-0.24524620175361633,-0.49914830923080444,0.32564300298690796,-2.496192693710327,0.1562708020210266,2.0267889499664307,0.8520750999450684,0.00020990354823879898,-0.0007907013059593737,-0.02517489716410637,-0.031846970319747925,-0.0002392573660472408,0.042889200150966644,-0.03835977613925934,300.0,334.2167092825861,550.4414363981754,30.0,30.0,30.0,24.491198419023927,25.850175080118227,33.174544551037414,7.744796963123049,7.744796963123049,7.744796963123049
1.1435218329988857,0.3944568248101297,0.0387375778139793,0.44929489391675304,2.846940552400018,-1.316938912696904,0.044993446274969144,0.3976033329963684,0.044273197650909424,0.45080605149269104,2.8390452873911403,-1.330250315693514,0.02694112169846135,-0.24524998664855957,-0.499159038066864,0.3254145085811615,-2.4964990615844727,0.15624740719795227,2.027233839035034,0.8516449928283691,-0.006063253618776798,-0.000993970432318747,-0.01988249458372593,-0.03156419098377228,-0.0006091963732615113,0.04868209362030029,-0.04383840784430504,300.0,334.2167092825861,550.4414363981754,30.0,30.0,30.0,24.491198419023927,25.850175080118227,33.174544551037414,7.744796963123049,7.744796963123049,7.744796963123049
1.1541366530000232,0.39442213187198205,0.038577522006344976,0.4492180217055578,2.847190748427235,-1.3166685179884041,0.04523876474393909,0.3975967764854431,0.04415985941886902,0.4507228136062622,2.839270179951726,-1.3300246520939307,0.027149676998501824,-0.24525149166584015,-0.49916258454322815,0.3251740336418152,-2.496823310852051,0.1562158465385437,2.0277132987976074,0.8511969447135925,-0.001201207865960896,-0.00045423777191899717,-0.021166792139410973,-0.028422510251402855,-0.004427260719239712,0.04399871826171875,-0.04091593995690346,300.0,334.2167092825861,550.4414363981754,30.0,30.0,30.0,24.491198419023927,25.850175080118227,33.174544551037414,7.744796963123049,7.744796963123049,7.744796963123049
1.1645225129996106,0.3943881872550655,0.0384209185773624,0.44914280761589387,2.847435507186585,-1.31640390908537,0.04547880846494937,0.3975834250450134,0.044020287692546844,0.45060887932777405,2.839489331566835,-1.3298396705823288,0.027377044209050502,-0.24524620175361633,-0.49916380643844604,0.3249337375164032,-2.497175693511963,0.156169131398201,2.028207540512085,0.8507887125015259,0.0003166903043165803,-0.0001916988694574684,-0.02409873716533184,-0.03218221664428711,-0.004741657990962267,0.04141055420041084,-0.03140515834093094,300.0,334.2167092825861,550.4414363981754,30.0,30.0,30.0,24.491198419023927,25.850175080118227,33.174544551037414,7.744796963123049,7.744796963123049,7.744796963123049
1.1762649319989578,0.3943498089296672,0.0382438602422875,0.4490577693662425,2.8477121869907647,-1.3161046825633629,0.04575022565609982,0.3975731432437897,0.043896276503801346,0.45051074028015137,2.839677825863591,-1.329771686053766,0.027603951512142053,-0.2452440708875656,-0.4991777241230011,0.32469066977500916,-2.497525453567505,0.1561654955148697,2.028700828552246,0.8504487872123718,0.0023057821672409773,-0.0005507809692062438,-0.018163636326789856,-0.030597535893321037,-0.0019515722524374723,0.04416004940867424,-0.033062878996133804,300.0,334.2167092825861,550.4414363981754,30.0,30.0,30.0,24.491198419023927,25.850175080118227,33.174544551037414,7.744796963123049,7.744796963123049,7.744796963123049
1.1871631750000233,0.39431418966619275,0.038079530834427194,0.44897884461409926,2.8479689300383506,-1.3158269151010484,0.0460021492763391,0.3975631594657898,0.04377032816410065,0.4504063129425049,2.8398698476850917,-1.3296674790535734,0.027866023526099664,-0.24524620175361633,-0.499186247587204,0.3244645893573761,-2.497889995574951,0.1561388522386551,2.029240608215332,0.8500840067863464,0.0004273664962965995,-0.0016402974724769592,-0.021233955398201942,-0.03641932085156441,-0.0023995970841497183,0.0544113889336586,-0.03397851809859276,300.0,334.2167092825861,550.4414363981754,30.0,30.0,30.0,24.491198419023927,25.850175080118227,33.174544551037414,7.744796963123049,7.744796963123049,7.744796963123049
1.1981267599985586,0.39427835684225504,0.03791421616575452,0.4488994466571509,2.8482271678020132,-1.315547431071974,0.04625560171941398,0.3975497782230377,0.04365667700767517,0.4503067135810852,2.840051173435755,-1.329536471819957,0.028058989077029303,-0.24524779617786407,-0.4991951584815979,0.3242511749267578,-2.4982316493988037,0.1561199277639389,2.0297136306762695,0.8497505784034729,0.00015669302956666797,-0.0005415266496129334,-0.023234892636537552,-0.030121708288788795,-0.0009371928172186017,0.050556570291519165,-0.03446076065301895,300.0,334.2167092825861,550.4414363981754,30.0,30.0,30.0,24.491198419023927,25.850175080118227,33.174544551037414,7.744796963123049,7.744796963123049,7.744796963123049
1.2082408589994884,0.39424530043517314,0.037761710491243425,0.4488262006525681,2.848465356958619,-1.3152895566513523,0.04648943237633373,0.39753320813179016,0.043533336371183395,0.45019611716270447,2.840324979821034,-1.3291635170900766,0.02825645474373479,-0.2452477663755417,-0.49920156598091125,0.32402530312538147,-2.4986019134521484,0.1560813933610916,2.030202627182007,0.8492594957351685,-0.00022644894488621503,-0.002546373289078474,-0.023374436423182487,-0.030841412022709846,-0.0030441321432590485,0.04220501333475113,-0.04697925224900246,300.0,334.2167092825861,550.4414363981754,30.0,30.0,30.0,24.491198419023927,25.850175080118227,33.174544551037414,7.744796963123049,7.744796963123049,7.744796963123049
1.2190766240000812,0.3942098853716197,0.03759832315935087,0.44874772836424875,2.8487204992178645,-1.3150132337873721,0.04673996482970152,0.39751744270324707,0.04342629387974739,0.4501004219055176,2.8405598379114023,-1.3288947554310468,0.02839340826809175,-0.24524453282356262,-0.4992115795612335,0.3238045275211334,-2.4989564418792725,0.15606409311294556,2.0306594371795654,0.848757266998291,-0.00040666726999916136,-1.7707812730805017e-05,-0.023354077711701393,-0.030074305832386017,-0.00038333560223691165,0.0438949353992939,-0.050448834896087646,300.0,334.2167092825861,550.4414363981754,30.0,30.0,30.0,24.491198419023927,25.850175080118227,33.174544551037414,7.744796963123049,7.744796963123049,7.744796963123049
1.2281141799994657,0.3941803474829641,0.03746205016325985,0.4486822786521105,2.8489332668330265,-1.3147827287095342,0.04694893486806985,0.39750662446022034,0.04331749677658081,0.45001220703125,2.8407852503531354,-1.3287057330574987,0.028594605992467357,-0.2452438324689865,-0.4992218315601349,0.32362112402915955,-2.499235153198242,0.15606538951396942,2.03105092048645,0.8484116792678833,0.0007479203632101417,2.3415663235937245e-05,-0.022316988557577133,-0.034009501338005066,2.649544740052079e-06,0.050429169088602066,-0.050128474831581116,300.0,334.2167092825861,550.4414363981754,30.0,30.0,30.0,24.491198419023927,25.850175080118227,33.174544551037414,7.744796963123049,7.744796963123049,7.744796963123049
1.2375177140002052,0.3941496134504113,0.03732025875945423,0.4486141785381558,2.8491546182100347,-1.3145428522507947,0.04716638048618025,0.39749616384506226,0.043219227343797684,0.44992777705192566,2.8409386781589188,-1.3286221692481963,0.02876021967424855,-0.2452448010444641,-0.49923279881477356,0.32339343428611755,-2.499601125717163,0.1560526192188263,2.0315542221069336,0.8480365872383118,-0.0007894911104813218,-0.0005396339111030102,-0.024629391729831696,-0.03871625289320946,-0.00262331566773355,0.055608369410037994,-0.02993401512503624,300.0,334.2167092825861,550.4414363981754,30.0,30.0,30.0,24.491198419023927,25.850175080118227,33.174544551037414,7.744796963123049,7.744796963123049,7.744796963123049
1.2464008089991694,0.3941205803942383,0.037186314807112195,0.4485498474279952,2.849363688609738,-1.3143162170847902,0.04737180401246858,0.39748015999794006,0.0431021973490715,0.4498249888420105,2.841143829427996,-1.3283934495276342,0.02892664810325988,-0.24524743854999542,-0.499240517616272,0.3231988251209259,-2.499913454055786,0.15602117776870728,2.03195858001709,0.8476701378822327,-0.0005393052706494927,-0.002921660663560033,-0.02585485391318798,-0.033344756811857224,-0.0034031718969345093,0.045121319591999054,-0.040413033217191696,300.0,334.2167092825861,550.4414363981754,30.0,30.0,30.0,24.491198419023927,25.850175080118227,33.174544551037414,7.744796963123049,7.744796963123049,7.744796963123049
1.2544758659987565,0.3940941882883905,0.037064554874336735,0.44849136810502793,2.849553715693252,-1.3141101682262661,0.04755855197222998,0.39746391773223877,0.04300234466791153,0.4497377872467041,2.8413330422313137,-1.3281190484889418,0.029023994202410076,-0.24524644017219543,-0.49924859404563904,0.3230196535587311,-2.500188112258911,0.1559881865978241,2.032297372817993,0.847278356552124,0.0011139033595100045,0.0004563559195958078,-0.021707957610487938,-0.033149901777505875,-0.0013538702623918653,0.044830240309238434,-0.04791555181145668,300.0,334.2167092825861,550.4414363981754,30.0,30.0,30.0,24.491198419023927,25.850175080118227,33.174544551037414,7.744796963123049,7.744796963123049,7.744796963123049
1.2627475009994669,0.3940671536969957,0.03693983083564807,0.44843146517001475,2.8497483435579953,-1.3138990744773238,0.04774985645338929,0.39744648337364197,0.042891569435596466,0.4496513903141022,2.8415271097311625,-1.3279216860599001,0.029125901950601194,-0.24524296820163727,-0.49926236271858215,0.3228040635585785,-2.500495433807373,0.15596625208854675,2.0326504707336426,0.8468897342681885,0.0001414820144418627,-0.002572055673226714,-0.027733664959669113,-0.0389067716896534,-0.0016026829835027456,0.04222568869590759,-0.05223662406206131,300.0,334.2167092825861,550.4414363981754,30.0,30.0,30.0,24.491198419023927,25.850175080118227,33.174544551037414,7.744796963123049,7.744796963123049,7.744796963123049
1.2710630699984904,0.394039975513954,0.03681444433715493,0.44837124406629064,2.849943979448558,-1.3136868300765754,0.047942187593300406,0.3974284827709198,0.04276762530207634,0.44955867528915405,2.8417396427397317,-1.3277122452778731,0.029265702398730758,-0.2452409863471985,-0.4992810785770416,0.3225909173488617,-2.500784397125244,0.15594998002052307,2.0330090522766113,0.8465202450752258,0.0005694186547771096,-0.005277472082525492,-0.028793903067708015,-0.037440452724695206,-1.8655475287232548e-05,0.046893682330846786,-0.04142281785607338,300.0,334.2167092825861,550.4414363981754,30.0,30.0,30.0,24.491198419023927,25.850175080118227,33.174544551037414,7.744796963123049,7.744796963123049,7.744796963123049
1.279924544998721,0.3940110131194859,0.03668082638246127,0.4483070695275188,2.850152430184222,-1.3134606196177434,0.048147156671181496,0.39740705490112305,0.04264925792813301,0.4494571387767792,2.8419715044550498,-1.3273923436697719,0.029426516552449867,-0.24524858593940735,-0.49930667877197266,0.32234737277030945,-2.5011684894561768,0.15590694546699524,2.0334761142730713,0.8459990620613098,-0.00517460610717535,-0.007790428586304188,-0.023920604959130287,-0.042189862579107285,-0.002140546217560768,0.04390040785074234,-0.05390866845846176,300.0,334.2167092825861,550.4414363981754,30.0,30.0,30.0,24.491198419023927,25.850175080118227,33.174544551037414,7.744796963123049,7.744796963123049,7.744796963123049
1.2892527069998323,0.39398052542894557,0.03654017147708637,0.4482395152553469,2.8503718272644645,-1.3132224596264463,0.04836293337657401,0.3973886966705322,0.042536403983831406,0.4493565559387207,2.8422152253248045,-1.3270808257987932,0.029547432618727318,-0.24525105953216553,-0.49932247400283813,0.32213759422302246,-2.501492977142334,0.15588650107383728,2.0338809490203857,0.8455415368080139,-0.0010519202332943678,-0.0024244277738034725,-0.027003157883882523,-0.03683745488524437,0.00012756590149365366,0.048273906111717224,-0.056938204914331436,300.0,334.2167092825861,550.4414363981754,30.0,30.0,30.0,24.491198419023927,25.850175080118227,33.174544551037414,7.744796963123049,7.744796963123049,7.744796963123049
1.2966223579987854,0.3939564388362149,0.03642904802492286,0.44818614446168614,2.850545137476548,-1.3130342766720506,0.04853341571652447,0.397367388010025,0.04242614284157753,0.44925907254219055,2.842441161523341,-1.326829762675512,0.029660630774511303,-0.24524392187595367,-0.4993380606174469,0.32192593812942505,-2.50182843208313,0.1558820903301239,2.0342795848846436,0.845093846321106,-4.618566163117066e-05,-0.004204899538308382,-0.029797537252306938,-0.04181356355547905,0.0001252221263712272,0.047153960913419724,-0.05368999391794205,300.0,334.2167092825861,550.4414363981754,30.0,30.0,30.0,24.491198419023927,25.850175080118227,33.174544551037414,7.744796963123049,7.744796963123049,7.744796963123049
1.3053618329995516,0.39392787518034394,0.03629726965002836,0.44812285344328706,2.8507506352192546,-1.3128110854067423,0.048735597008731334,0.3973314166069031,0.04226783290505409,0.4491117298603058,2.8427147378139566,-1.3265057324457108,0.029753808029701647,-0.24524767696857452,-0.4993695020675659,0.32162705063819885,-2.502307653427124,0.1558702439069748,2.0347983837127686,0.844508171081543,-5.3079646022524685e-05,-0.00344448653049767,-0.027110053226351738,-0.04226846992969513,-0.0004915529279969633,0.04865548759698868,-0.056502871215343475,300.0,334.2167092825861,550.4414363981754,30.0,30.0,30.0,24.491198419023927,25.850175080118227,33.174544551037414,7.744796963123049,7.744796963123049,7.744796963123049
1.3158488329991087,0.3938936000025924,0.036139141179229006,0.4480469069007471,2.8509971861763046,-1.312543222291748,0.0489782214302222,0.3973049223423004,0.04212676361203194,0.4490017592906952,2.8429227887812325,-1.3263240859846142,0.029893967425115735,-0.24525032937526703,-0.4993928074836731,0.3214043378829956,-2.502652883529663,0.15585334599018097,2.0351998805999756,0.8441005945205688,-0.00015292098396457732,-0.0031286703888326883,-0.025617940351366997,-0.04247691109776497,-0.0003371035563759506,0.05398998409509659,-0.0567174069583416,300.0,334.2167092825861,550.4414363981754,30.0,30.0,30.0,24.491198419023927,25.850175080118227,33.174544551037414,7.744796963123049,7.744796963123049,7.744796963123049
1.324762024998563,0.39386446857891283,0.03600474340857254,0.44798235782900286,2.851206704387391,-1.3123155210888113,0.04918444788293713,0.3972807824611664,0.04200185090303421,0.448895663022995,2.8430815450163394,-1.3262125818948898,0.02997087100716396,-0.2452460527420044,-0.49941641092300415,0.32113170623779297,-2.5030534267425537,0.1558387279510498,2.0356459617614746,0.8436902761459351,-0.0002980518329422921,-0.004187082406133413,-0.030030537396669388,-0.043236564844846725,-0.001932466751895845,0.04684527963399887,-0.0468992255628109,300.0,334.2167092825861,550.4414363981754,30.0,30.0,30.0,24.491198419023927,25.850175080118227,33.174544551037414,7.744796963123049,7.744796963123049,7.744796963123049
1.333284050999282,0.3938366156223008,0.03587624384342875,0.4479206415698041,2.8514069998990847,-1.312097781102008,0.04938163521087199,0.39725643396377563,0.04185701534152031,0.4487702250480652,2.8433210139274667,-1.3259640330427602,0.030114093030013476,-0.245247021317482,-0.4994311034679413,0.32085564732551575,-2.503467559814453,0.15581485629081726,2.036141872406006,0.8432135581970215,-0.0006917711580172181,-0.0016143327811732888,-0.027049364522099495,-0.040538474917411804,-8.287670789286494e-05,0.04560299217700958,-0.05164750665426254,300.0,334.2167092825861,550.4414363981754,30.0,30.0,30.0,24.491198419023927,25.850175080118227,33.174544551037414,7.744796963123049,7.744796963123049,7.744796963123049
1.3436362579996057,0.39380278099513655,0.03572014785196993,0.4478456711941613,2.8516502741647245,-1.3118332377995618,0.049621185220438416,0.3972332775592804,0.04168294742703438,0.44862639904022217,2.8436680629620428,-1.3254874602644036,0.03031727360495045,-0.2452460378408432,-0.49943435192108154,0.3205862045288086,-2.5038769245147705,0.15576447546482086,2.036654233932495,0.8426321148872375,0.0006115778815001249,0.0006435324903577566,-0.02825077809393406,-0.040778663009405136,-0.000796453095972538,0.054785266518592834,-0.05527467280626297,300.0,334.2167092825861,550.4414363981754,30.0,30.0,30.0,24.491198419023927,25.850175080118227,33.174544551037414,7.744796963123049,7.744796963123049,7.744796963123049
1.3558394729989232,0.39376289662751385,0.03553614139380655,0.4477572958735635,2.851936995236258,-1.3115213345387418,0.0499035885959265,0.3972121775150299,0.04148345813155174,0.4484902322292328,2.8440448231799533,-1.325033745146775,0.030453658176470232,-0.245244100689888,-0.49943506717681885,0.3201879560947418,-2.504333734512329,0.15570330619812012,2.037233352661133,0.8418752551078796,-1.0676199053705204e-05,-0.0005605958285741508,-0.03500577062368393,-0.03212603181600571,-0.00425603287294507,0.04451264813542366,-0.05654548853635788,300.0,334.2167092825861,550.4414363981754,30.0,30.0,30.0,24.491198419023927,25.850175080118227,33.174544551037414,7.744796963123049,7.744796963123049,7.744796963123049
1.3684469079998962,0.39372169112778393,0.03534603989504711,0.44766599320371875,2.8522331552267457,-1.311199032997148,0.05019537023618806,0.39719632267951965,0.04132995754480362,0.4483943581581116,2.844321068752252,-1.3247432614377759,0.03051322405262211,-0.2452477216720581,-0.4994257092475891,0.3198089301586151,-2.5047295093536377,0.15568268299102783,2.0376899242401123,0.841201663017273,-0.0008686045184731483,0.001509963534772396,-0.027374202385544777,-0.03070225939154625,-0.0032560296822339296,0.041806623339653015,-0.05442781746387482,300.0,334.2167092825861,550.4414363981754,30.0,30.0,30.0,24.491198419023927,25.850175080118227,33.174544551037414,7.744796963123049,7.744796963123049,7.744796963123049
1.3787548719992628,0.39368800110219515,0.035190611022696244,0.44759134323457495,2.852475254427611,-1.3109354656292078,0.05043395186058886,0.39718347787857056,0.041160643100738525,0.44830232858657837,2.8446009464082844,-1.3245096260133193,0.030591293245995643,-0.2452460527420044,-0.4994242489337921,0.3194955587387085,-2.5050201416015625,0.15567146241664886,2.0380566120147705,0.8406888246536255,-0.00021754599583800882,-0.00028004730120301247,-0.029620757326483727,-0.03171173483133316,-0.0009481379529461265,0.03194431588053703,-0.05020490288734436,300.0,334.2167092825861,550.4414363981754,30.0,30.0,30.0,24.491198419023927,25.850175080118227,33.174544551037414,7.744796963123049,7.744796963123049,7.744796963123049
1.3888345759987715,0.39365505710998766,0.03503862397400551,0.4475183463175709,2.852711954156747,-1.3106776908363256,0.05066726603162567,0.3971734344959259,0.040985122323036194,0.4482203722000122,2.8448735680752297,-1.3242810585061682,0.03070619019841858,-0.24524535238742828,-0.4994230568408966,0.319163978099823,-2.5052993297576904,0.15564373135566711,2.038405418395996,0.8401867747306824,-0.00013438265887089074,0.0006937537691555917,-0.03823848441243172,-0.025391876697540283,0.00019949169654864818,0.033482715487480164,-0.05400247126817703,300.0,334.2167092825861,550.4414363981754,30.0,30.0,30.0,24.491198419023927,25.850175080118227,33.174544551037414,7.744796963123049,7.744796963123049,7.744796963123049
1.4005985149997286,0.39361660844970986,0.03486124114909116,0.447433152220707,2.8529881564004,-1.3103767891526223,0.05093958470602479,0.39717206358909607,0.04078016057610512,0.44815272092819214,2.845304570855666,-1.3237230076535766,0.030993823302236902,-0.24525104463100433,-0.4994261562824249,0.31873372197151184,-2.5056185722351074,0.15554359555244446,2.03889536857605,0.8394142985343933,-0.0004624808207154274,-0.000393597932998091,-0.03482639789581299,-0.025691376999020576,-0.010288635268807411,0.03570767492055893,-0.06199517473578453,300.0,334.2167092825861,550.4414363981754,30.0,30.0,30.0,24.491198419023927,25.850175080118227,33.174544551037414,7.744796963123049,7.744796963123049,7.744796963123049
